(Exported by FreeCAD)
(Post Processor: grbl_post)
(Output Time:2021-07-23 20:14:42.273579)
(Begin preamble)
G17 G90
G21
(Begin operation: Fixture)
(Path: Fixture)
G54
(Finish operation: Fixture)
(Begin operation: 30degree_Vbit001)
(Path: 30degree_Vbit001)
(30degree_Vbit001)
(Begin toolchange)
( M6 T1.0 )
M3 S12000.0
(Finish operation: 30degree_Vbit001)
(Begin operation: Engrave)
(Path: Engrave)
(Engrave)
G0 Z4.000
G0 Z4.000
G0 X-2.521 Y-1.582
G0 Z2.000
G1 X-2.521 Y-1.582 Z-0.150 F150.000
G1 X-2.607 Y-1.460 Z-0.150 F400.000
G1 X-2.628 Y-1.345 Z-0.150 F400.000
G1 X-2.707 Y-0.547 Z-0.150 F400.000
G1 X-2.762 Y-0.328 Z-0.150 F400.000
G1 X-2.911 Y-0.129 Z-0.150 F400.000
G1 X-3.080 Y-0.028 Z-0.150 F400.000
G1 X-3.458 Y0.032 Z-0.150 F400.000
G1 X-3.156 Y-0.003 Z-0.150 F400.000
G1 X-2.911 Y-0.129 Z-0.150 F400.000
G1 X-2.780 Y-0.292 Z-0.150 F400.000
G1 X-2.707 Y-0.547 Z-0.150 F400.000
G1 X-2.628 Y-1.345 Z-0.150 F400.000
G1 X-2.607 Y-1.460 Z-0.150 F400.000
G1 X-2.521 Y-1.582 Z-0.150 F400.000
G0 Z4.000
G0 Z4.000
G0 X-4.746 Y-1.582
G0 Z2.000
G1 X-4.746 Y-1.582 Z-0.150 F150.000
G1 X-4.746 Y1.582 Z-0.150 F400.000
G1 X-3.606 Y1.582 Z-0.150 F400.000
G1 X-3.117 Y1.531 Z-0.150 F400.000
G1 X-2.948 Y1.471 Z-0.150 F400.000
G1 X-2.821 Y1.389 Z-0.150 F400.000
G1 X-2.728 Y1.287 Z-0.150 F400.000
G1 X-2.668 Y1.167 Z-0.150 F400.000
G1 X-2.616 Y0.880 Z-0.150 F400.000
G1 X-2.651 Y0.568 Z-0.150 F400.000
G1 X-2.706 Y0.423 Z-0.150 F400.000
G1 X-2.794 Y0.295 Z-0.150 F400.000
G1 X-2.963 Y0.160 Z-0.150 F400.000
G1 X-3.076 Y0.104 Z-0.150 F400.000
G1 X-3.323 Y0.044 Z-0.150 F400.000
G1 X-3.518 Y0.032 Z-0.150 F400.000
G1 X-4.746 Y0.032 Z-0.150 F400.000
G1 X-3.518 Y0.032 Z-0.150 F400.000
G1 X-3.280 Y0.050 Z-0.150 F400.000
G1 X-3.083 Y0.104 Z-0.150 F400.000
G1 X-2.924 Y0.189 Z-0.150 F400.000
G1 X-2.801 Y0.295 Z-0.150 F400.000
G1 X-2.710 Y0.423 Z-0.150 F400.000
G1 X-2.652 Y0.568 Z-0.150 F400.000
G1 X-2.616 Y0.880 Z-0.150 F400.000
G1 X-2.671 Y1.167 Z-0.150 F400.000
G1 X-2.732 Y1.287 Z-0.150 F400.000
G1 X-2.826 Y1.389 Z-0.150 F400.000
G1 X-3.005 Y1.492 Z-0.150 F400.000
G1 X-3.126 Y1.531 Z-0.150 F400.000
G1 X-3.340 Y1.570 Z-0.150 F400.000
G1 X-3.606 Y1.582 Z-0.150 F400.000
G1 X-4.746 Y1.582 Z-0.150 F400.000
G1 X-4.746 Y-1.582 Z-0.150 F400.000
G0 Z4.000
G0 Z4.000
G0 X-0.948 Y-1.582
G0 Z2.000
G1 X-0.948 Y-1.582 Z-0.150 F150.000
G1 X-0.948 Y1.582 Z-0.150 F400.000
G1 X0.049 Y1.582 Z-0.150 F400.000
G1 X0.322 Y1.565 Z-0.150 F400.000
G1 X0.541 Y1.515 Z-0.150 F400.000
G1 X0.713 Y1.435 Z-0.150 F400.000
G1 X0.844 Y1.334 Z-0.150 F400.000
G1 X0.939 Y1.213 Z-0.150 F400.000
G1 X1.001 Y1.075 Z-0.150 F400.000
G1 X1.056 Y0.770 Z-0.150 F400.000
G1 X1.020 Y0.456 Z-0.150 F400.000
G1 X0.962 Y0.309 Z-0.150 F400.000
G1 X0.870 Y0.178 Z-0.150 F400.000
G1 X0.695 Y0.036 Z-0.150 F400.000
G1 X0.580 Y-0.023 Z-0.150 F400.000
G1 X0.338 Y-0.086 Z-0.150 F400.000
G1 X0.131 Y-0.099 Z-0.150 F400.000
G1 X-0.948 Y-0.099 Z-0.150 F400.000
G1 X0.131 Y-0.099 Z-0.150 F400.000
G1 X0.375 Y-0.080 Z-0.150 F400.000
G1 X0.576 Y-0.023 Z-0.150 F400.000
G1 X0.738 Y0.066 Z-0.150 F400.000
G1 X0.864 Y0.178 Z-0.150 F400.000
G1 X0.957 Y0.309 Z-0.150 F400.000
G1 X1.017 Y0.456 Z-0.150 F400.000
G1 X1.056 Y0.770 Z-0.150 F400.000
G1 X1.001 Y1.075 Z-0.150 F400.000
G1 X0.939 Y1.213 Z-0.150 F400.000
G1 X0.843 Y1.334 Z-0.150 F400.000
G1 X0.664 Y1.461 Z-0.150 F400.000
G1 X0.539 Y1.515 Z-0.150 F400.000
G1 X0.270 Y1.572 Z-0.150 F400.000
G1 X0.049 Y1.582 Z-0.150 F400.000
G1 X-0.948 Y1.582 Z-0.150 F400.000
G1 X-0.948 Y-1.582 Z-0.150 F400.000
G0 Z4.000
G0 Z4.000
G0 X4.765 Y-0.510
G0 Z2.000
G1 X4.765 Y-0.510 Z-0.150 F150.000
G1 X4.660 Y-0.875 Z-0.150 F400.000
G1 X4.510 Y-1.142 Z-0.150 F400.000
G1 X4.425 Y-1.240 Z-0.150 F400.000
G1 X4.330 Y-1.325 Z-0.150 F400.000
G1 X4.089 Y-1.467 Z-0.150 F400.000
G1 X3.796 Y-1.554 Z-0.150 F400.000
G1 X3.635 Y-1.575 Z-0.150 F400.000
G1 X3.462 Y-1.582 Z-0.150 F400.000
G1 X3.090 Y-1.546 Z-0.150 F400.000
G1 X2.792 Y-1.446 Z-0.150 F400.000
G1 X2.615 Y-1.340 Z-0.150 F400.000
G1 X2.462 Y-1.204 Z-0.150 F400.000
G1 X2.305 Y-0.981 Z-0.150 F400.000
G1 X2.191 Y-0.690 Z-0.150 F400.000
G1 X2.123 Y-0.311 Z-0.150 F400.000
G1 X2.109 Y-0.000 Z-0.150 F400.000
G1 X2.145 Y0.481 Z-0.150 F400.000
G1 X2.242 Y0.842 Z-0.150 F400.000
G1 X2.339 Y1.038 Z-0.150 F400.000
G1 X2.462 Y1.201 Z-0.150 F400.000
G1 X2.681 Y1.383 Z-0.150 F400.000
G1 X2.943 Y1.506 Z-0.150 F400.000
G1 X3.259 Y1.572 Z-0.150 F400.000
G1 X3.462 Y1.582 Z-0.150 F400.000
G1 X3.837 Y1.546 Z-0.150 F400.000
G1 X4.239 Y1.389 Z-0.150 F400.000
G1 X4.443 Y1.221 Z-0.150 F400.000
G1 X4.603 Y0.993 Z-0.150 F400.000
G1 X4.653 Y0.891 Z-0.150 F400.000
G1 X4.696 Y0.780 Z-0.150 F400.000
G1 X4.555 Y1.074 Z-0.150 F400.000
G1 X4.376 Y1.287 Z-0.150 F400.000
G1 X4.310 Y1.341 Z-0.150 F400.000
G1 X4.239 Y1.389 Z-0.150 F400.000
G1 X3.976 Y1.509 Z-0.150 F400.000
G1 X3.658 Y1.573 Z-0.150 F400.000
G1 X3.562 Y1.580 Z-0.150 F400.000
G1 X3.462 Y1.582 Z-0.150 F400.000
G1 X3.091 Y1.546 Z-0.150 F400.000
G1 X2.794 Y1.446 Z-0.150 F400.000
G1 X2.616 Y1.339 Z-0.150 F400.000
G1 X2.462 Y1.201 Z-0.150 F400.000
G1 X2.305 Y0.977 Z-0.150 F400.000
G1 X2.190 Y0.685 Z-0.150 F400.000
G1 X2.123 Y0.307 Z-0.150 F400.000
G1 X2.109 Y-0.000 Z-0.150 F400.000
G1 X2.145 Y-0.483 Z-0.150 F400.000
G1 X2.242 Y-0.845 Z-0.150 F400.000
G1 X2.339 Y-1.041 Z-0.150 F400.000
G1 X2.462 Y-1.204 Z-0.150 F400.000
G1 X2.682 Y-1.385 Z-0.150 F400.000
G1 X2.945 Y-1.507 Z-0.150 F400.000
G1 X3.261 Y-1.573 Z-0.150 F400.000
G1 X3.462 Y-1.582 Z-0.150 F400.000
G1 X3.838 Y-1.546 Z-0.150 F400.000
G1 X4.135 Y-1.446 Z-0.150 F400.000
G1 X4.236 Y-1.391 Z-0.150 F400.000
G1 X4.330 Y-1.325 Z-0.150 F400.000
G1 X4.514 Y-1.136 Z-0.150 F400.000
G1 X4.656 Y-0.883 Z-0.150 F400.000
G1 X4.718 Y-0.707 Z-0.150 F400.000
G1 X4.765 Y-0.510 Z-0.150 F400.000
G0 Z4.000
G0 Z4.000
G0 Z4.000
G0 X2.533 Y12.071
G0 Z2.000
(autolevel)
M5
G4P0.5
G90G1F400Z1
G38.3Z-3F30.0
G10L20P1Z0
G90G1F400Z1
M3 S12000
G4P0.5
(autolevel)
G1 X2.533 Y12.071 Z-0.150 F150.000
G1 X2.619 Y11.948 Z-0.150 F400.000
G1 X2.640 Y11.834 Z-0.150 F400.000
G1 X2.719 Y11.035 Z-0.150 F400.000
G1 X2.774 Y10.817 Z-0.150 F400.000
G1 X2.923 Y10.617 Z-0.150 F400.000
G1 X3.092 Y10.516 Z-0.150 F400.000
G1 X3.470 Y10.456 Z-0.150 F400.000
G1 X3.168 Y10.491 Z-0.150 F400.000
G1 X2.923 Y10.617 Z-0.150 F400.000
G1 X2.792 Y10.780 Z-0.150 F400.000
G1 X2.719 Y11.035 Z-0.150 F400.000
G1 X2.640 Y11.834 Z-0.150 F400.000
G1 X2.619 Y11.948 Z-0.150 F400.000
G1 X2.533 Y12.071 Z-0.150 F400.000
G0 Z4.000
G0 Z4.000
G0 X4.758 Y12.071
G0 Z2.000
G1 X4.758 Y12.071 Z-0.150 F150.000
G1 X4.758 Y8.906 Z-0.150 F400.000
G1 X3.618 Y8.906 Z-0.150 F400.000
G1 X3.129 Y8.957 Z-0.150 F400.000
G1 X2.960 Y9.018 Z-0.150 F400.000
G1 X2.832 Y9.100 Z-0.150 F400.000
G1 X2.740 Y9.201 Z-0.150 F400.000
G1 X2.680 Y9.322 Z-0.150 F400.000
G1 X2.627 Y9.608 Z-0.150 F400.000
G1 X2.663 Y9.921 Z-0.150 F400.000
G1 X2.718 Y10.066 Z-0.150 F400.000
G1 X2.806 Y10.193 Z-0.150 F400.000
G1 X2.975 Y10.329 Z-0.150 F400.000
G1 X3.088 Y10.384 Z-0.150 F400.000
G1 X3.335 Y10.445 Z-0.150 F400.000
G1 X3.530 Y10.456 Z-0.150 F400.000
G1 X4.758 Y10.456 Z-0.150 F400.000
G1 X3.530 Y10.456 Z-0.150 F400.000
G1 X3.292 Y10.438 Z-0.150 F400.000
G1 X3.095 Y10.384 Z-0.150 F400.000
G1 X2.936 Y10.300 Z-0.150 F400.000
G1 X2.813 Y10.193 Z-0.150 F400.000
G1 X2.722 Y10.066 Z-0.150 F400.000
G1 X2.664 Y9.921 Z-0.150 F400.000
G1 X2.627 Y9.608 Z-0.150 F400.000
G1 X2.683 Y9.322 Z-0.150 F400.000
G1 X2.744 Y9.201 Z-0.150 F400.000
G1 X2.838 Y9.100 Z-0.150 F400.000
G1 X3.017 Y8.996 Z-0.150 F400.000
G1 X3.138 Y8.957 Z-0.150 F400.000
G1 X3.352 Y8.919 Z-0.150 F400.000
G1 X3.618 Y8.906 Z-0.150 F400.000
G1 X4.758 Y8.906 Z-0.150 F400.000
G1 X4.758 Y12.071 Z-0.150 F400.000
G0 Z4.000
G0 Z4.000
G0 X0.960 Y12.071
G0 Z2.000
G1 X0.960 Y12.071 Z-0.150 F150.000
G1 X0.960 Y8.906 Z-0.150 F400.000
G1 X-0.037 Y8.906 Z-0.150 F400.000
G1 X-0.310 Y8.923 Z-0.150 F400.000
G1 X-0.529 Y8.974 Z-0.150 F400.000
G1 X-0.702 Y9.053 Z-0.150 F400.000
G1 X-0.833 Y9.155 Z-0.150 F400.000
G1 X-0.928 Y9.275 Z-0.150 F400.000
G1 X-0.989 Y9.414 Z-0.150 F400.000
G1 X-1.044 Y9.719 Z-0.150 F400.000
G1 X-1.008 Y10.032 Z-0.150 F400.000
G1 X-0.950 Y10.180 Z-0.150 F400.000
G1 X-0.858 Y10.311 Z-0.150 F400.000
G1 X-0.684 Y10.453 Z-0.150 F400.000
G1 X-0.568 Y10.511 Z-0.150 F400.000
G1 X-0.327 Y10.575 Z-0.150 F400.000
G1 X-0.119 Y10.588 Z-0.150 F400.000
G1 X0.960 Y10.588 Z-0.150 F400.000
G1 X-0.119 Y10.588 Z-0.150 F400.000
G1 X-0.363 Y10.569 Z-0.150 F400.000
G1 X-0.564 Y10.511 Z-0.150 F400.000
G1 X-0.727 Y10.422 Z-0.150 F400.000
G1 X-0.852 Y10.311 Z-0.150 F400.000
G1 X-0.945 Y10.180 Z-0.150 F400.000
G1 X-1.005 Y10.032 Z-0.150 F400.000
G1 X-1.044 Y9.719 Z-0.150 F400.000
G1 X-0.989 Y9.414 Z-0.150 F400.000
G1 X-0.927 Y9.275 Z-0.150 F400.000
G1 X-0.831 Y9.155 Z-0.150 F400.000
G1 X-0.652 Y9.028 Z-0.150 F400.000
G1 X-0.527 Y8.974 Z-0.150 F400.000
G1 X-0.258 Y8.917 Z-0.150 F400.000
G1 X-0.037 Y8.906 Z-0.150 F400.000
G1 X0.960 Y8.906 Z-0.150 F400.000
G1 X0.960 Y12.071 Z-0.150 F400.000
G0 Z4.000
G0 Z4.000
G0 X-4.753 Y10.999
G0 Z2.000
G1 X-4.753 Y10.999 Z-0.150 F150.000
G1 X-4.648 Y11.363 Z-0.150 F400.000
G1 X-4.498 Y11.630 Z-0.150 F400.000
G1 X-4.413 Y11.729 Z-0.150 F400.000
G1 X-4.318 Y11.814 Z-0.150 F400.000
G1 X-4.077 Y11.956 Z-0.150 F400.000
G1 X-3.784 Y12.043 Z-0.150 F400.000
G1 X-3.623 Y12.064 Z-0.150 F400.000
G1 X-3.451 Y12.071 Z-0.150 F400.000
G1 X-3.078 Y12.035 Z-0.150 F400.000
G1 X-2.780 Y11.935 Z-0.150 F400.000
G1 X-2.604 Y11.829 Z-0.150 F400.000
G1 X-2.450 Y11.692 Z-0.150 F400.000
G1 X-2.293 Y11.470 Z-0.150 F400.000
G1 X-2.179 Y11.178 Z-0.150 F400.000
G1 X-2.111 Y10.800 Z-0.150 F400.000
G1 X-2.097 Y10.489 Z-0.150 F400.000
G1 X-2.133 Y10.008 Z-0.150 F400.000
G1 X-2.231 Y9.647 Z-0.150 F400.000
G1 X-2.327 Y9.451 Z-0.150 F400.000
G1 X-2.450 Y9.288 Z-0.150 F400.000
G1 X-2.669 Y9.106 Z-0.150 F400.000
G1 X-2.932 Y8.982 Z-0.150 F400.000
G1 X-3.247 Y8.917 Z-0.150 F400.000
G1 X-3.451 Y8.906 Z-0.150 F400.000
G1 X-3.825 Y8.943 Z-0.150 F400.000
G1 X-4.228 Y9.100 Z-0.150 F400.000
G1 X-4.431 Y9.268 Z-0.150 F400.000
G1 X-4.592 Y9.496 Z-0.150 F400.000
G1 X-4.641 Y9.598 Z-0.150 F400.000
G1 X-4.684 Y9.709 Z-0.150 F400.000
G1 X-4.544 Y9.414 Z-0.150 F400.000
G1 X-4.364 Y9.201 Z-0.150 F400.000
G1 X-4.298 Y9.148 Z-0.150 F400.000
G1 X-4.228 Y9.100 Z-0.150 F400.000
G1 X-3.964 Y8.979 Z-0.150 F400.000
G1 X-3.646 Y8.915 Z-0.150 F400.000
G1 X-3.550 Y8.909 Z-0.150 F400.000
G1 X-3.451 Y8.906 Z-0.150 F400.000
G1 X-3.080 Y8.943 Z-0.150 F400.000
G1 X-2.782 Y9.043 Z-0.150 F400.000
G1 X-2.604 Y9.150 Z-0.150 F400.000
G1 X-2.450 Y9.288 Z-0.150 F400.000
G1 X-2.293 Y9.511 Z-0.150 F400.000
G1 X-2.178 Y9.804 Z-0.150 F400.000
G1 X-2.111 Y10.182 Z-0.150 F400.000
G1 X-2.097 Y10.489 Z-0.150 F400.000
G1 X-2.133 Y10.972 Z-0.150 F400.000
G1 X-2.231 Y11.334 Z-0.150 F400.000
G1 X-2.327 Y11.530 Z-0.150 F400.000
G1 X-2.450 Y11.692 Z-0.150 F400.000
G1 X-2.670 Y11.874 Z-0.150 F400.000
G1 X-2.933 Y11.996 Z-0.150 F400.000
G1 X-3.250 Y12.061 Z-0.150 F400.000
G1 X-3.451 Y12.071 Z-0.150 F400.000
G1 X-3.826 Y12.035 Z-0.150 F400.000
G1 X-4.123 Y11.935 Z-0.150 F400.000
G1 X-4.224 Y11.879 Z-0.150 F400.000
G1 X-4.318 Y11.814 Z-0.150 F400.000
G1 X-4.502 Y11.625 Z-0.150 F400.000
G1 X-4.644 Y11.372 Z-0.150 F400.000
G1 X-4.707 Y11.196 Z-0.150 F400.000
G1 X-4.753 Y10.999 Z-0.150 F400.000
G0 Z4.000
G0 Z4.000
G0 Z4.000
G0 X-2.521 Y23.418
G0 Z2.000
(autolevel)
M5
G4P0.5
G90G1F400Z1
G38.3Z-3F30.0
G10L20P1Z0
G90G1F400Z1
M3 S12000
G4P0.5
(autolevel)
G1 X-2.521 Y23.418 Z-0.150 F150.000
G1 X-2.607 Y23.540 Z-0.150 F400.000
G1 X-2.628 Y23.655 Z-0.150 F400.000
G1 X-2.707 Y24.453 Z-0.150 F400.000
G1 X-2.762 Y24.672 Z-0.150 F400.000
G1 X-2.911 Y24.871 Z-0.150 F400.000
G1 X-3.080 Y24.972 Z-0.150 F400.000
G1 X-3.458 Y25.032 Z-0.150 F400.000
G1 X-3.156 Y24.997 Z-0.150 F400.000
G1 X-2.911 Y24.871 Z-0.150 F400.000
G1 X-2.780 Y24.708 Z-0.150 F400.000
G1 X-2.707 Y24.453 Z-0.150 F400.000
G1 X-2.628 Y23.655 Z-0.150 F400.000
G1 X-2.607 Y23.540 Z-0.150 F400.000
G1 X-2.521 Y23.418 Z-0.150 F400.000
G0 Z4.000
G0 Z4.000
G0 X-4.746 Y23.418
G0 Z2.000
G1 X-4.746 Y23.418 Z-0.150 F150.000
G1 X-4.746 Y26.582 Z-0.150 F400.000
G1 X-3.606 Y26.582 Z-0.150 F400.000
G1 X-3.117 Y26.531 Z-0.150 F400.000
G1 X-2.948 Y26.471 Z-0.150 F400.000
G1 X-2.821 Y26.389 Z-0.150 F400.000
G1 X-2.728 Y26.287 Z-0.150 F400.000
G1 X-2.668 Y26.167 Z-0.150 F400.000
G1 X-2.616 Y25.880 Z-0.150 F400.000
G1 X-2.651 Y25.568 Z-0.150 F400.000
G1 X-2.706 Y25.423 Z-0.150 F400.000
G1 X-2.794 Y25.295 Z-0.150 F400.000
G1 X-2.963 Y25.160 Z-0.150 F400.000
G1 X-3.076 Y25.104 Z-0.150 F400.000
G1 X-3.323 Y25.044 Z-0.150 F400.000
G1 X-3.518 Y25.032 Z-0.150 F400.000
G1 X-4.746 Y25.032 Z-0.150 F400.000
G1 X-3.518 Y25.032 Z-0.150 F400.000
G1 X-3.280 Y25.050 Z-0.150 F400.000
G1 X-3.083 Y25.104 Z-0.150 F400.000
G1 X-2.924 Y25.189 Z-0.150 F400.000
G1 X-2.801 Y25.295 Z-0.150 F400.000
G1 X-2.710 Y25.423 Z-0.150 F400.000
G1 X-2.652 Y25.568 Z-0.150 F400.000
G1 X-2.616 Y25.880 Z-0.150 F400.000
G1 X-2.671 Y26.167 Z-0.150 F400.000
G1 X-2.732 Y26.287 Z-0.150 F400.000
G1 X-2.826 Y26.389 Z-0.150 F400.000
G1 X-3.005 Y26.492 Z-0.150 F400.000
G1 X-3.126 Y26.531 Z-0.150 F400.000
G1 X-3.340 Y26.570 Z-0.150 F400.000
G1 X-3.606 Y26.582 Z-0.150 F400.000
G1 X-4.746 Y26.582 Z-0.150 F400.000
G1 X-4.746 Y23.418 Z-0.150 F400.000
G0 Z4.000
G0 Z4.000
G0 X-0.948 Y23.418
G0 Z2.000
G1 X-0.948 Y23.418 Z-0.150 F150.000
G1 X-0.948 Y26.582 Z-0.150 F400.000
G1 X0.049 Y26.582 Z-0.150 F400.000
G1 X0.322 Y26.565 Z-0.150 F400.000
G1 X0.541 Y26.515 Z-0.150 F400.000
G1 X0.713 Y26.435 Z-0.150 F400.000
G1 X0.844 Y26.334 Z-0.150 F400.000
G1 X0.939 Y26.213 Z-0.150 F400.000
G1 X1.001 Y26.075 Z-0.150 F400.000
G1 X1.056 Y25.770 Z-0.150 F400.000
G1 X1.020 Y25.456 Z-0.150 F400.000
G1 X0.962 Y25.309 Z-0.150 F400.000
G1 X0.870 Y25.178 Z-0.150 F400.000
G1 X0.695 Y25.036 Z-0.150 F400.000
G1 X0.580 Y24.977 Z-0.150 F400.000
G1 X0.338 Y24.914 Z-0.150 F400.000
G1 X0.131 Y24.901 Z-0.150 F400.000
G1 X-0.948 Y24.901 Z-0.150 F400.000
G1 X0.131 Y24.901 Z-0.150 F400.000
G1 X0.375 Y24.920 Z-0.150 F400.000
G1 X0.576 Y24.977 Z-0.150 F400.000
G1 X0.738 Y25.066 Z-0.150 F400.000
G1 X0.864 Y25.178 Z-0.150 F400.000
G1 X0.957 Y25.309 Z-0.150 F400.000
G1 X1.017 Y25.456 Z-0.150 F400.000
G1 X1.056 Y25.770 Z-0.150 F400.000
G1 X1.001 Y26.075 Z-0.150 F400.000
G1 X0.939 Y26.213 Z-0.150 F400.000
G1 X0.843 Y26.334 Z-0.150 F400.000
G1 X0.664 Y26.461 Z-0.150 F400.000
G1 X0.539 Y26.515 Z-0.150 F400.000
G1 X0.270 Y26.572 Z-0.150 F400.000
G1 X0.049 Y26.582 Z-0.150 F400.000
G1 X-0.948 Y26.582 Z-0.150 F400.000
G1 X-0.948 Y23.418 Z-0.150 F400.000
G0 Z4.000
G0 Z4.000
G0 X4.765 Y24.490
G0 Z2.000
G1 X4.765 Y24.490 Z-0.150 F150.000
G1 X4.660 Y24.125 Z-0.150 F400.000
G1 X4.510 Y23.858 Z-0.150 F400.000
G1 X4.425 Y23.760 Z-0.150 F400.000
G1 X4.330 Y23.675 Z-0.150 F400.000
G1 X4.089 Y23.533 Z-0.150 F400.000
G1 X3.796 Y23.446 Z-0.150 F400.000
G1 X3.635 Y23.425 Z-0.150 F400.000
G1 X3.462 Y23.418 Z-0.150 F400.000
G1 X3.090 Y23.454 Z-0.150 F400.000
G1 X2.792 Y23.554 Z-0.150 F400.000
G1 X2.615 Y23.660 Z-0.150 F400.000
G1 X2.462 Y23.796 Z-0.150 F400.000
G1 X2.305 Y24.019 Z-0.150 F400.000
G1 X2.191 Y24.310 Z-0.150 F400.000
G1 X2.123 Y24.689 Z-0.150 F400.000
G1 X2.109 Y25.000 Z-0.150 F400.000
G1 X2.145 Y25.481 Z-0.150 F400.000
G1 X2.242 Y25.842 Z-0.150 F400.000
G1 X2.339 Y26.038 Z-0.150 F400.000
G1 X2.462 Y26.201 Z-0.150 F400.000
G1 X2.681 Y26.383 Z-0.150 F400.000
G1 X2.943 Y26.506 Z-0.150 F400.000
G1 X3.259 Y26.572 Z-0.150 F400.000
G1 X3.462 Y26.582 Z-0.150 F400.000
G1 X3.837 Y26.546 Z-0.150 F400.000
G1 X4.239 Y26.389 Z-0.150 F400.000
G1 X4.443 Y26.221 Z-0.150 F400.000
G1 X4.603 Y25.993 Z-0.150 F400.000
G1 X4.653 Y25.891 Z-0.150 F400.000
G1 X4.696 Y25.780 Z-0.150 F400.000
G1 X4.555 Y26.074 Z-0.150 F400.000
G1 X4.376 Y26.287 Z-0.150 F400.000
G1 X4.310 Y26.341 Z-0.150 F400.000
G1 X4.239 Y26.389 Z-0.150 F400.000
G1 X3.976 Y26.509 Z-0.150 F400.000
G1 X3.658 Y26.573 Z-0.150 F400.000
G1 X3.562 Y26.580 Z-0.150 F400.000
G1 X3.462 Y26.582 Z-0.150 F400.000
G1 X3.091 Y26.546 Z-0.150 F400.000
G1 X2.794 Y26.446 Z-0.150 F400.000
G1 X2.616 Y26.339 Z-0.150 F400.000
G1 X2.462 Y26.201 Z-0.150 F400.000
G1 X2.305 Y25.977 Z-0.150 F400.000
G1 X2.190 Y25.685 Z-0.150 F400.000
G1 X2.123 Y25.307 Z-0.150 F400.000
G1 X2.109 Y25.000 Z-0.150 F400.000
G1 X2.145 Y24.517 Z-0.150 F400.000
G1 X2.242 Y24.155 Z-0.150 F400.000
G1 X2.339 Y23.959 Z-0.150 F400.000
G1 X2.462 Y23.796 Z-0.150 F400.000
G1 X2.682 Y23.615 Z-0.150 F400.000
G1 X2.945 Y23.493 Z-0.150 F400.000
G1 X3.261 Y23.427 Z-0.150 F400.000
G1 X3.462 Y23.418 Z-0.150 F400.000
G1 X3.838 Y23.454 Z-0.150 F400.000
G1 X4.135 Y23.554 Z-0.150 F400.000
G1 X4.236 Y23.609 Z-0.150 F400.000
G1 X4.330 Y23.675 Z-0.150 F400.000
G1 X4.514 Y23.864 Z-0.150 F400.000
G1 X4.656 Y24.117 Z-0.150 F400.000
G1 X4.718 Y24.293 Z-0.150 F400.000
G1 X4.765 Y24.490 Z-0.150 F400.000
G0 Z4.000
G0 Z4.000
G0 Z4.000
G0 X2.533 Y37.071
G0 Z2.000
(autolevel)
M5
G4P0.5
G90G1F400Z1
G38.3Z-3F30.0
G10L20P1Z0
G90G1F400Z1
M3 S12000
G4P0.5
(autolevel)
G1 X2.533 Y37.071 Z-0.150 F150.000
G1 X2.619 Y36.948 Z-0.150 F400.000
G1 X2.640 Y36.834 Z-0.150 F400.000
G1 X2.719 Y36.035 Z-0.150 F400.000
G1 X2.774 Y35.817 Z-0.150 F400.000
G1 X2.923 Y35.617 Z-0.150 F400.000
G1 X3.092 Y35.516 Z-0.150 F400.000
G1 X3.470 Y35.456 Z-0.150 F400.000
G1 X3.168 Y35.491 Z-0.150 F400.000
G1 X2.923 Y35.617 Z-0.150 F400.000
G1 X2.792 Y35.780 Z-0.150 F400.000
G1 X2.719 Y36.035 Z-0.150 F400.000
G1 X2.640 Y36.834 Z-0.150 F400.000
G1 X2.619 Y36.948 Z-0.150 F400.000
G1 X2.533 Y37.071 Z-0.150 F400.000
G0 Z4.000
G0 Z4.000
G0 X4.758 Y37.071
G0 Z2.000
G1 X4.758 Y37.071 Z-0.150 F150.000
G1 X4.758 Y33.906 Z-0.150 F400.000
G1 X3.618 Y33.906 Z-0.150 F400.000
G1 X3.129 Y33.957 Z-0.150 F400.000
G1 X2.960 Y34.018 Z-0.150 F400.000
G1 X2.832 Y34.100 Z-0.150 F400.000
G1 X2.740 Y34.201 Z-0.150 F400.000
G1 X2.680 Y34.322 Z-0.150 F400.000
G1 X2.627 Y34.608 Z-0.150 F400.000
G1 X2.663 Y34.921 Z-0.150 F400.000
G1 X2.718 Y35.066 Z-0.150 F400.000
G1 X2.806 Y35.193 Z-0.150 F400.000
G1 X2.975 Y35.329 Z-0.150 F400.000
G1 X3.088 Y35.384 Z-0.150 F400.000
G1 X3.335 Y35.445 Z-0.150 F400.000
G1 X3.530 Y35.456 Z-0.150 F400.000
G1 X4.758 Y35.456 Z-0.150 F400.000
G1 X3.530 Y35.456 Z-0.150 F400.000
G1 X3.292 Y35.438 Z-0.150 F400.000
G1 X3.095 Y35.384 Z-0.150 F400.000
G1 X2.936 Y35.300 Z-0.150 F400.000
G1 X2.813 Y35.193 Z-0.150 F400.000
G1 X2.722 Y35.066 Z-0.150 F400.000
G1 X2.664 Y34.921 Z-0.150 F400.000
G1 X2.627 Y34.608 Z-0.150 F400.000
G1 X2.683 Y34.322 Z-0.150 F400.000
G1 X2.744 Y34.201 Z-0.150 F400.000
G1 X2.838 Y34.100 Z-0.150 F400.000
G1 X3.017 Y33.996 Z-0.150 F400.000
G1 X3.138 Y33.957 Z-0.150 F400.000
G1 X3.352 Y33.919 Z-0.150 F400.000
G1 X3.618 Y33.906 Z-0.150 F400.000
G1 X4.758 Y33.906 Z-0.150 F400.000
G1 X4.758 Y37.071 Z-0.150 F400.000
G0 Z4.000
G0 Z4.000
G0 X0.960 Y37.071
G0 Z2.000
G1 X0.960 Y37.071 Z-0.150 F150.000
G1 X0.960 Y33.906 Z-0.150 F400.000
G1 X-0.037 Y33.906 Z-0.150 F400.000
G1 X-0.310 Y33.923 Z-0.150 F400.000
G1 X-0.529 Y33.974 Z-0.150 F400.000
G1 X-0.702 Y34.053 Z-0.150 F400.000
G1 X-0.833 Y34.155 Z-0.150 F400.000
G1 X-0.928 Y34.275 Z-0.150 F400.000
G1 X-0.989 Y34.414 Z-0.150 F400.000
G1 X-1.044 Y34.719 Z-0.150 F400.000
G1 X-1.008 Y35.032 Z-0.150 F400.000
G1 X-0.950 Y35.180 Z-0.150 F400.000
G1 X-0.858 Y35.311 Z-0.150 F400.000
G1 X-0.684 Y35.453 Z-0.150 F400.000
G1 X-0.568 Y35.511 Z-0.150 F400.000
G1 X-0.327 Y35.575 Z-0.150 F400.000
G1 X-0.119 Y35.588 Z-0.150 F400.000
G1 X0.960 Y35.588 Z-0.150 F400.000
G1 X-0.119 Y35.588 Z-0.150 F400.000
G1 X-0.363 Y35.569 Z-0.150 F400.000
G1 X-0.564 Y35.511 Z-0.150 F400.000
G1 X-0.727 Y35.422 Z-0.150 F400.000
G1 X-0.852 Y35.311 Z-0.150 F400.000
G1 X-0.945 Y35.180 Z-0.150 F400.000
G1 X-1.005 Y35.032 Z-0.150 F400.000
G1 X-1.044 Y34.719 Z-0.150 F400.000
G1 X-0.989 Y34.414 Z-0.150 F400.000
G1 X-0.927 Y34.275 Z-0.150 F400.000
G1 X-0.831 Y34.155 Z-0.150 F400.000
G1 X-0.652 Y34.028 Z-0.150 F400.000
G1 X-0.527 Y33.974 Z-0.150 F400.000
G1 X-0.258 Y33.917 Z-0.150 F400.000
G1 X-0.037 Y33.906 Z-0.150 F400.000
G1 X0.960 Y33.906 Z-0.150 F400.000
G1 X0.960 Y37.071 Z-0.150 F400.000
G0 Z4.000
G0 Z4.000
G0 X-4.753 Y35.999
G0 Z2.000
G1 X-4.753 Y35.999 Z-0.150 F150.000
G1 X-4.648 Y36.363 Z-0.150 F400.000
G1 X-4.498 Y36.630 Z-0.150 F400.000
G1 X-4.413 Y36.729 Z-0.150 F400.000
G1 X-4.318 Y36.814 Z-0.150 F400.000
G1 X-4.077 Y36.956 Z-0.150 F400.000
G1 X-3.784 Y37.043 Z-0.150 F400.000
G1 X-3.623 Y37.064 Z-0.150 F400.000
G1 X-3.451 Y37.071 Z-0.150 F400.000
G1 X-3.078 Y37.035 Z-0.150 F400.000
G1 X-2.780 Y36.935 Z-0.150 F400.000
G1 X-2.604 Y36.829 Z-0.150 F400.000
G1 X-2.450 Y36.692 Z-0.150 F400.000
G1 X-2.293 Y36.470 Z-0.150 F400.000
G1 X-2.179 Y36.178 Z-0.150 F400.000
G1 X-2.111 Y35.800 Z-0.150 F400.000
G1 X-2.097 Y35.489 Z-0.150 F400.000
G1 X-2.133 Y35.008 Z-0.150 F400.000
G1 X-2.231 Y34.647 Z-0.150 F400.000
G1 X-2.327 Y34.451 Z-0.150 F400.000
G1 X-2.450 Y34.288 Z-0.150 F400.000
G1 X-2.669 Y34.106 Z-0.150 F400.000
G1 X-2.932 Y33.982 Z-0.150 F400.000
G1 X-3.247 Y33.917 Z-0.150 F400.000
G1 X-3.451 Y33.906 Z-0.150 F400.000
G1 X-3.825 Y33.943 Z-0.150 F400.000
G1 X-4.228 Y34.100 Z-0.150 F400.000
G1 X-4.431 Y34.268 Z-0.150 F400.000
G1 X-4.592 Y34.496 Z-0.150 F400.000
G1 X-4.641 Y34.598 Z-0.150 F400.000
G1 X-4.684 Y34.709 Z-0.150 F400.000
G1 X-4.544 Y34.414 Z-0.150 F400.000
G1 X-4.364 Y34.201 Z-0.150 F400.000
G1 X-4.298 Y34.148 Z-0.150 F400.000
G1 X-4.228 Y34.100 Z-0.150 F400.000
G1 X-3.964 Y33.979 Z-0.150 F400.000
G1 X-3.646 Y33.915 Z-0.150 F400.000
G1 X-3.550 Y33.909 Z-0.150 F400.000
G1 X-3.451 Y33.906 Z-0.150 F400.000
G1 X-3.080 Y33.943 Z-0.150 F400.000
G1 X-2.782 Y34.043 Z-0.150 F400.000
G1 X-2.604 Y34.150 Z-0.150 F400.000
G1 X-2.450 Y34.288 Z-0.150 F400.000
G1 X-2.293 Y34.511 Z-0.150 F400.000
G1 X-2.178 Y34.804 Z-0.150 F400.000
G1 X-2.111 Y35.182 Z-0.150 F400.000
G1 X-2.097 Y35.489 Z-0.150 F400.000
G1 X-2.133 Y35.972 Z-0.150 F400.000
G1 X-2.231 Y36.334 Z-0.150 F400.000
G1 X-2.327 Y36.530 Z-0.150 F400.000
G1 X-2.450 Y36.692 Z-0.150 F400.000
G1 X-2.670 Y36.874 Z-0.150 F400.000
G1 X-2.933 Y36.996 Z-0.150 F400.000
G1 X-3.250 Y37.061 Z-0.150 F400.000
G1 X-3.451 Y37.071 Z-0.150 F400.000
G1 X-3.826 Y37.035 Z-0.150 F400.000
G1 X-4.123 Y36.935 Z-0.150 F400.000
G1 X-4.224 Y36.879 Z-0.150 F400.000
G1 X-4.318 Y36.814 Z-0.150 F400.000
G1 X-4.502 Y36.625 Z-0.150 F400.000
G1 X-4.644 Y36.372 Z-0.150 F400.000
G1 X-4.707 Y36.196 Z-0.150 F400.000
G1 X-4.753 Y35.999 Z-0.150 F400.000
G0 Z4.000
G0 Z4.000
G0 Z4.000
G0 X-2.521 Y48.418
G0 Z2.000
(autolevel)
M5
G4P0.5
G90G1F400Z1
G38.3Z-3F30.0
G10L20P1Z0
G90G1F400Z1
M3 S12000
G4P0.5
(autolevel)
G1 X-2.521 Y48.418 Z-0.150 F150.000
G1 X-2.607 Y48.540 Z-0.150 F400.000
G1 X-2.628 Y48.655 Z-0.150 F400.000
G1 X-2.707 Y49.453 Z-0.150 F400.000
G1 X-2.762 Y49.672 Z-0.150 F400.000
G1 X-2.911 Y49.871 Z-0.150 F400.000
G1 X-3.080 Y49.972 Z-0.150 F400.000
G1 X-3.458 Y50.032 Z-0.150 F400.000
G1 X-3.156 Y49.997 Z-0.150 F400.000
G1 X-2.911 Y49.871 Z-0.150 F400.000
G1 X-2.780 Y49.708 Z-0.150 F400.000
G1 X-2.707 Y49.453 Z-0.150 F400.000
G1 X-2.628 Y48.655 Z-0.150 F400.000
G1 X-2.607 Y48.540 Z-0.150 F400.000
G1 X-2.521 Y48.418 Z-0.150 F400.000
G0 Z4.000
G0 Z4.000
G0 X-4.746 Y48.418
G0 Z2.000
G1 X-4.746 Y48.418 Z-0.150 F150.000
G1 X-4.746 Y51.582 Z-0.150 F400.000
G1 X-3.606 Y51.582 Z-0.150 F400.000
G1 X-3.117 Y51.531 Z-0.150 F400.000
G1 X-2.948 Y51.471 Z-0.150 F400.000
G1 X-2.821 Y51.389 Z-0.150 F400.000
G1 X-2.728 Y51.287 Z-0.150 F400.000
G1 X-2.668 Y51.167 Z-0.150 F400.000
G1 X-2.616 Y50.880 Z-0.150 F400.000
G1 X-2.651 Y50.568 Z-0.150 F400.000
G1 X-2.706 Y50.423 Z-0.150 F400.000
G1 X-2.794 Y50.295 Z-0.150 F400.000
G1 X-2.963 Y50.160 Z-0.150 F400.000
G1 X-3.076 Y50.104 Z-0.150 F400.000
G1 X-3.323 Y50.044 Z-0.150 F400.000
G1 X-3.518 Y50.032 Z-0.150 F400.000
G1 X-4.746 Y50.032 Z-0.150 F400.000
G1 X-3.518 Y50.032 Z-0.150 F400.000
G1 X-3.280 Y50.050 Z-0.150 F400.000
G1 X-3.083 Y50.104 Z-0.150 F400.000
G1 X-2.924 Y50.189 Z-0.150 F400.000
G1 X-2.801 Y50.295 Z-0.150 F400.000
G1 X-2.710 Y50.423 Z-0.150 F400.000
G1 X-2.652 Y50.568 Z-0.150 F400.000
G1 X-2.616 Y50.880 Z-0.150 F400.000
G1 X-2.671 Y51.167 Z-0.150 F400.000
G1 X-2.732 Y51.287 Z-0.150 F400.000
G1 X-2.826 Y51.389 Z-0.150 F400.000
G1 X-3.005 Y51.492 Z-0.150 F400.000
G1 X-3.126 Y51.531 Z-0.150 F400.000
G1 X-3.340 Y51.570 Z-0.150 F400.000
G1 X-3.606 Y51.582 Z-0.150 F400.000
G1 X-4.746 Y51.582 Z-0.150 F400.000
G1 X-4.746 Y48.418 Z-0.150 F400.000
G0 Z4.000
G0 Z4.000
G0 X-0.948 Y48.418
G0 Z2.000
G1 X-0.948 Y48.418 Z-0.150 F150.000
G1 X-0.948 Y51.582 Z-0.150 F400.000
G1 X0.049 Y51.582 Z-0.150 F400.000
G1 X0.322 Y51.565 Z-0.150 F400.000
G1 X0.541 Y51.515 Z-0.150 F400.000
G1 X0.713 Y51.435 Z-0.150 F400.000
G1 X0.844 Y51.334 Z-0.150 F400.000
G1 X0.939 Y51.213 Z-0.150 F400.000
G1 X1.001 Y51.075 Z-0.150 F400.000
G1 X1.056 Y50.770 Z-0.150 F400.000
G1 X1.020 Y50.456 Z-0.150 F400.000
G1 X0.962 Y50.309 Z-0.150 F400.000
G1 X0.870 Y50.178 Z-0.150 F400.000
G1 X0.695 Y50.036 Z-0.150 F400.000
G1 X0.580 Y49.977 Z-0.150 F400.000
G1 X0.338 Y49.914 Z-0.150 F400.000
G1 X0.131 Y49.901 Z-0.150 F400.000
G1 X-0.948 Y49.901 Z-0.150 F400.000
G1 X0.131 Y49.901 Z-0.150 F400.000
G1 X0.375 Y49.920 Z-0.150 F400.000
G1 X0.576 Y49.977 Z-0.150 F400.000
G1 X0.738 Y50.066 Z-0.150 F400.000
G1 X0.864 Y50.178 Z-0.150 F400.000
G1 X0.957 Y50.309 Z-0.150 F400.000
G1 X1.017 Y50.456 Z-0.150 F400.000
G1 X1.056 Y50.770 Z-0.150 F400.000
G1 X1.001 Y51.075 Z-0.150 F400.000
G1 X0.939 Y51.213 Z-0.150 F400.000
G1 X0.843 Y51.334 Z-0.150 F400.000
G1 X0.664 Y51.461 Z-0.150 F400.000
G1 X0.539 Y51.515 Z-0.150 F400.000
G1 X0.270 Y51.572 Z-0.150 F400.000
G1 X0.049 Y51.582 Z-0.150 F400.000
G1 X-0.948 Y51.582 Z-0.150 F400.000
G1 X-0.948 Y48.418 Z-0.150 F400.000
G0 Z4.000
G0 Z4.000
G0 X4.765 Y49.490
G0 Z2.000
G1 X4.765 Y49.490 Z-0.150 F150.000
G1 X4.660 Y49.125 Z-0.150 F400.000
G1 X4.510 Y48.858 Z-0.150 F400.000
G1 X4.425 Y48.760 Z-0.150 F400.000
G1 X4.330 Y48.675 Z-0.150 F400.000
G1 X4.089 Y48.533 Z-0.150 F400.000
G1 X3.796 Y48.446 Z-0.150 F400.000
G1 X3.635 Y48.425 Z-0.150 F400.000
G1 X3.462 Y48.418 Z-0.150 F400.000
G1 X3.090 Y48.454 Z-0.150 F400.000
G1 X2.792 Y48.554 Z-0.150 F400.000
G1 X2.615 Y48.660 Z-0.150 F400.000
G1 X2.462 Y48.796 Z-0.150 F400.000
G1 X2.305 Y49.019 Z-0.150 F400.000
G1 X2.191 Y49.310 Z-0.150 F400.000
G1 X2.123 Y49.689 Z-0.150 F400.000
G1 X2.109 Y50.000 Z-0.150 F400.000
G1 X2.145 Y50.481 Z-0.150 F400.000
G1 X2.242 Y50.842 Z-0.150 F400.000
G1 X2.339 Y51.038 Z-0.150 F400.000
G1 X2.462 Y51.201 Z-0.150 F400.000
G1 X2.681 Y51.383 Z-0.150 F400.000
G1 X2.943 Y51.506 Z-0.150 F400.000
G1 X3.259 Y51.572 Z-0.150 F400.000
G1 X3.462 Y51.582 Z-0.150 F400.000
G1 X3.837 Y51.546 Z-0.150 F400.000
G1 X4.239 Y51.389 Z-0.150 F400.000
G1 X4.443 Y51.221 Z-0.150 F400.000
G1 X4.603 Y50.993 Z-0.150 F400.000
G1 X4.653 Y50.891 Z-0.150 F400.000
G1 X4.696 Y50.780 Z-0.150 F400.000
G1 X4.555 Y51.074 Z-0.150 F400.000
G1 X4.376 Y51.287 Z-0.150 F400.000
G1 X4.310 Y51.341 Z-0.150 F400.000
G1 X4.239 Y51.389 Z-0.150 F400.000
G1 X3.976 Y51.509 Z-0.150 F400.000
G1 X3.658 Y51.573 Z-0.150 F400.000
G1 X3.562 Y51.580 Z-0.150 F400.000
G1 X3.462 Y51.582 Z-0.150 F400.000
G1 X3.091 Y51.546 Z-0.150 F400.000
G1 X2.794 Y51.446 Z-0.150 F400.000
G1 X2.616 Y51.339 Z-0.150 F400.000
G1 X2.462 Y51.201 Z-0.150 F400.000
G1 X2.305 Y50.977 Z-0.150 F400.000
G1 X2.190 Y50.685 Z-0.150 F400.000
G1 X2.123 Y50.307 Z-0.150 F400.000
G1 X2.109 Y50.000 Z-0.150 F400.000
G1 X2.145 Y49.517 Z-0.150 F400.000
G1 X2.242 Y49.155 Z-0.150 F400.000
G1 X2.339 Y48.959 Z-0.150 F400.000
G1 X2.462 Y48.796 Z-0.150 F400.000
G1 X2.682 Y48.615 Z-0.150 F400.000
G1 X2.945 Y48.493 Z-0.150 F400.000
G1 X3.261 Y48.427 Z-0.150 F400.000
G1 X3.462 Y48.418 Z-0.150 F400.000
G1 X3.838 Y48.454 Z-0.150 F400.000
G1 X4.135 Y48.554 Z-0.150 F400.000
G1 X4.236 Y48.609 Z-0.150 F400.000
G1 X4.330 Y48.675 Z-0.150 F400.000
G1 X4.514 Y48.864 Z-0.150 F400.000
G1 X4.656 Y49.117 Z-0.150 F400.000
G1 X4.718 Y49.293 Z-0.150 F400.000
G1 X4.765 Y49.490 Z-0.150 F400.000
G0 Z4.000
G0 Z4.000
G0 Z4.000
G0 X2.533 Y62.071
G0 Z2.000
(autolevel)
M5
G4P0.5
G90G1F400Z1
G38.3Z-3F30.0
G10L20P1Z0
G90G1F400Z1
M3 S12000
G4P0.5
(autolevel)
G1 X2.533 Y62.071 Z-0.150 F150.000
G1 X2.619 Y61.948 Z-0.150 F400.000
G1 X2.640 Y61.834 Z-0.150 F400.000
G1 X2.719 Y61.035 Z-0.150 F400.000
G1 X2.774 Y60.817 Z-0.150 F400.000
G1 X2.923 Y60.617 Z-0.150 F400.000
G1 X3.092 Y60.516 Z-0.150 F400.000
G1 X3.470 Y60.456 Z-0.150 F400.000
G1 X3.168 Y60.491 Z-0.150 F400.000
G1 X2.923 Y60.617 Z-0.150 F400.000
G1 X2.792 Y60.780 Z-0.150 F400.000
G1 X2.719 Y61.035 Z-0.150 F400.000
G1 X2.640 Y61.834 Z-0.150 F400.000
G1 X2.619 Y61.948 Z-0.150 F400.000
G1 X2.533 Y62.071 Z-0.150 F400.000
G0 Z4.000
G0 Z4.000
G0 X4.758 Y62.071
G0 Z2.000
G1 X4.758 Y62.071 Z-0.150 F150.000
G1 X4.758 Y58.906 Z-0.150 F400.000
G1 X3.618 Y58.906 Z-0.150 F400.000
G1 X3.129 Y58.957 Z-0.150 F400.000
G1 X2.960 Y59.018 Z-0.150 F400.000
G1 X2.832 Y59.100 Z-0.150 F400.000
G1 X2.740 Y59.201 Z-0.150 F400.000
G1 X2.680 Y59.322 Z-0.150 F400.000
G1 X2.627 Y59.608 Z-0.150 F400.000
G1 X2.663 Y59.921 Z-0.150 F400.000
G1 X2.718 Y60.066 Z-0.150 F400.000
G1 X2.806 Y60.193 Z-0.150 F400.000
G1 X2.975 Y60.329 Z-0.150 F400.000
G1 X3.088 Y60.384 Z-0.150 F400.000
G1 X3.335 Y60.445 Z-0.150 F400.000
G1 X3.530 Y60.456 Z-0.150 F400.000
G1 X4.758 Y60.456 Z-0.150 F400.000
G1 X3.530 Y60.456 Z-0.150 F400.000
G1 X3.292 Y60.438 Z-0.150 F400.000
G1 X3.095 Y60.384 Z-0.150 F400.000
G1 X2.936 Y60.300 Z-0.150 F400.000
G1 X2.813 Y60.193 Z-0.150 F400.000
G1 X2.722 Y60.066 Z-0.150 F400.000
G1 X2.664 Y59.921 Z-0.150 F400.000
G1 X2.627 Y59.608 Z-0.150 F400.000
G1 X2.683 Y59.322 Z-0.150 F400.000
G1 X2.744 Y59.201 Z-0.150 F400.000
G1 X2.838 Y59.100 Z-0.150 F400.000
G1 X3.017 Y58.996 Z-0.150 F400.000
G1 X3.138 Y58.957 Z-0.150 F400.000
G1 X3.352 Y58.919 Z-0.150 F400.000
G1 X3.618 Y58.906 Z-0.150 F400.000
G1 X4.758 Y58.906 Z-0.150 F400.000
G1 X4.758 Y62.071 Z-0.150 F400.000
G0 Z4.000
G0 Z4.000
G0 X0.960 Y62.071
G0 Z2.000
G1 X0.960 Y62.071 Z-0.150 F150.000
G1 X0.960 Y58.906 Z-0.150 F400.000
G1 X-0.037 Y58.906 Z-0.150 F400.000
G1 X-0.310 Y58.923 Z-0.150 F400.000
G1 X-0.529 Y58.974 Z-0.150 F400.000
G1 X-0.702 Y59.053 Z-0.150 F400.000
G1 X-0.833 Y59.155 Z-0.150 F400.000
G1 X-0.928 Y59.275 Z-0.150 F400.000
G1 X-0.989 Y59.414 Z-0.150 F400.000
G1 X-1.044 Y59.719 Z-0.150 F400.000
G1 X-1.008 Y60.032 Z-0.150 F400.000
G1 X-0.950 Y60.180 Z-0.150 F400.000
G1 X-0.858 Y60.311 Z-0.150 F400.000
G1 X-0.684 Y60.453 Z-0.150 F400.000
G1 X-0.568 Y60.511 Z-0.150 F400.000
G1 X-0.327 Y60.575 Z-0.150 F400.000
G1 X-0.119 Y60.588 Z-0.150 F400.000
G1 X0.960 Y60.588 Z-0.150 F400.000
G1 X-0.119 Y60.588 Z-0.150 F400.000
G1 X-0.363 Y60.569 Z-0.150 F400.000
G1 X-0.564 Y60.511 Z-0.150 F400.000
G1 X-0.727 Y60.422 Z-0.150 F400.000
G1 X-0.852 Y60.311 Z-0.150 F400.000
G1 X-0.945 Y60.180 Z-0.150 F400.000
G1 X-1.005 Y60.032 Z-0.150 F400.000
G1 X-1.044 Y59.719 Z-0.150 F400.000
G1 X-0.989 Y59.414 Z-0.150 F400.000
G1 X-0.927 Y59.275 Z-0.150 F400.000
G1 X-0.831 Y59.155 Z-0.150 F400.000
G1 X-0.652 Y59.028 Z-0.150 F400.000
G1 X-0.527 Y58.974 Z-0.150 F400.000
G1 X-0.258 Y58.917 Z-0.150 F400.000
G1 X-0.037 Y58.906 Z-0.150 F400.000
G1 X0.960 Y58.906 Z-0.150 F400.000
G1 X0.960 Y62.071 Z-0.150 F400.000
G0 Z4.000
G0 Z4.000
G0 X-4.753 Y60.999
G0 Z2.000
G1 X-4.753 Y60.999 Z-0.150 F150.000
G1 X-4.648 Y61.363 Z-0.150 F400.000
G1 X-4.498 Y61.630 Z-0.150 F400.000
G1 X-4.413 Y61.729 Z-0.150 F400.000
G1 X-4.318 Y61.814 Z-0.150 F400.000
G1 X-4.077 Y61.956 Z-0.150 F400.000
G1 X-3.784 Y62.043 Z-0.150 F400.000
G1 X-3.623 Y62.064 Z-0.150 F400.000
G1 X-3.451 Y62.071 Z-0.150 F400.000
G1 X-3.078 Y62.035 Z-0.150 F400.000
G1 X-2.780 Y61.935 Z-0.150 F400.000
G1 X-2.604 Y61.829 Z-0.150 F400.000
G1 X-2.450 Y61.692 Z-0.150 F400.000
G1 X-2.293 Y61.470 Z-0.150 F400.000
G1 X-2.179 Y61.178 Z-0.150 F400.000
G1 X-2.111 Y60.800 Z-0.150 F400.000
G1 X-2.097 Y60.489 Z-0.150 F400.000
G1 X-2.133 Y60.008 Z-0.150 F400.000
G1 X-2.231 Y59.647 Z-0.150 F400.000
G1 X-2.327 Y59.451 Z-0.150 F400.000
G1 X-2.450 Y59.288 Z-0.150 F400.000
G1 X-2.669 Y59.106 Z-0.150 F400.000
G1 X-2.932 Y58.982 Z-0.150 F400.000
G1 X-3.247 Y58.917 Z-0.150 F400.000
G1 X-3.451 Y58.906 Z-0.150 F400.000
G1 X-3.825 Y58.943 Z-0.150 F400.000
G1 X-4.228 Y59.100 Z-0.150 F400.000
G1 X-4.431 Y59.268 Z-0.150 F400.000
G1 X-4.592 Y59.496 Z-0.150 F400.000
G1 X-4.641 Y59.598 Z-0.150 F400.000
G1 X-4.684 Y59.709 Z-0.150 F400.000
G1 X-4.544 Y59.414 Z-0.150 F400.000
G1 X-4.364 Y59.201 Z-0.150 F400.000
G1 X-4.298 Y59.148 Z-0.150 F400.000
G1 X-4.228 Y59.100 Z-0.150 F400.000
G1 X-3.964 Y58.979 Z-0.150 F400.000
G1 X-3.646 Y58.915 Z-0.150 F400.000
G1 X-3.550 Y58.909 Z-0.150 F400.000
G1 X-3.451 Y58.906 Z-0.150 F400.000
G1 X-3.080 Y58.943 Z-0.150 F400.000
G1 X-2.782 Y59.043 Z-0.150 F400.000
G1 X-2.604 Y59.150 Z-0.150 F400.000
G1 X-2.450 Y59.288 Z-0.150 F400.000
G1 X-2.293 Y59.511 Z-0.150 F400.000
G1 X-2.178 Y59.804 Z-0.150 F400.000
G1 X-2.111 Y60.182 Z-0.150 F400.000
G1 X-2.097 Y60.489 Z-0.150 F400.000
G1 X-2.133 Y60.972 Z-0.150 F400.000
G1 X-2.231 Y61.334 Z-0.150 F400.000
G1 X-2.327 Y61.530 Z-0.150 F400.000
G1 X-2.450 Y61.692 Z-0.150 F400.000
G1 X-2.670 Y61.874 Z-0.150 F400.000
G1 X-2.933 Y61.996 Z-0.150 F400.000
G1 X-3.250 Y62.061 Z-0.150 F400.000
G1 X-3.451 Y62.071 Z-0.150 F400.000
G1 X-3.826 Y62.035 Z-0.150 F400.000
G1 X-4.123 Y61.935 Z-0.150 F400.000
G1 X-4.224 Y61.879 Z-0.150 F400.000
G1 X-4.318 Y61.814 Z-0.150 F400.000
G1 X-4.502 Y61.625 Z-0.150 F400.000
G1 X-4.644 Y61.372 Z-0.150 F400.000
G1 X-4.707 Y61.196 Z-0.150 F400.000
G1 X-4.753 Y60.999 Z-0.150 F400.000
G0 Z4.000
G0 Z4.000
G0 Z4.000
G0 X-2.521 Y73.418
G0 Z2.000
(autolevel)
M5
G4P0.5
G90G1F400Z1
G38.3Z-3F30.0
G10L20P1Z0
G90G1F400Z1
M3 S12000
G4P0.5
(autolevel)
G1 X-2.521 Y73.418 Z-0.150 F150.000
G1 X-2.607 Y73.540 Z-0.150 F400.000
G1 X-2.628 Y73.655 Z-0.150 F400.000
G1 X-2.707 Y74.453 Z-0.150 F400.000
G1 X-2.762 Y74.672 Z-0.150 F400.000
G1 X-2.911 Y74.871 Z-0.150 F400.000
G1 X-3.080 Y74.972 Z-0.150 F400.000
G1 X-3.458 Y75.032 Z-0.150 F400.000
G1 X-3.156 Y74.997 Z-0.150 F400.000
G1 X-2.911 Y74.871 Z-0.150 F400.000
G1 X-2.780 Y74.708 Z-0.150 F400.000
G1 X-2.707 Y74.453 Z-0.150 F400.000
G1 X-2.628 Y73.655 Z-0.150 F400.000
G1 X-2.607 Y73.540 Z-0.150 F400.000
G1 X-2.521 Y73.418 Z-0.150 F400.000
G0 Z4.000
G0 Z4.000
G0 X-4.746 Y73.418
G0 Z2.000
G1 X-4.746 Y73.418 Z-0.150 F150.000
G1 X-4.746 Y76.582 Z-0.150 F400.000
G1 X-3.606 Y76.582 Z-0.150 F400.000
G1 X-3.117 Y76.531 Z-0.150 F400.000
G1 X-2.948 Y76.471 Z-0.150 F400.000
G1 X-2.821 Y76.389 Z-0.150 F400.000
G1 X-2.728 Y76.287 Z-0.150 F400.000
G1 X-2.668 Y76.167 Z-0.150 F400.000
G1 X-2.616 Y75.880 Z-0.150 F400.000
G1 X-2.651 Y75.568 Z-0.150 F400.000
G1 X-2.706 Y75.423 Z-0.150 F400.000
G1 X-2.794 Y75.295 Z-0.150 F400.000
G1 X-2.963 Y75.160 Z-0.150 F400.000
G1 X-3.076 Y75.104 Z-0.150 F400.000
G1 X-3.323 Y75.044 Z-0.150 F400.000
G1 X-3.518 Y75.032 Z-0.150 F400.000
G1 X-4.746 Y75.032 Z-0.150 F400.000
G1 X-3.518 Y75.032 Z-0.150 F400.000
G1 X-3.280 Y75.050 Z-0.150 F400.000
G1 X-3.083 Y75.104 Z-0.150 F400.000
G1 X-2.924 Y75.189 Z-0.150 F400.000
G1 X-2.801 Y75.295 Z-0.150 F400.000
G1 X-2.710 Y75.423 Z-0.150 F400.000
G1 X-2.652 Y75.568 Z-0.150 F400.000
G1 X-2.616 Y75.880 Z-0.150 F400.000
G1 X-2.671 Y76.167 Z-0.150 F400.000
G1 X-2.732 Y76.287 Z-0.150 F400.000
G1 X-2.826 Y76.389 Z-0.150 F400.000
G1 X-3.005 Y76.492 Z-0.150 F400.000
G1 X-3.126 Y76.531 Z-0.150 F400.000
G1 X-3.340 Y76.570 Z-0.150 F400.000
G1 X-3.606 Y76.582 Z-0.150 F400.000
G1 X-4.746 Y76.582 Z-0.150 F400.000
G1 X-4.746 Y73.418 Z-0.150 F400.000
G0 Z4.000
G0 Z4.000
G0 X-0.948 Y73.418
G0 Z2.000
G1 X-0.948 Y73.418 Z-0.150 F150.000
G1 X-0.948 Y76.582 Z-0.150 F400.000
G1 X0.049 Y76.582 Z-0.150 F400.000
G1 X0.322 Y76.565 Z-0.150 F400.000
G1 X0.541 Y76.515 Z-0.150 F400.000
G1 X0.713 Y76.435 Z-0.150 F400.000
G1 X0.844 Y76.334 Z-0.150 F400.000
G1 X0.939 Y76.213 Z-0.150 F400.000
G1 X1.001 Y76.075 Z-0.150 F400.000
G1 X1.056 Y75.770 Z-0.150 F400.000
G1 X1.020 Y75.456 Z-0.150 F400.000
G1 X0.962 Y75.309 Z-0.150 F400.000
G1 X0.870 Y75.178 Z-0.150 F400.000
G1 X0.695 Y75.036 Z-0.150 F400.000
G1 X0.580 Y74.977 Z-0.150 F400.000
G1 X0.338 Y74.914 Z-0.150 F400.000
G1 X0.131 Y74.901 Z-0.150 F400.000
G1 X-0.948 Y74.901 Z-0.150 F400.000
G1 X0.131 Y74.901 Z-0.150 F400.000
G1 X0.375 Y74.920 Z-0.150 F400.000
G1 X0.576 Y74.977 Z-0.150 F400.000
G1 X0.738 Y75.066 Z-0.150 F400.000
G1 X0.864 Y75.178 Z-0.150 F400.000
G1 X0.957 Y75.309 Z-0.150 F400.000
G1 X1.017 Y75.456 Z-0.150 F400.000
G1 X1.056 Y75.770 Z-0.150 F400.000
G1 X1.001 Y76.075 Z-0.150 F400.000
G1 X0.939 Y76.213 Z-0.150 F400.000
G1 X0.843 Y76.334 Z-0.150 F400.000
G1 X0.664 Y76.461 Z-0.150 F400.000
G1 X0.539 Y76.515 Z-0.150 F400.000
G1 X0.270 Y76.572 Z-0.150 F400.000
G1 X0.049 Y76.582 Z-0.150 F400.000
G1 X-0.948 Y76.582 Z-0.150 F400.000
G1 X-0.948 Y73.418 Z-0.150 F400.000
G0 Z4.000
G0 Z4.000
G0 X4.765 Y74.490
G0 Z2.000
G1 X4.765 Y74.490 Z-0.150 F150.000
G1 X4.660 Y74.125 Z-0.150 F400.000
G1 X4.510 Y73.858 Z-0.150 F400.000
G1 X4.425 Y73.760 Z-0.150 F400.000
G1 X4.330 Y73.675 Z-0.150 F400.000
G1 X4.089 Y73.533 Z-0.150 F400.000
G1 X3.796 Y73.446 Z-0.150 F400.000
G1 X3.635 Y73.425 Z-0.150 F400.000
G1 X3.462 Y73.418 Z-0.150 F400.000
G1 X3.090 Y73.454 Z-0.150 F400.000
G1 X2.792 Y73.554 Z-0.150 F400.000
G1 X2.615 Y73.660 Z-0.150 F400.000
G1 X2.462 Y73.796 Z-0.150 F400.000
G1 X2.305 Y74.019 Z-0.150 F400.000
G1 X2.191 Y74.310 Z-0.150 F400.000
G1 X2.123 Y74.689 Z-0.150 F400.000
G1 X2.109 Y75.000 Z-0.150 F400.000
G1 X2.145 Y75.481 Z-0.150 F400.000
G1 X2.242 Y75.842 Z-0.150 F400.000
G1 X2.339 Y76.038 Z-0.150 F400.000
G1 X2.462 Y76.201 Z-0.150 F400.000
G1 X2.681 Y76.383 Z-0.150 F400.000
G1 X2.943 Y76.506 Z-0.150 F400.000
G1 X3.259 Y76.572 Z-0.150 F400.000
G1 X3.462 Y76.582 Z-0.150 F400.000
G1 X3.837 Y76.546 Z-0.150 F400.000
G1 X4.239 Y76.389 Z-0.150 F400.000
G1 X4.443 Y76.221 Z-0.150 F400.000
G1 X4.603 Y75.993 Z-0.150 F400.000
G1 X4.653 Y75.891 Z-0.150 F400.000
G1 X4.696 Y75.780 Z-0.150 F400.000
G1 X4.555 Y76.074 Z-0.150 F400.000
G1 X4.376 Y76.287 Z-0.150 F400.000
G1 X4.310 Y76.341 Z-0.150 F400.000
G1 X4.239 Y76.389 Z-0.150 F400.000
G1 X3.976 Y76.509 Z-0.150 F400.000
G1 X3.658 Y76.573 Z-0.150 F400.000
G1 X3.562 Y76.580 Z-0.150 F400.000
G1 X3.462 Y76.582 Z-0.150 F400.000
G1 X3.091 Y76.546 Z-0.150 F400.000
G1 X2.794 Y76.446 Z-0.150 F400.000
G1 X2.616 Y76.339 Z-0.150 F400.000
G1 X2.462 Y76.201 Z-0.150 F400.000
G1 X2.305 Y75.977 Z-0.150 F400.000
G1 X2.190 Y75.685 Z-0.150 F400.000
G1 X2.123 Y75.307 Z-0.150 F400.000
G1 X2.109 Y75.000 Z-0.150 F400.000
G1 X2.145 Y74.517 Z-0.150 F400.000
G1 X2.242 Y74.155 Z-0.150 F400.000
G1 X2.339 Y73.959 Z-0.150 F400.000
G1 X2.462 Y73.796 Z-0.150 F400.000
G1 X2.682 Y73.615 Z-0.150 F400.000
G1 X2.945 Y73.493 Z-0.150 F400.000
G1 X3.261 Y73.427 Z-0.150 F400.000
G1 X3.462 Y73.418 Z-0.150 F400.000
G1 X3.838 Y73.454 Z-0.150 F400.000
G1 X4.135 Y73.554 Z-0.150 F400.000
G1 X4.236 Y73.609 Z-0.150 F400.000
G1 X4.330 Y73.675 Z-0.150 F400.000
G1 X4.514 Y73.864 Z-0.150 F400.000
G1 X4.656 Y74.117 Z-0.150 F400.000
G1 X4.718 Y74.293 Z-0.150 F400.000
G1 X4.765 Y74.490 Z-0.150 F400.000
G0 Z4.000
G0 Z4.000
G0 Z4.000
G0 X2.533 Y87.071
G0 Z2.000
(autolevel)
M5
G4P0.5
G90G1F400Z1
G38.3Z-3F30.0
G10L20P1Z0
G90G1F400Z1
M3 S12000
G4P0.5
(autolevel)
G1 X2.533 Y87.071 Z-0.150 F150.000
G1 X2.619 Y86.948 Z-0.150 F400.000
G1 X2.640 Y86.834 Z-0.150 F400.000
G1 X2.719 Y86.035 Z-0.150 F400.000
G1 X2.774 Y85.817 Z-0.150 F400.000
G1 X2.923 Y85.617 Z-0.150 F400.000
G1 X3.092 Y85.516 Z-0.150 F400.000
G1 X3.470 Y85.456 Z-0.150 F400.000
G1 X3.168 Y85.491 Z-0.150 F400.000
G1 X2.923 Y85.617 Z-0.150 F400.000
G1 X2.792 Y85.780 Z-0.150 F400.000
G1 X2.719 Y86.035 Z-0.150 F400.000
G1 X2.640 Y86.834 Z-0.150 F400.000
G1 X2.619 Y86.948 Z-0.150 F400.000
G1 X2.533 Y87.071 Z-0.150 F400.000
G0 Z4.000
G0 Z4.000
G0 X4.758 Y87.071
G0 Z2.000
G1 X4.758 Y87.071 Z-0.150 F150.000
G1 X4.758 Y83.906 Z-0.150 F400.000
G1 X3.618 Y83.906 Z-0.150 F400.000
G1 X3.129 Y83.957 Z-0.150 F400.000
G1 X2.960 Y84.018 Z-0.150 F400.000
G1 X2.832 Y84.100 Z-0.150 F400.000
G1 X2.740 Y84.201 Z-0.150 F400.000
G1 X2.680 Y84.322 Z-0.150 F400.000
G1 X2.627 Y84.608 Z-0.150 F400.000
G1 X2.663 Y84.921 Z-0.150 F400.000
G1 X2.718 Y85.066 Z-0.150 F400.000
G1 X2.806 Y85.193 Z-0.150 F400.000
G1 X2.975 Y85.329 Z-0.150 F400.000
G1 X3.088 Y85.384 Z-0.150 F400.000
G1 X3.335 Y85.445 Z-0.150 F400.000
G1 X3.530 Y85.456 Z-0.150 F400.000
G1 X4.758 Y85.456 Z-0.150 F400.000
G1 X3.530 Y85.456 Z-0.150 F400.000
G1 X3.292 Y85.438 Z-0.150 F400.000
G1 X3.095 Y85.384 Z-0.150 F400.000
G1 X2.936 Y85.300 Z-0.150 F400.000
G1 X2.813 Y85.193 Z-0.150 F400.000
G1 X2.722 Y85.066 Z-0.150 F400.000
G1 X2.664 Y84.921 Z-0.150 F400.000
G1 X2.627 Y84.608 Z-0.150 F400.000
G1 X2.683 Y84.322 Z-0.150 F400.000
G1 X2.744 Y84.201 Z-0.150 F400.000
G1 X2.838 Y84.100 Z-0.150 F400.000
G1 X3.017 Y83.996 Z-0.150 F400.000
G1 X3.138 Y83.957 Z-0.150 F400.000
G1 X3.352 Y83.919 Z-0.150 F400.000
G1 X3.618 Y83.906 Z-0.150 F400.000
G1 X4.758 Y83.906 Z-0.150 F400.000
G1 X4.758 Y87.071 Z-0.150 F400.000
G0 Z4.000
G0 Z4.000
G0 X0.960 Y87.071
G0 Z2.000
G1 X0.960 Y87.071 Z-0.150 F150.000
G1 X0.960 Y83.906 Z-0.150 F400.000
G1 X-0.037 Y83.906 Z-0.150 F400.000
G1 X-0.310 Y83.923 Z-0.150 F400.000
G1 X-0.529 Y83.974 Z-0.150 F400.000
G1 X-0.702 Y84.053 Z-0.150 F400.000
G1 X-0.833 Y84.155 Z-0.150 F400.000
G1 X-0.928 Y84.275 Z-0.150 F400.000
G1 X-0.989 Y84.414 Z-0.150 F400.000
G1 X-1.044 Y84.719 Z-0.150 F400.000
G1 X-1.008 Y85.032 Z-0.150 F400.000
G1 X-0.950 Y85.180 Z-0.150 F400.000
G1 X-0.858 Y85.311 Z-0.150 F400.000
G1 X-0.684 Y85.453 Z-0.150 F400.000
G1 X-0.568 Y85.511 Z-0.150 F400.000
G1 X-0.327 Y85.575 Z-0.150 F400.000
G1 X-0.119 Y85.588 Z-0.150 F400.000
G1 X0.960 Y85.588 Z-0.150 F400.000
G1 X-0.119 Y85.588 Z-0.150 F400.000
G1 X-0.363 Y85.569 Z-0.150 F400.000
G1 X-0.564 Y85.511 Z-0.150 F400.000
G1 X-0.727 Y85.422 Z-0.150 F400.000
G1 X-0.852 Y85.311 Z-0.150 F400.000
G1 X-0.945 Y85.180 Z-0.150 F400.000
G1 X-1.005 Y85.032 Z-0.150 F400.000
G1 X-1.044 Y84.719 Z-0.150 F400.000
G1 X-0.989 Y84.414 Z-0.150 F400.000
G1 X-0.927 Y84.275 Z-0.150 F400.000
G1 X-0.831 Y84.155 Z-0.150 F400.000
G1 X-0.652 Y84.028 Z-0.150 F400.000
G1 X-0.527 Y83.974 Z-0.150 F400.000
G1 X-0.258 Y83.917 Z-0.150 F400.000
G1 X-0.037 Y83.906 Z-0.150 F400.000
G1 X0.960 Y83.906 Z-0.150 F400.000
G1 X0.960 Y87.071 Z-0.150 F400.000
G0 Z4.000
G0 Z4.000
G0 X-4.753 Y85.999
G0 Z2.000
G1 X-4.753 Y85.999 Z-0.150 F150.000
G1 X-4.648 Y86.363 Z-0.150 F400.000
G1 X-4.498 Y86.630 Z-0.150 F400.000
G1 X-4.413 Y86.729 Z-0.150 F400.000
G1 X-4.318 Y86.814 Z-0.150 F400.000
G1 X-4.077 Y86.956 Z-0.150 F400.000
G1 X-3.784 Y87.043 Z-0.150 F400.000
G1 X-3.623 Y87.064 Z-0.150 F400.000
G1 X-3.451 Y87.071 Z-0.150 F400.000
G1 X-3.078 Y87.035 Z-0.150 F400.000
G1 X-2.780 Y86.935 Z-0.150 F400.000
G1 X-2.604 Y86.829 Z-0.150 F400.000
G1 X-2.450 Y86.692 Z-0.150 F400.000
G1 X-2.293 Y86.470 Z-0.150 F400.000
G1 X-2.179 Y86.178 Z-0.150 F400.000
G1 X-2.111 Y85.800 Z-0.150 F400.000
G1 X-2.097 Y85.489 Z-0.150 F400.000
G1 X-2.133 Y85.008 Z-0.150 F400.000
G1 X-2.231 Y84.647 Z-0.150 F400.000
G1 X-2.327 Y84.451 Z-0.150 F400.000
G1 X-2.450 Y84.288 Z-0.150 F400.000
G1 X-2.669 Y84.106 Z-0.150 F400.000
G1 X-2.932 Y83.982 Z-0.150 F400.000
G1 X-3.247 Y83.917 Z-0.150 F400.000
G1 X-3.451 Y83.906 Z-0.150 F400.000
G1 X-3.825 Y83.943 Z-0.150 F400.000
G1 X-4.228 Y84.100 Z-0.150 F400.000
G1 X-4.431 Y84.268 Z-0.150 F400.000
G1 X-4.592 Y84.496 Z-0.150 F400.000
G1 X-4.641 Y84.598 Z-0.150 F400.000
G1 X-4.684 Y84.709 Z-0.150 F400.000
G1 X-4.544 Y84.414 Z-0.150 F400.000
G1 X-4.364 Y84.201 Z-0.150 F400.000
G1 X-4.298 Y84.148 Z-0.150 F400.000
G1 X-4.228 Y84.100 Z-0.150 F400.000
G1 X-3.964 Y83.979 Z-0.150 F400.000
G1 X-3.646 Y83.915 Z-0.150 F400.000
G1 X-3.550 Y83.909 Z-0.150 F400.000
G1 X-3.451 Y83.906 Z-0.150 F400.000
G1 X-3.080 Y83.943 Z-0.150 F400.000
G1 X-2.782 Y84.043 Z-0.150 F400.000
G1 X-2.604 Y84.150 Z-0.150 F400.000
G1 X-2.450 Y84.288 Z-0.150 F400.000
G1 X-2.293 Y84.511 Z-0.150 F400.000
G1 X-2.178 Y84.804 Z-0.150 F400.000
G1 X-2.111 Y85.182 Z-0.150 F400.000
G1 X-2.097 Y85.489 Z-0.150 F400.000
G1 X-2.133 Y85.972 Z-0.150 F400.000
G1 X-2.231 Y86.334 Z-0.150 F400.000
G1 X-2.327 Y86.530 Z-0.150 F400.000
G1 X-2.450 Y86.692 Z-0.150 F400.000
G1 X-2.670 Y86.874 Z-0.150 F400.000
G1 X-2.933 Y86.996 Z-0.150 F400.000
G1 X-3.250 Y87.061 Z-0.150 F400.000
G1 X-3.451 Y87.071 Z-0.150 F400.000
G1 X-3.826 Y87.035 Z-0.150 F400.000
G1 X-4.123 Y86.935 Z-0.150 F400.000
G1 X-4.224 Y86.879 Z-0.150 F400.000
G1 X-4.318 Y86.814 Z-0.150 F400.000
G1 X-4.502 Y86.625 Z-0.150 F400.000
G1 X-4.644 Y86.372 Z-0.150 F400.000
G1 X-4.707 Y86.196 Z-0.150 F400.000
G1 X-4.753 Y85.999 Z-0.150 F400.000
G0 Z4.000
G0 Z4.000
G0 Z4.000
G0 X-2.521 Y98.418
G0 Z2.000
(autolevel)
M5
G4P0.5
G90G1F400Z1
G38.3Z-3F30.0
G10L20P1Z0
G90G1F400Z1
M3 S12000
G4P0.5
(autolevel)
G1 X-2.521 Y98.418 Z-0.150 F150.000
G1 X-2.607 Y98.540 Z-0.150 F400.000
G1 X-2.628 Y98.655 Z-0.150 F400.000
G1 X-2.707 Y99.453 Z-0.150 F400.000
G1 X-2.762 Y99.672 Z-0.150 F400.000
G1 X-2.911 Y99.871 Z-0.150 F400.000
G1 X-3.080 Y99.972 Z-0.150 F400.000
G1 X-3.458 Y100.032 Z-0.150 F400.000
G1 X-3.156 Y99.997 Z-0.150 F400.000
G1 X-2.911 Y99.871 Z-0.150 F400.000
G1 X-2.780 Y99.708 Z-0.150 F400.000
G1 X-2.707 Y99.453 Z-0.150 F400.000
G1 X-2.628 Y98.655 Z-0.150 F400.000
G1 X-2.607 Y98.540 Z-0.150 F400.000
G1 X-2.521 Y98.418 Z-0.150 F400.000
G0 Z4.000
G0 Z4.000
G0 X-4.746 Y98.418
G0 Z2.000
G1 X-4.746 Y98.418 Z-0.150 F150.000
G1 X-4.746 Y101.582 Z-0.150 F400.000
G1 X-3.606 Y101.582 Z-0.150 F400.000
G1 X-3.117 Y101.531 Z-0.150 F400.000
G1 X-2.948 Y101.471 Z-0.150 F400.000
G1 X-2.821 Y101.389 Z-0.150 F400.000
G1 X-2.728 Y101.287 Z-0.150 F400.000
G1 X-2.668 Y101.167 Z-0.150 F400.000
G1 X-2.616 Y100.880 Z-0.150 F400.000
G1 X-2.651 Y100.568 Z-0.150 F400.000
G1 X-2.706 Y100.423 Z-0.150 F400.000
G1 X-2.794 Y100.295 Z-0.150 F400.000
G1 X-2.963 Y100.160 Z-0.150 F400.000
G1 X-3.076 Y100.104 Z-0.150 F400.000
G1 X-3.323 Y100.044 Z-0.150 F400.000
G1 X-3.518 Y100.032 Z-0.150 F400.000
G1 X-4.746 Y100.032 Z-0.150 F400.000
G1 X-3.518 Y100.032 Z-0.150 F400.000
G1 X-3.280 Y100.050 Z-0.150 F400.000
G1 X-3.083 Y100.104 Z-0.150 F400.000
G1 X-2.924 Y100.189 Z-0.150 F400.000
G1 X-2.801 Y100.295 Z-0.150 F400.000
G1 X-2.710 Y100.423 Z-0.150 F400.000
G1 X-2.652 Y100.568 Z-0.150 F400.000
G1 X-2.616 Y100.880 Z-0.150 F400.000
G1 X-2.671 Y101.167 Z-0.150 F400.000
G1 X-2.732 Y101.287 Z-0.150 F400.000
G1 X-2.826 Y101.389 Z-0.150 F400.000
G1 X-3.005 Y101.492 Z-0.150 F400.000
G1 X-3.126 Y101.531 Z-0.150 F400.000
G1 X-3.340 Y101.570 Z-0.150 F400.000
G1 X-3.606 Y101.582 Z-0.150 F400.000
G1 X-4.746 Y101.582 Z-0.150 F400.000
G1 X-4.746 Y98.418 Z-0.150 F400.000
G0 Z4.000
G0 Z4.000
G0 X-0.948 Y98.418
G0 Z2.000
G1 X-0.948 Y98.418 Z-0.150 F150.000
G1 X-0.948 Y101.582 Z-0.150 F400.000
G1 X0.049 Y101.582 Z-0.150 F400.000
G1 X0.322 Y101.565 Z-0.150 F400.000
G1 X0.541 Y101.515 Z-0.150 F400.000
G1 X0.713 Y101.435 Z-0.150 F400.000
G1 X0.844 Y101.334 Z-0.150 F400.000
G1 X0.939 Y101.213 Z-0.150 F400.000
G1 X1.001 Y101.075 Z-0.150 F400.000
G1 X1.056 Y100.770 Z-0.150 F400.000
G1 X1.020 Y100.456 Z-0.150 F400.000
G1 X0.962 Y100.309 Z-0.150 F400.000
G1 X0.870 Y100.178 Z-0.150 F400.000
G1 X0.695 Y100.036 Z-0.150 F400.000
G1 X0.580 Y99.977 Z-0.150 F400.000
G1 X0.338 Y99.914 Z-0.150 F400.000
G1 X0.131 Y99.901 Z-0.150 F400.000
G1 X-0.948 Y99.901 Z-0.150 F400.000
G1 X0.131 Y99.901 Z-0.150 F400.000
G1 X0.375 Y99.920 Z-0.150 F400.000
G1 X0.576 Y99.977 Z-0.150 F400.000
G1 X0.738 Y100.066 Z-0.150 F400.000
G1 X0.864 Y100.178 Z-0.150 F400.000
G1 X0.957 Y100.309 Z-0.150 F400.000
G1 X1.017 Y100.456 Z-0.150 F400.000
G1 X1.056 Y100.770 Z-0.150 F400.000
G1 X1.001 Y101.075 Z-0.150 F400.000
G1 X0.939 Y101.213 Z-0.150 F400.000
G1 X0.843 Y101.334 Z-0.150 F400.000
G1 X0.664 Y101.461 Z-0.150 F400.000
G1 X0.539 Y101.515 Z-0.150 F400.000
G1 X0.270 Y101.572 Z-0.150 F400.000
G1 X0.049 Y101.582 Z-0.150 F400.000
G1 X-0.948 Y101.582 Z-0.150 F400.000
G1 X-0.948 Y98.418 Z-0.150 F400.000
G0 Z4.000
G0 Z4.000
G0 X4.765 Y99.490
G0 Z2.000
G1 X4.765 Y99.490 Z-0.150 F150.000
G1 X4.660 Y99.125 Z-0.150 F400.000
G1 X4.510 Y98.858 Z-0.150 F400.000
G1 X4.425 Y98.760 Z-0.150 F400.000
G1 X4.330 Y98.675 Z-0.150 F400.000
G1 X4.089 Y98.533 Z-0.150 F400.000
G1 X3.796 Y98.446 Z-0.150 F400.000
G1 X3.635 Y98.425 Z-0.150 F400.000
G1 X3.462 Y98.418 Z-0.150 F400.000
G1 X3.090 Y98.454 Z-0.150 F400.000
G1 X2.792 Y98.554 Z-0.150 F400.000
G1 X2.615 Y98.660 Z-0.150 F400.000
G1 X2.462 Y98.796 Z-0.150 F400.000
G1 X2.305 Y99.019 Z-0.150 F400.000
G1 X2.191 Y99.310 Z-0.150 F400.000
G1 X2.123 Y99.689 Z-0.150 F400.000
G1 X2.109 Y100.000 Z-0.150 F400.000
G1 X2.145 Y100.481 Z-0.150 F400.000
G1 X2.242 Y100.842 Z-0.150 F400.000
G1 X2.339 Y101.038 Z-0.150 F400.000
G1 X2.462 Y101.201 Z-0.150 F400.000
G1 X2.681 Y101.383 Z-0.150 F400.000
G1 X2.943 Y101.506 Z-0.150 F400.000
G1 X3.259 Y101.572 Z-0.150 F400.000
G1 X3.462 Y101.582 Z-0.150 F400.000
G1 X3.837 Y101.546 Z-0.150 F400.000
G1 X4.239 Y101.389 Z-0.150 F400.000
G1 X4.443 Y101.221 Z-0.150 F400.000
G1 X4.603 Y100.993 Z-0.150 F400.000
G1 X4.653 Y100.891 Z-0.150 F400.000
G1 X4.696 Y100.780 Z-0.150 F400.000
G1 X4.555 Y101.074 Z-0.150 F400.000
G1 X4.376 Y101.287 Z-0.150 F400.000
G1 X4.310 Y101.341 Z-0.150 F400.000
G1 X4.239 Y101.389 Z-0.150 F400.000
G1 X3.976 Y101.509 Z-0.150 F400.000
G1 X3.658 Y101.573 Z-0.150 F400.000
G1 X3.562 Y101.580 Z-0.150 F400.000
G1 X3.462 Y101.582 Z-0.150 F400.000
G1 X3.091 Y101.546 Z-0.150 F400.000
G1 X2.794 Y101.446 Z-0.150 F400.000
G1 X2.616 Y101.339 Z-0.150 F400.000
G1 X2.462 Y101.201 Z-0.150 F400.000
G1 X2.305 Y100.977 Z-0.150 F400.000
G1 X2.190 Y100.685 Z-0.150 F400.000
G1 X2.123 Y100.307 Z-0.150 F400.000
G1 X2.109 Y100.000 Z-0.150 F400.000
G1 X2.145 Y99.517 Z-0.150 F400.000
G1 X2.242 Y99.155 Z-0.150 F400.000
G1 X2.339 Y98.959 Z-0.150 F400.000
G1 X2.462 Y98.796 Z-0.150 F400.000
G1 X2.682 Y98.615 Z-0.150 F400.000
G1 X2.945 Y98.493 Z-0.150 F400.000
G1 X3.261 Y98.427 Z-0.150 F400.000
G1 X3.462 Y98.418 Z-0.150 F400.000
G1 X3.838 Y98.454 Z-0.150 F400.000
G1 X4.135 Y98.554 Z-0.150 F400.000
G1 X4.236 Y98.609 Z-0.150 F400.000
G1 X4.330 Y98.675 Z-0.150 F400.000
G1 X4.514 Y98.864 Z-0.150 F400.000
G1 X4.656 Y99.117 Z-0.150 F400.000
G1 X4.718 Y99.293 Z-0.150 F400.000
G1 X4.765 Y99.490 Z-0.150 F400.000
G0 Z4.000
G0 Z4.000
G0 Z4.000
G0 X2.533 Y112.071
G0 Z2.000
(autolevel)
M5
G4P0.5
G90G1F400Z1
G38.3Z-3F30.0
G10L20P1Z0
G90G1F400Z1
M3 S12000
G4P0.5
(autolevel)
G1 X2.533 Y112.071 Z-0.150 F150.000
G1 X2.619 Y111.948 Z-0.150 F400.000
G1 X2.640 Y111.834 Z-0.150 F400.000
G1 X2.719 Y111.035 Z-0.150 F400.000
G1 X2.774 Y110.817 Z-0.150 F400.000
G1 X2.923 Y110.617 Z-0.150 F400.000
G1 X3.092 Y110.516 Z-0.150 F400.000
G1 X3.470 Y110.456 Z-0.150 F400.000
G1 X3.168 Y110.491 Z-0.150 F400.000
G1 X2.923 Y110.617 Z-0.150 F400.000
G1 X2.792 Y110.780 Z-0.150 F400.000
G1 X2.719 Y111.035 Z-0.150 F400.000
G1 X2.640 Y111.834 Z-0.150 F400.000
G1 X2.619 Y111.948 Z-0.150 F400.000
G1 X2.533 Y112.071 Z-0.150 F400.000
G0 Z4.000
G0 Z4.000
G0 X4.758 Y112.071
G0 Z2.000
G1 X4.758 Y112.071 Z-0.150 F150.000
G1 X4.758 Y108.906 Z-0.150 F400.000
G1 X3.618 Y108.906 Z-0.150 F400.000
G1 X3.129 Y108.957 Z-0.150 F400.000
G1 X2.960 Y109.018 Z-0.150 F400.000
G1 X2.832 Y109.100 Z-0.150 F400.000
G1 X2.740 Y109.201 Z-0.150 F400.000
G1 X2.680 Y109.322 Z-0.150 F400.000
G1 X2.627 Y109.608 Z-0.150 F400.000
G1 X2.663 Y109.921 Z-0.150 F400.000
G1 X2.718 Y110.066 Z-0.150 F400.000
G1 X2.806 Y110.193 Z-0.150 F400.000
G1 X2.975 Y110.329 Z-0.150 F400.000
G1 X3.088 Y110.384 Z-0.150 F400.000
G1 X3.335 Y110.445 Z-0.150 F400.000
G1 X3.530 Y110.456 Z-0.150 F400.000
G1 X4.758 Y110.456 Z-0.150 F400.000
G1 X3.530 Y110.456 Z-0.150 F400.000
G1 X3.292 Y110.438 Z-0.150 F400.000
G1 X3.095 Y110.384 Z-0.150 F400.000
G1 X2.936 Y110.300 Z-0.150 F400.000
G1 X2.813 Y110.193 Z-0.150 F400.000
G1 X2.722 Y110.066 Z-0.150 F400.000
G1 X2.664 Y109.921 Z-0.150 F400.000
G1 X2.627 Y109.608 Z-0.150 F400.000
G1 X2.683 Y109.322 Z-0.150 F400.000
G1 X2.744 Y109.201 Z-0.150 F400.000
G1 X2.838 Y109.100 Z-0.150 F400.000
G1 X3.017 Y108.996 Z-0.150 F400.000
G1 X3.138 Y108.957 Z-0.150 F400.000
G1 X3.352 Y108.919 Z-0.150 F400.000
G1 X3.618 Y108.906 Z-0.150 F400.000
G1 X4.758 Y108.906 Z-0.150 F400.000
G1 X4.758 Y112.071 Z-0.150 F400.000
G0 Z4.000
G0 Z4.000
G0 X0.960 Y112.071
G0 Z2.000
G1 X0.960 Y112.071 Z-0.150 F150.000
G1 X0.960 Y108.906 Z-0.150 F400.000
G1 X-0.037 Y108.906 Z-0.150 F400.000
G1 X-0.310 Y108.923 Z-0.150 F400.000
G1 X-0.529 Y108.974 Z-0.150 F400.000
G1 X-0.702 Y109.053 Z-0.150 F400.000
G1 X-0.833 Y109.155 Z-0.150 F400.000
G1 X-0.928 Y109.275 Z-0.150 F400.000
G1 X-0.989 Y109.414 Z-0.150 F400.000
G1 X-1.044 Y109.719 Z-0.150 F400.000
G1 X-1.008 Y110.032 Z-0.150 F400.000
G1 X-0.950 Y110.180 Z-0.150 F400.000
G1 X-0.858 Y110.311 Z-0.150 F400.000
G1 X-0.684 Y110.453 Z-0.150 F400.000
G1 X-0.568 Y110.511 Z-0.150 F400.000
G1 X-0.327 Y110.575 Z-0.150 F400.000
G1 X-0.119 Y110.588 Z-0.150 F400.000
G1 X0.960 Y110.588 Z-0.150 F400.000
G1 X-0.119 Y110.588 Z-0.150 F400.000
G1 X-0.363 Y110.569 Z-0.150 F400.000
G1 X-0.564 Y110.511 Z-0.150 F400.000
G1 X-0.727 Y110.422 Z-0.150 F400.000
G1 X-0.852 Y110.311 Z-0.150 F400.000
G1 X-0.945 Y110.180 Z-0.150 F400.000
G1 X-1.005 Y110.032 Z-0.150 F400.000
G1 X-1.044 Y109.719 Z-0.150 F400.000
G1 X-0.989 Y109.414 Z-0.150 F400.000
G1 X-0.927 Y109.275 Z-0.150 F400.000
G1 X-0.831 Y109.155 Z-0.150 F400.000
G1 X-0.652 Y109.028 Z-0.150 F400.000
G1 X-0.527 Y108.974 Z-0.150 F400.000
G1 X-0.258 Y108.917 Z-0.150 F400.000
G1 X-0.037 Y108.906 Z-0.150 F400.000
G1 X0.960 Y108.906 Z-0.150 F400.000
G1 X0.960 Y112.071 Z-0.150 F400.000
G0 Z4.000
G0 Z4.000
G0 X-4.753 Y110.999
G0 Z2.000
G1 X-4.753 Y110.999 Z-0.150 F150.000
G1 X-4.648 Y111.363 Z-0.150 F400.000
G1 X-4.498 Y111.630 Z-0.150 F400.000
G1 X-4.413 Y111.729 Z-0.150 F400.000
G1 X-4.318 Y111.814 Z-0.150 F400.000
G1 X-4.077 Y111.956 Z-0.150 F400.000
G1 X-3.784 Y112.043 Z-0.150 F400.000
G1 X-3.623 Y112.064 Z-0.150 F400.000
G1 X-3.451 Y112.071 Z-0.150 F400.000
G1 X-3.078 Y112.035 Z-0.150 F400.000
G1 X-2.780 Y111.935 Z-0.150 F400.000
G1 X-2.604 Y111.829 Z-0.150 F400.000
G1 X-2.450 Y111.692 Z-0.150 F400.000
G1 X-2.293 Y111.470 Z-0.150 F400.000
G1 X-2.179 Y111.178 Z-0.150 F400.000
G1 X-2.111 Y110.800 Z-0.150 F400.000
G1 X-2.097 Y110.489 Z-0.150 F400.000
G1 X-2.133 Y110.008 Z-0.150 F400.000
G1 X-2.231 Y109.647 Z-0.150 F400.000
G1 X-2.327 Y109.451 Z-0.150 F400.000
G1 X-2.450 Y109.288 Z-0.150 F400.000
G1 X-2.669 Y109.106 Z-0.150 F400.000
G1 X-2.932 Y108.982 Z-0.150 F400.000
G1 X-3.247 Y108.917 Z-0.150 F400.000
G1 X-3.451 Y108.906 Z-0.150 F400.000
G1 X-3.825 Y108.943 Z-0.150 F400.000
G1 X-4.228 Y109.100 Z-0.150 F400.000
G1 X-4.431 Y109.268 Z-0.150 F400.000
G1 X-4.592 Y109.496 Z-0.150 F400.000
G1 X-4.641 Y109.598 Z-0.150 F400.000
G1 X-4.684 Y109.709 Z-0.150 F400.000
G1 X-4.544 Y109.414 Z-0.150 F400.000
G1 X-4.364 Y109.201 Z-0.150 F400.000
G1 X-4.298 Y109.148 Z-0.150 F400.000
G1 X-4.228 Y109.100 Z-0.150 F400.000
G1 X-3.964 Y108.979 Z-0.150 F400.000
G1 X-3.646 Y108.915 Z-0.150 F400.000
G1 X-3.550 Y108.909 Z-0.150 F400.000
G1 X-3.451 Y108.906 Z-0.150 F400.000
G1 X-3.080 Y108.943 Z-0.150 F400.000
G1 X-2.782 Y109.043 Z-0.150 F400.000
G1 X-2.604 Y109.150 Z-0.150 F400.000
G1 X-2.450 Y109.288 Z-0.150 F400.000
G1 X-2.293 Y109.511 Z-0.150 F400.000
G1 X-2.178 Y109.804 Z-0.150 F400.000
G1 X-2.111 Y110.182 Z-0.150 F400.000
G1 X-2.097 Y110.489 Z-0.150 F400.000
G1 X-2.133 Y110.972 Z-0.150 F400.000
G1 X-2.231 Y111.334 Z-0.150 F400.000
G1 X-2.327 Y111.530 Z-0.150 F400.000
G1 X-2.450 Y111.692 Z-0.150 F400.000
G1 X-2.670 Y111.874 Z-0.150 F400.000
G1 X-2.933 Y111.996 Z-0.150 F400.000
G1 X-3.250 Y112.061 Z-0.150 F400.000
G1 X-3.451 Y112.071 Z-0.150 F400.000
G1 X-3.826 Y112.035 Z-0.150 F400.000
G1 X-4.123 Y111.935 Z-0.150 F400.000
G1 X-4.224 Y111.879 Z-0.150 F400.000
G1 X-4.318 Y111.814 Z-0.150 F400.000
G1 X-4.502 Y111.625 Z-0.150 F400.000
G1 X-4.644 Y111.372 Z-0.150 F400.000
G1 X-4.707 Y111.196 Z-0.150 F400.000
G1 X-4.753 Y110.999 Z-0.150 F400.000
G0 Z4.000
G0 Z4.000
G0 Z4.000
G0 X-2.521 Y123.418
G0 Z2.000
(autolevel)
M5
G4P0.5
G90G1F400Z1
G38.3Z-3F30.0
G10L20P1Z0
G90G1F400Z1
M3 S12000
G4P0.5
(autolevel)
G1 X-2.521 Y123.418 Z-0.150 F150.000
G1 X-2.607 Y123.540 Z-0.150 F400.000
G1 X-2.628 Y123.655 Z-0.150 F400.000
G1 X-2.707 Y124.453 Z-0.150 F400.000
G1 X-2.762 Y124.672 Z-0.150 F400.000
G1 X-2.911 Y124.871 Z-0.150 F400.000
G1 X-3.080 Y124.972 Z-0.150 F400.000
G1 X-3.458 Y125.032 Z-0.150 F400.000
G1 X-3.156 Y124.997 Z-0.150 F400.000
G1 X-2.911 Y124.871 Z-0.150 F400.000
G1 X-2.780 Y124.708 Z-0.150 F400.000
G1 X-2.707 Y124.453 Z-0.150 F400.000
G1 X-2.628 Y123.655 Z-0.150 F400.000
G1 X-2.607 Y123.540 Z-0.150 F400.000
G1 X-2.521 Y123.418 Z-0.150 F400.000
G0 Z4.000
G0 Z4.000
G0 X-4.746 Y123.418
G0 Z2.000
G1 X-4.746 Y123.418 Z-0.150 F150.000
G1 X-4.746 Y126.582 Z-0.150 F400.000
G1 X-3.606 Y126.582 Z-0.150 F400.000
G1 X-3.117 Y126.531 Z-0.150 F400.000
G1 X-2.948 Y126.471 Z-0.150 F400.000
G1 X-2.821 Y126.389 Z-0.150 F400.000
G1 X-2.728 Y126.287 Z-0.150 F400.000
G1 X-2.668 Y126.167 Z-0.150 F400.000
G1 X-2.616 Y125.880 Z-0.150 F400.000
G1 X-2.651 Y125.568 Z-0.150 F400.000
G1 X-2.706 Y125.423 Z-0.150 F400.000
G1 X-2.794 Y125.295 Z-0.150 F400.000
G1 X-2.963 Y125.160 Z-0.150 F400.000
G1 X-3.076 Y125.104 Z-0.150 F400.000
G1 X-3.323 Y125.044 Z-0.150 F400.000
G1 X-3.518 Y125.032 Z-0.150 F400.000
G1 X-4.746 Y125.032 Z-0.150 F400.000
G1 X-3.518 Y125.032 Z-0.150 F400.000
G1 X-3.280 Y125.050 Z-0.150 F400.000
G1 X-3.083 Y125.104 Z-0.150 F400.000
G1 X-2.924 Y125.189 Z-0.150 F400.000
G1 X-2.801 Y125.295 Z-0.150 F400.000
G1 X-2.710 Y125.423 Z-0.150 F400.000
G1 X-2.652 Y125.568 Z-0.150 F400.000
G1 X-2.616 Y125.880 Z-0.150 F400.000
G1 X-2.671 Y126.167 Z-0.150 F400.000
G1 X-2.732 Y126.287 Z-0.150 F400.000
G1 X-2.826 Y126.389 Z-0.150 F400.000
G1 X-3.005 Y126.492 Z-0.150 F400.000
G1 X-3.126 Y126.531 Z-0.150 F400.000
G1 X-3.340 Y126.570 Z-0.150 F400.000
G1 X-3.606 Y126.582 Z-0.150 F400.000
G1 X-4.746 Y126.582 Z-0.150 F400.000
G1 X-4.746 Y123.418 Z-0.150 F400.000
G0 Z4.000
G0 Z4.000
G0 X-0.948 Y123.418
G0 Z2.000
G1 X-0.948 Y123.418 Z-0.150 F150.000
G1 X-0.948 Y126.582 Z-0.150 F400.000
G1 X0.049 Y126.582 Z-0.150 F400.000
G1 X0.322 Y126.565 Z-0.150 F400.000
G1 X0.541 Y126.515 Z-0.150 F400.000
G1 X0.713 Y126.435 Z-0.150 F400.000
G1 X0.844 Y126.334 Z-0.150 F400.000
G1 X0.939 Y126.213 Z-0.150 F400.000
G1 X1.001 Y126.075 Z-0.150 F400.000
G1 X1.056 Y125.770 Z-0.150 F400.000
G1 X1.020 Y125.456 Z-0.150 F400.000
G1 X0.962 Y125.309 Z-0.150 F400.000
G1 X0.870 Y125.178 Z-0.150 F400.000
G1 X0.695 Y125.036 Z-0.150 F400.000
G1 X0.580 Y124.977 Z-0.150 F400.000
G1 X0.338 Y124.914 Z-0.150 F400.000
G1 X0.131 Y124.901 Z-0.150 F400.000
G1 X-0.948 Y124.901 Z-0.150 F400.000
G1 X0.131 Y124.901 Z-0.150 F400.000
G1 X0.375 Y124.920 Z-0.150 F400.000
G1 X0.576 Y124.977 Z-0.150 F400.000
G1 X0.738 Y125.066 Z-0.150 F400.000
G1 X0.864 Y125.178 Z-0.150 F400.000
G1 X0.957 Y125.309 Z-0.150 F400.000
G1 X1.017 Y125.456 Z-0.150 F400.000
G1 X1.056 Y125.770 Z-0.150 F400.000
G1 X1.001 Y126.075 Z-0.150 F400.000
G1 X0.939 Y126.213 Z-0.150 F400.000
G1 X0.843 Y126.334 Z-0.150 F400.000
G1 X0.664 Y126.461 Z-0.150 F400.000
G1 X0.539 Y126.515 Z-0.150 F400.000
G1 X0.270 Y126.572 Z-0.150 F400.000
G1 X0.049 Y126.582 Z-0.150 F400.000
G1 X-0.948 Y126.582 Z-0.150 F400.000
G1 X-0.948 Y123.418 Z-0.150 F400.000
G0 Z4.000
G0 Z4.000
G0 X4.765 Y124.490
G0 Z2.000
G1 X4.765 Y124.490 Z-0.150 F150.000
G1 X4.660 Y124.125 Z-0.150 F400.000
G1 X4.510 Y123.858 Z-0.150 F400.000
G1 X4.425 Y123.760 Z-0.150 F400.000
G1 X4.330 Y123.675 Z-0.150 F400.000
G1 X4.089 Y123.533 Z-0.150 F400.000
G1 X3.796 Y123.446 Z-0.150 F400.000
G1 X3.635 Y123.425 Z-0.150 F400.000
G1 X3.462 Y123.418 Z-0.150 F400.000
G1 X3.090 Y123.454 Z-0.150 F400.000
G1 X2.792 Y123.554 Z-0.150 F400.000
G1 X2.615 Y123.660 Z-0.150 F400.000
G1 X2.462 Y123.796 Z-0.150 F400.000
G1 X2.305 Y124.019 Z-0.150 F400.000
G1 X2.191 Y124.310 Z-0.150 F400.000
G1 X2.123 Y124.689 Z-0.150 F400.000
G1 X2.109 Y125.000 Z-0.150 F400.000
G1 X2.145 Y125.481 Z-0.150 F400.000
G1 X2.242 Y125.842 Z-0.150 F400.000
G1 X2.339 Y126.038 Z-0.150 F400.000
G1 X2.462 Y126.201 Z-0.150 F400.000
G1 X2.681 Y126.383 Z-0.150 F400.000
G1 X2.943 Y126.506 Z-0.150 F400.000
G1 X3.259 Y126.572 Z-0.150 F400.000
G1 X3.462 Y126.582 Z-0.150 F400.000
G1 X3.837 Y126.546 Z-0.150 F400.000
G1 X4.239 Y126.389 Z-0.150 F400.000
G1 X4.443 Y126.221 Z-0.150 F400.000
G1 X4.603 Y125.993 Z-0.150 F400.000
G1 X4.653 Y125.891 Z-0.150 F400.000
G1 X4.696 Y125.780 Z-0.150 F400.000
G1 X4.555 Y126.074 Z-0.150 F400.000
G1 X4.376 Y126.287 Z-0.150 F400.000
G1 X4.310 Y126.341 Z-0.150 F400.000
G1 X4.239 Y126.389 Z-0.150 F400.000
G1 X3.976 Y126.509 Z-0.150 F400.000
G1 X3.658 Y126.573 Z-0.150 F400.000
G1 X3.562 Y126.580 Z-0.150 F400.000
G1 X3.462 Y126.582 Z-0.150 F400.000
G1 X3.091 Y126.546 Z-0.150 F400.000
G1 X2.794 Y126.446 Z-0.150 F400.000
G1 X2.616 Y126.339 Z-0.150 F400.000
G1 X2.462 Y126.201 Z-0.150 F400.000
G1 X2.305 Y125.977 Z-0.150 F400.000
G1 X2.190 Y125.685 Z-0.150 F400.000
G1 X2.123 Y125.307 Z-0.150 F400.000
G1 X2.109 Y125.000 Z-0.150 F400.000
G1 X2.145 Y124.517 Z-0.150 F400.000
G1 X2.242 Y124.155 Z-0.150 F400.000
G1 X2.339 Y123.959 Z-0.150 F400.000
G1 X2.462 Y123.796 Z-0.150 F400.000
G1 X2.682 Y123.615 Z-0.150 F400.000
G1 X2.945 Y123.493 Z-0.150 F400.000
G1 X3.261 Y123.427 Z-0.150 F400.000
G1 X3.462 Y123.418 Z-0.150 F400.000
G1 X3.838 Y123.454 Z-0.150 F400.000
G1 X4.135 Y123.554 Z-0.150 F400.000
G1 X4.236 Y123.609 Z-0.150 F400.000
G1 X4.330 Y123.675 Z-0.150 F400.000
G1 X4.514 Y123.864 Z-0.150 F400.000
G1 X4.656 Y124.117 Z-0.150 F400.000
G1 X4.718 Y124.293 Z-0.150 F400.000
G1 X4.765 Y124.490 Z-0.150 F400.000
G0 Z4.000
G0 Z4.000
G0 Z4.000
G0 X2.533 Y137.071
G0 Z2.000
(autolevel)
M5
G4P0.5
G90G1F400Z1
G38.3Z-3F30.0
G10L20P1Z0
G90G1F400Z1
M3 S12000
G4P0.5
(autolevel)
G1 X2.533 Y137.071 Z-0.150 F150.000
G1 X2.619 Y136.948 Z-0.150 F400.000
G1 X2.640 Y136.834 Z-0.150 F400.000
G1 X2.719 Y136.035 Z-0.150 F400.000
G1 X2.774 Y135.817 Z-0.150 F400.000
G1 X2.923 Y135.617 Z-0.150 F400.000
G1 X3.092 Y135.516 Z-0.150 F400.000
G1 X3.470 Y135.456 Z-0.150 F400.000
G1 X3.168 Y135.491 Z-0.150 F400.000
G1 X2.923 Y135.617 Z-0.150 F400.000
G1 X2.792 Y135.780 Z-0.150 F400.000
G1 X2.719 Y136.035 Z-0.150 F400.000
G1 X2.640 Y136.834 Z-0.150 F400.000
G1 X2.619 Y136.948 Z-0.150 F400.000
G1 X2.533 Y137.071 Z-0.150 F400.000
G0 Z4.000
G0 Z4.000
G0 X4.758 Y137.071
G0 Z2.000
G1 X4.758 Y137.071 Z-0.150 F150.000
G1 X4.758 Y133.906 Z-0.150 F400.000
G1 X3.618 Y133.906 Z-0.150 F400.000
G1 X3.129 Y133.957 Z-0.150 F400.000
G1 X2.960 Y134.018 Z-0.150 F400.000
G1 X2.832 Y134.100 Z-0.150 F400.000
G1 X2.740 Y134.201 Z-0.150 F400.000
G1 X2.680 Y134.322 Z-0.150 F400.000
G1 X2.627 Y134.608 Z-0.150 F400.000
G1 X2.663 Y134.921 Z-0.150 F400.000
G1 X2.718 Y135.066 Z-0.150 F400.000
G1 X2.806 Y135.193 Z-0.150 F400.000
G1 X2.975 Y135.329 Z-0.150 F400.000
G1 X3.088 Y135.384 Z-0.150 F400.000
G1 X3.335 Y135.445 Z-0.150 F400.000
G1 X3.530 Y135.456 Z-0.150 F400.000
G1 X4.758 Y135.456 Z-0.150 F400.000
G1 X3.530 Y135.456 Z-0.150 F400.000
G1 X3.292 Y135.438 Z-0.150 F400.000
G1 X3.095 Y135.384 Z-0.150 F400.000
G1 X2.936 Y135.300 Z-0.150 F400.000
G1 X2.813 Y135.193 Z-0.150 F400.000
G1 X2.722 Y135.066 Z-0.150 F400.000
G1 X2.664 Y134.921 Z-0.150 F400.000
G1 X2.627 Y134.608 Z-0.150 F400.000
G1 X2.683 Y134.322 Z-0.150 F400.000
G1 X2.744 Y134.201 Z-0.150 F400.000
G1 X2.838 Y134.100 Z-0.150 F400.000
G1 X3.017 Y133.996 Z-0.150 F400.000
G1 X3.138 Y133.957 Z-0.150 F400.000
G1 X3.352 Y133.919 Z-0.150 F400.000
G1 X3.618 Y133.906 Z-0.150 F400.000
G1 X4.758 Y133.906 Z-0.150 F400.000
G1 X4.758 Y137.071 Z-0.150 F400.000
G0 Z4.000
G0 Z4.000
G0 X0.960 Y137.071
G0 Z2.000
G1 X0.960 Y137.071 Z-0.150 F150.000
G1 X0.960 Y133.906 Z-0.150 F400.000
G1 X-0.037 Y133.906 Z-0.150 F400.000
G1 X-0.310 Y133.923 Z-0.150 F400.000
G1 X-0.529 Y133.974 Z-0.150 F400.000
G1 X-0.702 Y134.053 Z-0.150 F400.000
G1 X-0.833 Y134.155 Z-0.150 F400.000
G1 X-0.928 Y134.275 Z-0.150 F400.000
G1 X-0.989 Y134.414 Z-0.150 F400.000
G1 X-1.044 Y134.719 Z-0.150 F400.000
G1 X-1.008 Y135.032 Z-0.150 F400.000
G1 X-0.950 Y135.180 Z-0.150 F400.000
G1 X-0.858 Y135.311 Z-0.150 F400.000
G1 X-0.684 Y135.453 Z-0.150 F400.000
G1 X-0.568 Y135.511 Z-0.150 F400.000
G1 X-0.327 Y135.575 Z-0.150 F400.000
G1 X-0.119 Y135.588 Z-0.150 F400.000
G1 X0.960 Y135.588 Z-0.150 F400.000
G1 X-0.119 Y135.588 Z-0.150 F400.000
G1 X-0.363 Y135.569 Z-0.150 F400.000
G1 X-0.564 Y135.511 Z-0.150 F400.000
G1 X-0.727 Y135.422 Z-0.150 F400.000
G1 X-0.852 Y135.311 Z-0.150 F400.000
G1 X-0.945 Y135.180 Z-0.150 F400.000
G1 X-1.005 Y135.032 Z-0.150 F400.000
G1 X-1.044 Y134.719 Z-0.150 F400.000
G1 X-0.989 Y134.414 Z-0.150 F400.000
G1 X-0.927 Y134.275 Z-0.150 F400.000
G1 X-0.831 Y134.155 Z-0.150 F400.000
G1 X-0.652 Y134.028 Z-0.150 F400.000
G1 X-0.527 Y133.974 Z-0.150 F400.000
G1 X-0.258 Y133.917 Z-0.150 F400.000
G1 X-0.037 Y133.906 Z-0.150 F400.000
G1 X0.960 Y133.906 Z-0.150 F400.000
G1 X0.960 Y137.071 Z-0.150 F400.000
G0 Z4.000
G0 Z4.000
G0 X-4.753 Y135.999
G0 Z2.000
G1 X-4.753 Y135.999 Z-0.150 F150.000
G1 X-4.648 Y136.363 Z-0.150 F400.000
G1 X-4.498 Y136.630 Z-0.150 F400.000
G1 X-4.413 Y136.729 Z-0.150 F400.000
G1 X-4.318 Y136.814 Z-0.150 F400.000
G1 X-4.077 Y136.956 Z-0.150 F400.000
G1 X-3.784 Y137.043 Z-0.150 F400.000
G1 X-3.623 Y137.064 Z-0.150 F400.000
G1 X-3.451 Y137.071 Z-0.150 F400.000
G1 X-3.078 Y137.035 Z-0.150 F400.000
G1 X-2.780 Y136.935 Z-0.150 F400.000
G1 X-2.604 Y136.829 Z-0.150 F400.000
G1 X-2.450 Y136.692 Z-0.150 F400.000
G1 X-2.293 Y136.470 Z-0.150 F400.000
G1 X-2.179 Y136.178 Z-0.150 F400.000
G1 X-2.111 Y135.800 Z-0.150 F400.000
G1 X-2.097 Y135.489 Z-0.150 F400.000
G1 X-2.133 Y135.008 Z-0.150 F400.000
G1 X-2.231 Y134.647 Z-0.150 F400.000
G1 X-2.327 Y134.451 Z-0.150 F400.000
G1 X-2.450 Y134.288 Z-0.150 F400.000
G1 X-2.669 Y134.106 Z-0.150 F400.000
G1 X-2.932 Y133.982 Z-0.150 F400.000
G1 X-3.247 Y133.917 Z-0.150 F400.000
G1 X-3.451 Y133.906 Z-0.150 F400.000
G1 X-3.825 Y133.943 Z-0.150 F400.000
G1 X-4.228 Y134.100 Z-0.150 F400.000
G1 X-4.431 Y134.268 Z-0.150 F400.000
G1 X-4.592 Y134.496 Z-0.150 F400.000
G1 X-4.641 Y134.598 Z-0.150 F400.000
G1 X-4.684 Y134.709 Z-0.150 F400.000
G1 X-4.544 Y134.414 Z-0.150 F400.000
G1 X-4.364 Y134.201 Z-0.150 F400.000
G1 X-4.298 Y134.148 Z-0.150 F400.000
G1 X-4.228 Y134.100 Z-0.150 F400.000
G1 X-3.964 Y133.979 Z-0.150 F400.000
G1 X-3.646 Y133.915 Z-0.150 F400.000
G1 X-3.550 Y133.909 Z-0.150 F400.000
G1 X-3.451 Y133.906 Z-0.150 F400.000
G1 X-3.080 Y133.943 Z-0.150 F400.000
G1 X-2.782 Y134.043 Z-0.150 F400.000
G1 X-2.604 Y134.150 Z-0.150 F400.000
G1 X-2.450 Y134.288 Z-0.150 F400.000
G1 X-2.293 Y134.511 Z-0.150 F400.000
G1 X-2.178 Y134.804 Z-0.150 F400.000
G1 X-2.111 Y135.182 Z-0.150 F400.000
G1 X-2.097 Y135.489 Z-0.150 F400.000
G1 X-2.133 Y135.972 Z-0.150 F400.000
G1 X-2.231 Y136.334 Z-0.150 F400.000
G1 X-2.327 Y136.530 Z-0.150 F400.000
G1 X-2.450 Y136.692 Z-0.150 F400.000
G1 X-2.670 Y136.874 Z-0.150 F400.000
G1 X-2.933 Y136.996 Z-0.150 F400.000
G1 X-3.250 Y137.061 Z-0.150 F400.000
G1 X-3.451 Y137.071 Z-0.150 F400.000
G1 X-3.826 Y137.035 Z-0.150 F400.000
G1 X-4.123 Y136.935 Z-0.150 F400.000
G1 X-4.224 Y136.879 Z-0.150 F400.000
G1 X-4.318 Y136.814 Z-0.150 F400.000
G1 X-4.502 Y136.625 Z-0.150 F400.000
G1 X-4.644 Y136.372 Z-0.150 F400.000
G1 X-4.707 Y136.196 Z-0.150 F400.000
G1 X-4.753 Y135.999 Z-0.150 F400.000
G0 Z4.000
G0 Z4.000
G0 Z4.000
G0 X44.533 Y137.071
G0 Z2.000
(autolevel)
M5
G4P0.5
G90G1F400Z1
G38.3Z-3F30.0
G10L20P1Z0
G90G1F400Z1
M3 S12000
G4P0.5
(autolevel)
G1 X44.533 Y137.071 Z-0.150 F150.000
G1 X44.619 Y136.948 Z-0.150 F400.000
G1 X44.640 Y136.834 Z-0.150 F400.000
G1 X44.719 Y136.035 Z-0.150 F400.000
G1 X44.774 Y135.817 Z-0.150 F400.000
G1 X44.923 Y135.617 Z-0.150 F400.000
G1 X45.092 Y135.516 Z-0.150 F400.000
G1 X45.470 Y135.456 Z-0.150 F400.000
G1 X45.168 Y135.491 Z-0.150 F400.000
G1 X44.923 Y135.617 Z-0.150 F400.000
G1 X44.792 Y135.780 Z-0.150 F400.000
G1 X44.719 Y136.035 Z-0.150 F400.000
G1 X44.640 Y136.834 Z-0.150 F400.000
G1 X44.619 Y136.948 Z-0.150 F400.000
G1 X44.533 Y137.071 Z-0.150 F400.000
G0 Z4.000
G0 Z4.000
G0 X46.758 Y137.071
G0 Z2.000
G1 X46.758 Y137.071 Z-0.150 F150.000
G1 X46.758 Y133.906 Z-0.150 F400.000
G1 X45.618 Y133.906 Z-0.150 F400.000
G1 X45.129 Y133.957 Z-0.150 F400.000
G1 X44.960 Y134.018 Z-0.150 F400.000
G1 X44.832 Y134.100 Z-0.150 F400.000
G1 X44.740 Y134.201 Z-0.150 F400.000
G1 X44.680 Y134.322 Z-0.150 F400.000
G1 X44.627 Y134.608 Z-0.150 F400.000
G1 X44.663 Y134.921 Z-0.150 F400.000
G1 X44.718 Y135.066 Z-0.150 F400.000
G1 X44.806 Y135.193 Z-0.150 F400.000
G1 X44.975 Y135.329 Z-0.150 F400.000
G1 X45.088 Y135.384 Z-0.150 F400.000
G1 X45.335 Y135.445 Z-0.150 F400.000
G1 X45.530 Y135.456 Z-0.150 F400.000
G1 X46.758 Y135.456 Z-0.150 F400.000
G1 X45.530 Y135.456 Z-0.150 F400.000
G1 X45.292 Y135.438 Z-0.150 F400.000
G1 X45.095 Y135.384 Z-0.150 F400.000
G1 X44.936 Y135.300 Z-0.150 F400.000
G1 X44.813 Y135.193 Z-0.150 F400.000
G1 X44.722 Y135.066 Z-0.150 F400.000
G1 X44.664 Y134.921 Z-0.150 F400.000
G1 X44.627 Y134.608 Z-0.150 F400.000
G1 X44.683 Y134.322 Z-0.150 F400.000
G1 X44.744 Y134.201 Z-0.150 F400.000
G1 X44.838 Y134.100 Z-0.150 F400.000
G1 X45.017 Y133.996 Z-0.150 F400.000
G1 X45.138 Y133.957 Z-0.150 F400.000
G1 X45.352 Y133.919 Z-0.150 F400.000
G1 X45.618 Y133.906 Z-0.150 F400.000
G1 X46.758 Y133.906 Z-0.150 F400.000
G1 X46.758 Y137.071 Z-0.150 F400.000
G0 Z4.000
G0 Z4.000
G0 X42.960 Y137.071
G0 Z2.000
G1 X42.960 Y137.071 Z-0.150 F150.000
G1 X42.960 Y133.906 Z-0.150 F400.000
G1 X41.963 Y133.906 Z-0.150 F400.000
G1 X41.690 Y133.923 Z-0.150 F400.000
G1 X41.471 Y133.974 Z-0.150 F400.000
G1 X41.298 Y134.053 Z-0.150 F400.000
G1 X41.167 Y134.155 Z-0.150 F400.000
G1 X41.072 Y134.275 Z-0.150 F400.000
G1 X41.011 Y134.414 Z-0.150 F400.000
G1 X40.956 Y134.719 Z-0.150 F400.000
G1 X40.992 Y135.032 Z-0.150 F400.000
G1 X41.050 Y135.180 Z-0.150 F400.000
G1 X41.142 Y135.311 Z-0.150 F400.000
G1 X41.316 Y135.453 Z-0.150 F400.000
G1 X41.432 Y135.511 Z-0.150 F400.000
G1 X41.673 Y135.575 Z-0.150 F400.000
G1 X41.881 Y135.588 Z-0.150 F400.000
G1 X42.960 Y135.588 Z-0.150 F400.000
G1 X41.881 Y135.588 Z-0.150 F400.000
G1 X41.637 Y135.569 Z-0.150 F400.000
G1 X41.436 Y135.511 Z-0.150 F400.000
G1 X41.273 Y135.422 Z-0.150 F400.000
G1 X41.148 Y135.311 Z-0.150 F400.000
G1 X41.055 Y135.180 Z-0.150 F400.000
G1 X40.995 Y135.032 Z-0.150 F400.000
G1 X40.956 Y134.719 Z-0.150 F400.000
G1 X41.011 Y134.414 Z-0.150 F400.000
G1 X41.073 Y134.275 Z-0.150 F400.000
G1 X41.169 Y134.155 Z-0.150 F400.000
G1 X41.348 Y134.028 Z-0.150 F400.000
G1 X41.473 Y133.974 Z-0.150 F400.000
G1 X41.742 Y133.917 Z-0.150 F400.000
G1 X41.963 Y133.906 Z-0.150 F400.000
G1 X42.960 Y133.906 Z-0.150 F400.000
G1 X42.960 Y137.071 Z-0.150 F400.000
G0 Z4.000
G0 Z4.000
G0 X37.247 Y135.999
G0 Z2.000
G1 X37.247 Y135.999 Z-0.150 F150.000
G1 X37.352 Y136.363 Z-0.150 F400.000
G1 X37.502 Y136.630 Z-0.150 F400.000
G1 X37.587 Y136.729 Z-0.150 F400.000
G1 X37.682 Y136.814 Z-0.150 F400.000
G1 X37.923 Y136.956 Z-0.150 F400.000
G1 X38.216 Y137.043 Z-0.150 F400.000
G1 X38.377 Y137.064 Z-0.150 F400.000
G1 X38.549 Y137.071 Z-0.150 F400.000
G1 X38.922 Y137.035 Z-0.150 F400.000
G1 X39.220 Y136.935 Z-0.150 F400.000
G1 X39.396 Y136.829 Z-0.150 F400.000
G1 X39.550 Y136.692 Z-0.150 F400.000
G1 X39.707 Y136.470 Z-0.150 F400.000
G1 X39.821 Y136.178 Z-0.150 F400.000
G1 X39.889 Y135.800 Z-0.150 F400.000
G1 X39.903 Y135.489 Z-0.150 F400.000
G1 X39.867 Y135.008 Z-0.150 F400.000
G1 X39.769 Y134.647 Z-0.150 F400.000
G1 X39.673 Y134.451 Z-0.150 F400.000
G1 X39.550 Y134.288 Z-0.150 F400.000
G1 X39.331 Y134.106 Z-0.150 F400.000
G1 X39.068 Y133.982 Z-0.150 F400.000
G1 X38.753 Y133.917 Z-0.150 F400.000
G1 X38.549 Y133.906 Z-0.150 F400.000
G1 X38.175 Y133.943 Z-0.150 F400.000
G1 X37.772 Y134.100 Z-0.150 F400.000
G1 X37.569 Y134.268 Z-0.150 F400.000
G1 X37.408 Y134.496 Z-0.150 F400.000
G1 X37.359 Y134.598 Z-0.150 F400.000
G1 X37.316 Y134.709 Z-0.150 F400.000
G1 X37.456 Y134.414 Z-0.150 F400.000
G1 X37.636 Y134.201 Z-0.150 F400.000
G1 X37.702 Y134.148 Z-0.150 F400.000
G1 X37.772 Y134.100 Z-0.150 F400.000
G1 X38.036 Y133.979 Z-0.150 F400.000
G1 X38.354 Y133.915 Z-0.150 F400.000
G1 X38.450 Y133.909 Z-0.150 F400.000
G1 X38.549 Y133.906 Z-0.150 F400.000
G1 X38.920 Y133.943 Z-0.150 F400.000
G1 X39.218 Y134.043 Z-0.150 F400.000
G1 X39.396 Y134.150 Z-0.150 F400.000
G1 X39.550 Y134.288 Z-0.150 F400.000
G1 X39.707 Y134.511 Z-0.150 F400.000
G1 X39.822 Y134.804 Z-0.150 F400.000
G1 X39.889 Y135.182 Z-0.150 F400.000
G1 X39.903 Y135.489 Z-0.150 F400.000
G1 X39.867 Y135.972 Z-0.150 F400.000
G1 X39.769 Y136.334 Z-0.150 F400.000
G1 X39.673 Y136.530 Z-0.150 F400.000
G1 X39.550 Y136.692 Z-0.150 F400.000
G1 X39.330 Y136.874 Z-0.150 F400.000
G1 X39.067 Y136.996 Z-0.150 F400.000
G1 X38.750 Y137.061 Z-0.150 F400.000
G1 X38.549 Y137.071 Z-0.150 F400.000
G1 X38.174 Y137.035 Z-0.150 F400.000
G1 X37.877 Y136.935 Z-0.150 F400.000
G1 X37.776 Y136.879 Z-0.150 F400.000
G1 X37.682 Y136.814 Z-0.150 F400.000
G1 X37.498 Y136.625 Z-0.150 F400.000
G1 X37.356 Y136.372 Z-0.150 F400.000
G1 X37.293 Y136.196 Z-0.150 F400.000
G1 X37.247 Y135.999 Z-0.150 F400.000
G0 Z4.000
G0 Z4.000
G0 Z4.000
G0 X39.479 Y123.418
G0 Z2.000
(autolevel)
M5
G4P0.5
G90G1F400Z1
G38.3Z-3F30.0
G10L20P1Z0
G90G1F400Z1
M3 S12000
G4P0.5
(autolevel)
G1 X39.479 Y123.418 Z-0.150 F150.000
G1 X39.393 Y123.540 Z-0.150 F400.000
G1 X39.372 Y123.655 Z-0.150 F400.000
G1 X39.293 Y124.453 Z-0.150 F400.000
G1 X39.238 Y124.672 Z-0.150 F400.000
G1 X39.089 Y124.871 Z-0.150 F400.000
G1 X38.920 Y124.972 Z-0.150 F400.000
G1 X38.542 Y125.032 Z-0.150 F400.000
G1 X38.844 Y124.997 Z-0.150 F400.000
G1 X39.089 Y124.871 Z-0.150 F400.000
G1 X39.220 Y124.708 Z-0.150 F400.000
G1 X39.293 Y124.453 Z-0.150 F400.000
G1 X39.372 Y123.655 Z-0.150 F400.000
G1 X39.393 Y123.540 Z-0.150 F400.000
G1 X39.479 Y123.418 Z-0.150 F400.000
G0 Z4.000
G0 Z4.000
G0 X37.254 Y123.418
G0 Z2.000
G1 X37.254 Y123.418 Z-0.150 F150.000
G1 X37.254 Y126.582 Z-0.150 F400.000
G1 X38.394 Y126.582 Z-0.150 F400.000
G1 X38.883 Y126.531 Z-0.150 F400.000
G1 X39.052 Y126.471 Z-0.150 F400.000
G1 X39.179 Y126.389 Z-0.150 F400.000
G1 X39.272 Y126.287 Z-0.150 F400.000
G1 X39.332 Y126.167 Z-0.150 F400.000
G1 X39.384 Y125.880 Z-0.150 F400.000
G1 X39.349 Y125.568 Z-0.150 F400.000
G1 X39.294 Y125.423 Z-0.150 F400.000
G1 X39.206 Y125.295 Z-0.150 F400.000
G1 X39.037 Y125.160 Z-0.150 F400.000
G1 X38.924 Y125.104 Z-0.150 F400.000
G1 X38.677 Y125.044 Z-0.150 F400.000
G1 X38.482 Y125.032 Z-0.150 F400.000
G1 X37.254 Y125.032 Z-0.150 F400.000
G1 X38.482 Y125.032 Z-0.150 F400.000
G1 X38.720 Y125.050 Z-0.150 F400.000
G1 X38.917 Y125.104 Z-0.150 F400.000
G1 X39.076 Y125.189 Z-0.150 F400.000
G1 X39.199 Y125.295 Z-0.150 F400.000
G1 X39.290 Y125.423 Z-0.150 F400.000
G1 X39.348 Y125.568 Z-0.150 F400.000
G1 X39.384 Y125.880 Z-0.150 F400.000
G1 X39.329 Y126.167 Z-0.150 F400.000
G1 X39.268 Y126.287 Z-0.150 F400.000
G1 X39.174 Y126.389 Z-0.150 F400.000
G1 X38.995 Y126.492 Z-0.150 F400.000
G1 X38.874 Y126.531 Z-0.150 F400.000
G1 X38.660 Y126.570 Z-0.150 F400.000
G1 X38.394 Y126.582 Z-0.150 F400.000
G1 X37.254 Y126.582 Z-0.150 F400.000
G1 X37.254 Y123.418 Z-0.150 F400.000
G0 Z4.000
G0 Z4.000
G0 X41.052 Y123.418
G0 Z2.000
G1 X41.052 Y123.418 Z-0.150 F150.000
G1 X41.052 Y126.582 Z-0.150 F400.000
G1 X42.049 Y126.582 Z-0.150 F400.000
G1 X42.322 Y126.565 Z-0.150 F400.000
G1 X42.541 Y126.515 Z-0.150 F400.000
G1 X42.713 Y126.435 Z-0.150 F400.000
G1 X42.844 Y126.334 Z-0.150 F400.000
G1 X42.939 Y126.213 Z-0.150 F400.000
G1 X43.001 Y126.075 Z-0.150 F400.000
G1 X43.056 Y125.770 Z-0.150 F400.000
G1 X43.020 Y125.456 Z-0.150 F400.000
G1 X42.962 Y125.309 Z-0.150 F400.000
G1 X42.870 Y125.178 Z-0.150 F400.000
G1 X42.695 Y125.036 Z-0.150 F400.000
G1 X42.580 Y124.977 Z-0.150 F400.000
G1 X42.338 Y124.914 Z-0.150 F400.000
G1 X42.131 Y124.901 Z-0.150 F400.000
G1 X41.052 Y124.901 Z-0.150 F400.000
G1 X42.131 Y124.901 Z-0.150 F400.000
G1 X42.375 Y124.920 Z-0.150 F400.000
G1 X42.576 Y124.977 Z-0.150 F400.000
G1 X42.738 Y125.066 Z-0.150 F400.000
G1 X42.864 Y125.178 Z-0.150 F400.000
G1 X42.957 Y125.309 Z-0.150 F400.000
G1 X43.017 Y125.456 Z-0.150 F400.000
G1 X43.056 Y125.770 Z-0.150 F400.000
G1 X43.001 Y126.075 Z-0.150 F400.000
G1 X42.939 Y126.213 Z-0.150 F400.000
G1 X42.843 Y126.334 Z-0.150 F400.000
G1 X42.664 Y126.461 Z-0.150 F400.000
G1 X42.539 Y126.515 Z-0.150 F400.000
G1 X42.270 Y126.572 Z-0.150 F400.000
G1 X42.049 Y126.582 Z-0.150 F400.000
G1 X41.052 Y126.582 Z-0.150 F400.000
G1 X41.052 Y123.418 Z-0.150 F400.000
G0 Z4.000
G0 Z4.000
G0 X46.765 Y124.490
G0 Z2.000
G1 X46.765 Y124.490 Z-0.150 F150.000
G1 X46.660 Y124.125 Z-0.150 F400.000
G1 X46.510 Y123.858 Z-0.150 F400.000
G1 X46.425 Y123.760 Z-0.150 F400.000
G1 X46.330 Y123.675 Z-0.150 F400.000
G1 X46.089 Y123.533 Z-0.150 F400.000
G1 X45.796 Y123.446 Z-0.150 F400.000
G1 X45.635 Y123.425 Z-0.150 F400.000
G1 X45.462 Y123.418 Z-0.150 F400.000
G1 X45.090 Y123.454 Z-0.150 F400.000
G1 X44.792 Y123.554 Z-0.150 F400.000
G1 X44.615 Y123.660 Z-0.150 F400.000
G1 X44.462 Y123.796 Z-0.150 F400.000
G1 X44.305 Y124.019 Z-0.150 F400.000
G1 X44.191 Y124.310 Z-0.150 F400.000
G1 X44.123 Y124.689 Z-0.150 F400.000
G1 X44.109 Y125.000 Z-0.150 F400.000
G1 X44.145 Y125.481 Z-0.150 F400.000
G1 X44.242 Y125.842 Z-0.150 F400.000
G1 X44.339 Y126.038 Z-0.150 F400.000
G1 X44.462 Y126.201 Z-0.150 F400.000
G1 X44.681 Y126.383 Z-0.150 F400.000
G1 X44.943 Y126.506 Z-0.150 F400.000
G1 X45.259 Y126.572 Z-0.150 F400.000
G1 X45.462 Y126.582 Z-0.150 F400.000
G1 X45.837 Y126.546 Z-0.150 F400.000
G1 X46.239 Y126.389 Z-0.150 F400.000
G1 X46.443 Y126.221 Z-0.150 F400.000
G1 X46.603 Y125.993 Z-0.150 F400.000
G1 X46.653 Y125.891 Z-0.150 F400.000
G1 X46.696 Y125.780 Z-0.150 F400.000
G1 X46.555 Y126.074 Z-0.150 F400.000
G1 X46.376 Y126.287 Z-0.150 F400.000
G1 X46.310 Y126.341 Z-0.150 F400.000
G1 X46.239 Y126.389 Z-0.150 F400.000
G1 X45.976 Y126.509 Z-0.150 F400.000
G1 X45.658 Y126.573 Z-0.150 F400.000
G1 X45.562 Y126.580 Z-0.150 F400.000
G1 X45.462 Y126.582 Z-0.150 F400.000
G1 X45.091 Y126.546 Z-0.150 F400.000
G1 X44.794 Y126.446 Z-0.150 F400.000
G1 X44.616 Y126.339 Z-0.150 F400.000
G1 X44.462 Y126.201 Z-0.150 F400.000
G1 X44.305 Y125.977 Z-0.150 F400.000
G1 X44.190 Y125.685 Z-0.150 F400.000
G1 X44.123 Y125.307 Z-0.150 F400.000
G1 X44.109 Y125.000 Z-0.150 F400.000
G1 X44.145 Y124.517 Z-0.150 F400.000
G1 X44.242 Y124.155 Z-0.150 F400.000
G1 X44.339 Y123.959 Z-0.150 F400.000
G1 X44.462 Y123.796 Z-0.150 F400.000
G1 X44.682 Y123.615 Z-0.150 F400.000
G1 X44.945 Y123.493 Z-0.150 F400.000
G1 X45.261 Y123.427 Z-0.150 F400.000
G1 X45.462 Y123.418 Z-0.150 F400.000
G1 X45.838 Y123.454 Z-0.150 F400.000
G1 X46.135 Y123.554 Z-0.150 F400.000
G1 X46.236 Y123.609 Z-0.150 F400.000
G1 X46.330 Y123.675 Z-0.150 F400.000
G1 X46.514 Y123.864 Z-0.150 F400.000
G1 X46.656 Y124.117 Z-0.150 F400.000
G1 X46.718 Y124.293 Z-0.150 F400.000
G1 X46.765 Y124.490 Z-0.150 F400.000
G0 Z4.000
G0 Z4.000
G0 Z4.000
G0 X44.533 Y112.071
G0 Z2.000
(autolevel)
M5
G4P0.5
G90G1F400Z1
G38.3Z-3F30.0
G10L20P1Z0
G90G1F400Z1
M3 S12000
G4P0.5
(autolevel)
G1 X44.533 Y112.071 Z-0.150 F150.000
G1 X44.619 Y111.948 Z-0.150 F400.000
G1 X44.640 Y111.834 Z-0.150 F400.000
G1 X44.719 Y111.035 Z-0.150 F400.000
G1 X44.774 Y110.817 Z-0.150 F400.000
G1 X44.923 Y110.617 Z-0.150 F400.000
G1 X45.092 Y110.516 Z-0.150 F400.000
G1 X45.470 Y110.456 Z-0.150 F400.000
G1 X45.168 Y110.491 Z-0.150 F400.000
G1 X44.923 Y110.617 Z-0.150 F400.000
G1 X44.792 Y110.780 Z-0.150 F400.000
G1 X44.719 Y111.035 Z-0.150 F400.000
G1 X44.640 Y111.834 Z-0.150 F400.000
G1 X44.619 Y111.948 Z-0.150 F400.000
G1 X44.533 Y112.071 Z-0.150 F400.000
G0 Z4.000
G0 Z4.000
G0 X46.758 Y112.071
G0 Z2.000
G1 X46.758 Y112.071 Z-0.150 F150.000
G1 X46.758 Y108.906 Z-0.150 F400.000
G1 X45.618 Y108.906 Z-0.150 F400.000
G1 X45.129 Y108.957 Z-0.150 F400.000
G1 X44.960 Y109.018 Z-0.150 F400.000
G1 X44.832 Y109.100 Z-0.150 F400.000
G1 X44.740 Y109.201 Z-0.150 F400.000
G1 X44.680 Y109.322 Z-0.150 F400.000
G1 X44.627 Y109.608 Z-0.150 F400.000
G1 X44.663 Y109.921 Z-0.150 F400.000
G1 X44.718 Y110.066 Z-0.150 F400.000
G1 X44.806 Y110.193 Z-0.150 F400.000
G1 X44.975 Y110.329 Z-0.150 F400.000
G1 X45.088 Y110.384 Z-0.150 F400.000
G1 X45.335 Y110.445 Z-0.150 F400.000
G1 X45.530 Y110.456 Z-0.150 F400.000
G1 X46.758 Y110.456 Z-0.150 F400.000
G1 X45.530 Y110.456 Z-0.150 F400.000
G1 X45.292 Y110.438 Z-0.150 F400.000
G1 X45.095 Y110.384 Z-0.150 F400.000
G1 X44.936 Y110.300 Z-0.150 F400.000
G1 X44.813 Y110.193 Z-0.150 F400.000
G1 X44.722 Y110.066 Z-0.150 F400.000
G1 X44.664 Y109.921 Z-0.150 F400.000
G1 X44.627 Y109.608 Z-0.150 F400.000
G1 X44.683 Y109.322 Z-0.150 F400.000
G1 X44.744 Y109.201 Z-0.150 F400.000
G1 X44.838 Y109.100 Z-0.150 F400.000
G1 X45.017 Y108.996 Z-0.150 F400.000
G1 X45.138 Y108.957 Z-0.150 F400.000
G1 X45.352 Y108.919 Z-0.150 F400.000
G1 X45.618 Y108.906 Z-0.150 F400.000
G1 X46.758 Y108.906 Z-0.150 F400.000
G1 X46.758 Y112.071 Z-0.150 F400.000
G0 Z4.000
G0 Z4.000
G0 X42.960 Y112.071
G0 Z2.000
G1 X42.960 Y112.071 Z-0.150 F150.000
G1 X42.960 Y108.906 Z-0.150 F400.000
G1 X41.963 Y108.906 Z-0.150 F400.000
G1 X41.690 Y108.923 Z-0.150 F400.000
G1 X41.471 Y108.974 Z-0.150 F400.000
G1 X41.298 Y109.053 Z-0.150 F400.000
G1 X41.167 Y109.155 Z-0.150 F400.000
G1 X41.072 Y109.275 Z-0.150 F400.000
G1 X41.011 Y109.414 Z-0.150 F400.000
G1 X40.956 Y109.719 Z-0.150 F400.000
G1 X40.992 Y110.032 Z-0.150 F400.000
G1 X41.050 Y110.180 Z-0.150 F400.000
G1 X41.142 Y110.311 Z-0.150 F400.000
G1 X41.316 Y110.453 Z-0.150 F400.000
G1 X41.432 Y110.511 Z-0.150 F400.000
G1 X41.673 Y110.575 Z-0.150 F400.000
G1 X41.881 Y110.588 Z-0.150 F400.000
G1 X42.960 Y110.588 Z-0.150 F400.000
G1 X41.881 Y110.588 Z-0.150 F400.000
G1 X41.637 Y110.569 Z-0.150 F400.000
G1 X41.436 Y110.511 Z-0.150 F400.000
G1 X41.273 Y110.422 Z-0.150 F400.000
G1 X41.148 Y110.311 Z-0.150 F400.000
G1 X41.055 Y110.180 Z-0.150 F400.000
G1 X40.995 Y110.032 Z-0.150 F400.000
G1 X40.956 Y109.719 Z-0.150 F400.000
G1 X41.011 Y109.414 Z-0.150 F400.000
G1 X41.073 Y109.275 Z-0.150 F400.000
G1 X41.169 Y109.155 Z-0.150 F400.000
G1 X41.348 Y109.028 Z-0.150 F400.000
G1 X41.473 Y108.974 Z-0.150 F400.000
G1 X41.742 Y108.917 Z-0.150 F400.000
G1 X41.963 Y108.906 Z-0.150 F400.000
G1 X42.960 Y108.906 Z-0.150 F400.000
G1 X42.960 Y112.071 Z-0.150 F400.000
G0 Z4.000
G0 Z4.000
G0 X37.247 Y110.999
G0 Z2.000
G1 X37.247 Y110.999 Z-0.150 F150.000
G1 X37.352 Y111.363 Z-0.150 F400.000
G1 X37.502 Y111.630 Z-0.150 F400.000
G1 X37.587 Y111.729 Z-0.150 F400.000
G1 X37.682 Y111.814 Z-0.150 F400.000
G1 X37.923 Y111.956 Z-0.150 F400.000
G1 X38.216 Y112.043 Z-0.150 F400.000
G1 X38.377 Y112.064 Z-0.150 F400.000
G1 X38.549 Y112.071 Z-0.150 F400.000
G1 X38.922 Y112.035 Z-0.150 F400.000
G1 X39.220 Y111.935 Z-0.150 F400.000
G1 X39.396 Y111.829 Z-0.150 F400.000
G1 X39.550 Y111.692 Z-0.150 F400.000
G1 X39.707 Y111.470 Z-0.150 F400.000
G1 X39.821 Y111.178 Z-0.150 F400.000
G1 X39.889 Y110.800 Z-0.150 F400.000
G1 X39.903 Y110.489 Z-0.150 F400.000
G1 X39.867 Y110.008 Z-0.150 F400.000
G1 X39.769 Y109.647 Z-0.150 F400.000
G1 X39.673 Y109.451 Z-0.150 F400.000
G1 X39.550 Y109.288 Z-0.150 F400.000
G1 X39.331 Y109.106 Z-0.150 F400.000
G1 X39.068 Y108.982 Z-0.150 F400.000
G1 X38.753 Y108.917 Z-0.150 F400.000
G1 X38.549 Y108.906 Z-0.150 F400.000
G1 X38.175 Y108.943 Z-0.150 F400.000
G1 X37.772 Y109.100 Z-0.150 F400.000
G1 X37.569 Y109.268 Z-0.150 F400.000
G1 X37.408 Y109.496 Z-0.150 F400.000
G1 X37.359 Y109.598 Z-0.150 F400.000
G1 X37.316 Y109.709 Z-0.150 F400.000
G1 X37.456 Y109.414 Z-0.150 F400.000
G1 X37.636 Y109.201 Z-0.150 F400.000
G1 X37.702 Y109.148 Z-0.150 F400.000
G1 X37.772 Y109.100 Z-0.150 F400.000
G1 X38.036 Y108.979 Z-0.150 F400.000
G1 X38.354 Y108.915 Z-0.150 F400.000
G1 X38.450 Y108.909 Z-0.150 F400.000
G1 X38.549 Y108.906 Z-0.150 F400.000
G1 X38.920 Y108.943 Z-0.150 F400.000
G1 X39.218 Y109.043 Z-0.150 F400.000
G1 X39.396 Y109.150 Z-0.150 F400.000
G1 X39.550 Y109.288 Z-0.150 F400.000
G1 X39.707 Y109.511 Z-0.150 F400.000
G1 X39.822 Y109.804 Z-0.150 F400.000
G1 X39.889 Y110.182 Z-0.150 F400.000
G1 X39.903 Y110.489 Z-0.150 F400.000
G1 X39.867 Y110.972 Z-0.150 F400.000
G1 X39.769 Y111.334 Z-0.150 F400.000
G1 X39.673 Y111.530 Z-0.150 F400.000
G1 X39.550 Y111.692 Z-0.150 F400.000
G1 X39.330 Y111.874 Z-0.150 F400.000
G1 X39.067 Y111.996 Z-0.150 F400.000
G1 X38.750 Y112.061 Z-0.150 F400.000
G1 X38.549 Y112.071 Z-0.150 F400.000
G1 X38.174 Y112.035 Z-0.150 F400.000
G1 X37.877 Y111.935 Z-0.150 F400.000
G1 X37.776 Y111.879 Z-0.150 F400.000
G1 X37.682 Y111.814 Z-0.150 F400.000
G1 X37.498 Y111.625 Z-0.150 F400.000
G1 X37.356 Y111.372 Z-0.150 F400.000
G1 X37.293 Y111.196 Z-0.150 F400.000
G1 X37.247 Y110.999 Z-0.150 F400.000
G0 Z4.000
G0 Z4.000
G0 Z4.000
G0 X39.479 Y98.418
G0 Z2.000
(autolevel)
M5
G4P0.5
G90G1F400Z1
G38.3Z-3F30.0
G10L20P1Z0
G90G1F400Z1
M3 S12000
G4P0.5
(autolevel)
G1 X39.479 Y98.418 Z-0.150 F150.000
G1 X39.393 Y98.540 Z-0.150 F400.000
G1 X39.372 Y98.655 Z-0.150 F400.000
G1 X39.293 Y99.453 Z-0.150 F400.000
G1 X39.238 Y99.672 Z-0.150 F400.000
G1 X39.089 Y99.871 Z-0.150 F400.000
G1 X38.920 Y99.972 Z-0.150 F400.000
G1 X38.542 Y100.032 Z-0.150 F400.000
G1 X38.844 Y99.997 Z-0.150 F400.000
G1 X39.089 Y99.871 Z-0.150 F400.000
G1 X39.220 Y99.708 Z-0.150 F400.000
G1 X39.293 Y99.453 Z-0.150 F400.000
G1 X39.372 Y98.655 Z-0.150 F400.000
G1 X39.393 Y98.540 Z-0.150 F400.000
G1 X39.479 Y98.418 Z-0.150 F400.000
G0 Z4.000
G0 Z4.000
G0 X37.254 Y98.418
G0 Z2.000
G1 X37.254 Y98.418 Z-0.150 F150.000
G1 X37.254 Y101.582 Z-0.150 F400.000
G1 X38.394 Y101.582 Z-0.150 F400.000
G1 X38.883 Y101.531 Z-0.150 F400.000
G1 X39.052 Y101.471 Z-0.150 F400.000
G1 X39.179 Y101.389 Z-0.150 F400.000
G1 X39.272 Y101.287 Z-0.150 F400.000
G1 X39.332 Y101.167 Z-0.150 F400.000
G1 X39.384 Y100.880 Z-0.150 F400.000
G1 X39.349 Y100.568 Z-0.150 F400.000
G1 X39.294 Y100.423 Z-0.150 F400.000
G1 X39.206 Y100.295 Z-0.150 F400.000
G1 X39.037 Y100.160 Z-0.150 F400.000
G1 X38.924 Y100.104 Z-0.150 F400.000
G1 X38.677 Y100.044 Z-0.150 F400.000
G1 X38.482 Y100.032 Z-0.150 F400.000
G1 X37.254 Y100.032 Z-0.150 F400.000
G1 X38.482 Y100.032 Z-0.150 F400.000
G1 X38.720 Y100.050 Z-0.150 F400.000
G1 X38.917 Y100.104 Z-0.150 F400.000
G1 X39.076 Y100.189 Z-0.150 F400.000
G1 X39.199 Y100.295 Z-0.150 F400.000
G1 X39.290 Y100.423 Z-0.150 F400.000
G1 X39.348 Y100.568 Z-0.150 F400.000
G1 X39.384 Y100.880 Z-0.150 F400.000
G1 X39.329 Y101.167 Z-0.150 F400.000
G1 X39.268 Y101.287 Z-0.150 F400.000
G1 X39.174 Y101.389 Z-0.150 F400.000
G1 X38.995 Y101.492 Z-0.150 F400.000
G1 X38.874 Y101.531 Z-0.150 F400.000
G1 X38.660 Y101.570 Z-0.150 F400.000
G1 X38.394 Y101.582 Z-0.150 F400.000
G1 X37.254 Y101.582 Z-0.150 F400.000
G1 X37.254 Y98.418 Z-0.150 F400.000
G0 Z4.000
G0 Z4.000
G0 X41.052 Y98.418
G0 Z2.000
G1 X41.052 Y98.418 Z-0.150 F150.000
G1 X41.052 Y101.582 Z-0.150 F400.000
G1 X42.049 Y101.582 Z-0.150 F400.000
G1 X42.322 Y101.565 Z-0.150 F400.000
G1 X42.541 Y101.515 Z-0.150 F400.000
G1 X42.713 Y101.435 Z-0.150 F400.000
G1 X42.844 Y101.334 Z-0.150 F400.000
G1 X42.939 Y101.213 Z-0.150 F400.000
G1 X43.001 Y101.075 Z-0.150 F400.000
G1 X43.056 Y100.770 Z-0.150 F400.000
G1 X43.020 Y100.456 Z-0.150 F400.000
G1 X42.962 Y100.309 Z-0.150 F400.000
G1 X42.870 Y100.178 Z-0.150 F400.000
G1 X42.695 Y100.036 Z-0.150 F400.000
G1 X42.580 Y99.977 Z-0.150 F400.000
G1 X42.338 Y99.914 Z-0.150 F400.000
G1 X42.131 Y99.901 Z-0.150 F400.000
G1 X41.052 Y99.901 Z-0.150 F400.000
G1 X42.131 Y99.901 Z-0.150 F400.000
G1 X42.375 Y99.920 Z-0.150 F400.000
G1 X42.576 Y99.977 Z-0.150 F400.000
G1 X42.738 Y100.066 Z-0.150 F400.000
G1 X42.864 Y100.178 Z-0.150 F400.000
G1 X42.957 Y100.309 Z-0.150 F400.000
G1 X43.017 Y100.456 Z-0.150 F400.000
G1 X43.056 Y100.770 Z-0.150 F400.000
G1 X43.001 Y101.075 Z-0.150 F400.000
G1 X42.939 Y101.213 Z-0.150 F400.000
G1 X42.843 Y101.334 Z-0.150 F400.000
G1 X42.664 Y101.461 Z-0.150 F400.000
G1 X42.539 Y101.515 Z-0.150 F400.000
G1 X42.270 Y101.572 Z-0.150 F400.000
G1 X42.049 Y101.582 Z-0.150 F400.000
G1 X41.052 Y101.582 Z-0.150 F400.000
G1 X41.052 Y98.418 Z-0.150 F400.000
G0 Z4.000
G0 Z4.000
G0 X46.765 Y99.490
G0 Z2.000
G1 X46.765 Y99.490 Z-0.150 F150.000
G1 X46.660 Y99.125 Z-0.150 F400.000
G1 X46.510 Y98.858 Z-0.150 F400.000
G1 X46.425 Y98.760 Z-0.150 F400.000
G1 X46.330 Y98.675 Z-0.150 F400.000
G1 X46.089 Y98.533 Z-0.150 F400.000
G1 X45.796 Y98.446 Z-0.150 F400.000
G1 X45.635 Y98.425 Z-0.150 F400.000
G1 X45.462 Y98.418 Z-0.150 F400.000
G1 X45.090 Y98.454 Z-0.150 F400.000
G1 X44.792 Y98.554 Z-0.150 F400.000
G1 X44.615 Y98.660 Z-0.150 F400.000
G1 X44.462 Y98.796 Z-0.150 F400.000
G1 X44.305 Y99.019 Z-0.150 F400.000
G1 X44.191 Y99.310 Z-0.150 F400.000
G1 X44.123 Y99.689 Z-0.150 F400.000
G1 X44.109 Y100.000 Z-0.150 F400.000
G1 X44.145 Y100.481 Z-0.150 F400.000
G1 X44.242 Y100.842 Z-0.150 F400.000
G1 X44.339 Y101.038 Z-0.150 F400.000
G1 X44.462 Y101.201 Z-0.150 F400.000
G1 X44.681 Y101.383 Z-0.150 F400.000
G1 X44.943 Y101.506 Z-0.150 F400.000
G1 X45.259 Y101.572 Z-0.150 F400.000
G1 X45.462 Y101.582 Z-0.150 F400.000
G1 X45.837 Y101.546 Z-0.150 F400.000
G1 X46.239 Y101.389 Z-0.150 F400.000
G1 X46.443 Y101.221 Z-0.150 F400.000
G1 X46.603 Y100.993 Z-0.150 F400.000
G1 X46.653 Y100.891 Z-0.150 F400.000
G1 X46.696 Y100.780 Z-0.150 F400.000
G1 X46.555 Y101.074 Z-0.150 F400.000
G1 X46.376 Y101.287 Z-0.150 F400.000
G1 X46.310 Y101.341 Z-0.150 F400.000
G1 X46.239 Y101.389 Z-0.150 F400.000
G1 X45.976 Y101.509 Z-0.150 F400.000
G1 X45.658 Y101.573 Z-0.150 F400.000
G1 X45.562 Y101.580 Z-0.150 F400.000
G1 X45.462 Y101.582 Z-0.150 F400.000
G1 X45.091 Y101.546 Z-0.150 F400.000
G1 X44.794 Y101.446 Z-0.150 F400.000
G1 X44.616 Y101.339 Z-0.150 F400.000
G1 X44.462 Y101.201 Z-0.150 F400.000
G1 X44.305 Y100.977 Z-0.150 F400.000
G1 X44.190 Y100.685 Z-0.150 F400.000
G1 X44.123 Y100.307 Z-0.150 F400.000
G1 X44.109 Y100.000 Z-0.150 F400.000
G1 X44.145 Y99.517 Z-0.150 F400.000
G1 X44.242 Y99.155 Z-0.150 F400.000
G1 X44.339 Y98.959 Z-0.150 F400.000
G1 X44.462 Y98.796 Z-0.150 F400.000
G1 X44.682 Y98.615 Z-0.150 F400.000
G1 X44.945 Y98.493 Z-0.150 F400.000
G1 X45.261 Y98.427 Z-0.150 F400.000
G1 X45.462 Y98.418 Z-0.150 F400.000
G1 X45.838 Y98.454 Z-0.150 F400.000
G1 X46.135 Y98.554 Z-0.150 F400.000
G1 X46.236 Y98.609 Z-0.150 F400.000
G1 X46.330 Y98.675 Z-0.150 F400.000
G1 X46.514 Y98.864 Z-0.150 F400.000
G1 X46.656 Y99.117 Z-0.150 F400.000
G1 X46.718 Y99.293 Z-0.150 F400.000
G1 X46.765 Y99.490 Z-0.150 F400.000
G0 Z4.000
G0 Z4.000
G0 Z4.000
G0 X44.533 Y87.071
G0 Z2.000
(autolevel)
M5
G4P0.5
G90G1F400Z1
G38.3Z-3F30.0
G10L20P1Z0
G90G1F400Z1
M3 S12000
G4P0.5
(autolevel)
G1 X44.533 Y87.071 Z-0.150 F150.000
G1 X44.619 Y86.948 Z-0.150 F400.000
G1 X44.640 Y86.834 Z-0.150 F400.000
G1 X44.719 Y86.035 Z-0.150 F400.000
G1 X44.774 Y85.817 Z-0.150 F400.000
G1 X44.923 Y85.617 Z-0.150 F400.000
G1 X45.092 Y85.516 Z-0.150 F400.000
G1 X45.470 Y85.456 Z-0.150 F400.000
G1 X45.168 Y85.491 Z-0.150 F400.000
G1 X44.923 Y85.617 Z-0.150 F400.000
G1 X44.792 Y85.780 Z-0.150 F400.000
G1 X44.719 Y86.035 Z-0.150 F400.000
G1 X44.640 Y86.834 Z-0.150 F400.000
G1 X44.619 Y86.948 Z-0.150 F400.000
G1 X44.533 Y87.071 Z-0.150 F400.000
G0 Z4.000
G0 Z4.000
G0 X46.758 Y87.071
G0 Z2.000
G1 X46.758 Y87.071 Z-0.150 F150.000
G1 X46.758 Y83.906 Z-0.150 F400.000
G1 X45.618 Y83.906 Z-0.150 F400.000
G1 X45.129 Y83.957 Z-0.150 F400.000
G1 X44.960 Y84.018 Z-0.150 F400.000
G1 X44.832 Y84.100 Z-0.150 F400.000
G1 X44.740 Y84.201 Z-0.150 F400.000
G1 X44.680 Y84.322 Z-0.150 F400.000
G1 X44.627 Y84.608 Z-0.150 F400.000
G1 X44.663 Y84.921 Z-0.150 F400.000
G1 X44.718 Y85.066 Z-0.150 F400.000
G1 X44.806 Y85.193 Z-0.150 F400.000
G1 X44.975 Y85.329 Z-0.150 F400.000
G1 X45.088 Y85.384 Z-0.150 F400.000
G1 X45.335 Y85.445 Z-0.150 F400.000
G1 X45.530 Y85.456 Z-0.150 F400.000
G1 X46.758 Y85.456 Z-0.150 F400.000
G1 X45.530 Y85.456 Z-0.150 F400.000
G1 X45.292 Y85.438 Z-0.150 F400.000
G1 X45.095 Y85.384 Z-0.150 F400.000
G1 X44.936 Y85.300 Z-0.150 F400.000
G1 X44.813 Y85.193 Z-0.150 F400.000
G1 X44.722 Y85.066 Z-0.150 F400.000
G1 X44.664 Y84.921 Z-0.150 F400.000
G1 X44.627 Y84.608 Z-0.150 F400.000
G1 X44.683 Y84.322 Z-0.150 F400.000
G1 X44.744 Y84.201 Z-0.150 F400.000
G1 X44.838 Y84.100 Z-0.150 F400.000
G1 X45.017 Y83.996 Z-0.150 F400.000
G1 X45.138 Y83.957 Z-0.150 F400.000
G1 X45.352 Y83.919 Z-0.150 F400.000
G1 X45.618 Y83.906 Z-0.150 F400.000
G1 X46.758 Y83.906 Z-0.150 F400.000
G1 X46.758 Y87.071 Z-0.150 F400.000
G0 Z4.000
G0 Z4.000
G0 X42.960 Y87.071
G0 Z2.000
G1 X42.960 Y87.071 Z-0.150 F150.000
G1 X42.960 Y83.906 Z-0.150 F400.000
G1 X41.963 Y83.906 Z-0.150 F400.000
G1 X41.690 Y83.923 Z-0.150 F400.000
G1 X41.471 Y83.974 Z-0.150 F400.000
G1 X41.298 Y84.053 Z-0.150 F400.000
G1 X41.167 Y84.155 Z-0.150 F400.000
G1 X41.072 Y84.275 Z-0.150 F400.000
G1 X41.011 Y84.414 Z-0.150 F400.000
G1 X40.956 Y84.719 Z-0.150 F400.000
G1 X40.992 Y85.032 Z-0.150 F400.000
G1 X41.050 Y85.180 Z-0.150 F400.000
G1 X41.142 Y85.311 Z-0.150 F400.000
G1 X41.316 Y85.453 Z-0.150 F400.000
G1 X41.432 Y85.511 Z-0.150 F400.000
G1 X41.673 Y85.575 Z-0.150 F400.000
G1 X41.881 Y85.588 Z-0.150 F400.000
G1 X42.960 Y85.588 Z-0.150 F400.000
G1 X41.881 Y85.588 Z-0.150 F400.000
G1 X41.637 Y85.569 Z-0.150 F400.000
G1 X41.436 Y85.511 Z-0.150 F400.000
G1 X41.273 Y85.422 Z-0.150 F400.000
G1 X41.148 Y85.311 Z-0.150 F400.000
G1 X41.055 Y85.180 Z-0.150 F400.000
G1 X40.995 Y85.032 Z-0.150 F400.000
G1 X40.956 Y84.719 Z-0.150 F400.000
G1 X41.011 Y84.414 Z-0.150 F400.000
G1 X41.073 Y84.275 Z-0.150 F400.000
G1 X41.169 Y84.155 Z-0.150 F400.000
G1 X41.348 Y84.028 Z-0.150 F400.000
G1 X41.473 Y83.974 Z-0.150 F400.000
G1 X41.742 Y83.917 Z-0.150 F400.000
G1 X41.963 Y83.906 Z-0.150 F400.000
G1 X42.960 Y83.906 Z-0.150 F400.000
G1 X42.960 Y87.071 Z-0.150 F400.000
G0 Z4.000
G0 Z4.000
G0 X37.247 Y85.999
G0 Z2.000
G1 X37.247 Y85.999 Z-0.150 F150.000
G1 X37.352 Y86.363 Z-0.150 F400.000
G1 X37.502 Y86.630 Z-0.150 F400.000
G1 X37.587 Y86.729 Z-0.150 F400.000
G1 X37.682 Y86.814 Z-0.150 F400.000
G1 X37.923 Y86.956 Z-0.150 F400.000
G1 X38.216 Y87.043 Z-0.150 F400.000
G1 X38.377 Y87.064 Z-0.150 F400.000
G1 X38.549 Y87.071 Z-0.150 F400.000
G1 X38.922 Y87.035 Z-0.150 F400.000
G1 X39.220 Y86.935 Z-0.150 F400.000
G1 X39.396 Y86.829 Z-0.150 F400.000
G1 X39.550 Y86.692 Z-0.150 F400.000
G1 X39.707 Y86.470 Z-0.150 F400.000
G1 X39.821 Y86.178 Z-0.150 F400.000
G1 X39.889 Y85.800 Z-0.150 F400.000
G1 X39.903 Y85.489 Z-0.150 F400.000
G1 X39.867 Y85.008 Z-0.150 F400.000
G1 X39.769 Y84.647 Z-0.150 F400.000
G1 X39.673 Y84.451 Z-0.150 F400.000
G1 X39.550 Y84.288 Z-0.150 F400.000
G1 X39.331 Y84.106 Z-0.150 F400.000
G1 X39.068 Y83.982 Z-0.150 F400.000
G1 X38.753 Y83.917 Z-0.150 F400.000
G1 X38.549 Y83.906 Z-0.150 F400.000
G1 X38.175 Y83.943 Z-0.150 F400.000
G1 X37.772 Y84.100 Z-0.150 F400.000
G1 X37.569 Y84.268 Z-0.150 F400.000
G1 X37.408 Y84.496 Z-0.150 F400.000
G1 X37.359 Y84.598 Z-0.150 F400.000
G1 X37.316 Y84.709 Z-0.150 F400.000
G1 X37.456 Y84.414 Z-0.150 F400.000
G1 X37.636 Y84.201 Z-0.150 F400.000
G1 X37.702 Y84.148 Z-0.150 F400.000
G1 X37.772 Y84.100 Z-0.150 F400.000
G1 X38.036 Y83.979 Z-0.150 F400.000
G1 X38.354 Y83.915 Z-0.150 F400.000
G1 X38.450 Y83.909 Z-0.150 F400.000
G1 X38.549 Y83.906 Z-0.150 F400.000
G1 X38.920 Y83.943 Z-0.150 F400.000
G1 X39.218 Y84.043 Z-0.150 F400.000
G1 X39.396 Y84.150 Z-0.150 F400.000
G1 X39.550 Y84.288 Z-0.150 F400.000
G1 X39.707 Y84.511 Z-0.150 F400.000
G1 X39.822 Y84.804 Z-0.150 F400.000
G1 X39.889 Y85.182 Z-0.150 F400.000
G1 X39.903 Y85.489 Z-0.150 F400.000
G1 X39.867 Y85.972 Z-0.150 F400.000
G1 X39.769 Y86.334 Z-0.150 F400.000
G1 X39.673 Y86.530 Z-0.150 F400.000
G1 X39.550 Y86.692 Z-0.150 F400.000
G1 X39.330 Y86.874 Z-0.150 F400.000
G1 X39.067 Y86.996 Z-0.150 F400.000
G1 X38.750 Y87.061 Z-0.150 F400.000
G1 X38.549 Y87.071 Z-0.150 F400.000
G1 X38.174 Y87.035 Z-0.150 F400.000
G1 X37.877 Y86.935 Z-0.150 F400.000
G1 X37.776 Y86.879 Z-0.150 F400.000
G1 X37.682 Y86.814 Z-0.150 F400.000
G1 X37.498 Y86.625 Z-0.150 F400.000
G1 X37.356 Y86.372 Z-0.150 F400.000
G1 X37.293 Y86.196 Z-0.150 F400.000
G1 X37.247 Y85.999 Z-0.150 F400.000
G0 Z4.000
G0 Z4.000
G0 Z4.000
G0 X39.479 Y73.418
G0 Z2.000
(autolevel)
M5
G4P0.5
G90G1F400Z1
G38.3Z-3F30.0
G10L20P1Z0
G90G1F400Z1
M3 S12000
G4P0.5
(autolevel)
G1 X39.479 Y73.418 Z-0.150 F150.000
G1 X39.393 Y73.540 Z-0.150 F400.000
G1 X39.372 Y73.655 Z-0.150 F400.000
G1 X39.293 Y74.453 Z-0.150 F400.000
G1 X39.238 Y74.672 Z-0.150 F400.000
G1 X39.089 Y74.871 Z-0.150 F400.000
G1 X38.920 Y74.972 Z-0.150 F400.000
G1 X38.542 Y75.032 Z-0.150 F400.000
G1 X38.844 Y74.997 Z-0.150 F400.000
G1 X39.089 Y74.871 Z-0.150 F400.000
G1 X39.220 Y74.708 Z-0.150 F400.000
G1 X39.293 Y74.453 Z-0.150 F400.000
G1 X39.372 Y73.655 Z-0.150 F400.000
G1 X39.393 Y73.540 Z-0.150 F400.000
G1 X39.479 Y73.418 Z-0.150 F400.000
G0 Z4.000
G0 Z4.000
G0 X37.254 Y73.418
G0 Z2.000
G1 X37.254 Y73.418 Z-0.150 F150.000
G1 X37.254 Y76.582 Z-0.150 F400.000
G1 X38.394 Y76.582 Z-0.150 F400.000
G1 X38.883 Y76.531 Z-0.150 F400.000
G1 X39.052 Y76.471 Z-0.150 F400.000
G1 X39.179 Y76.389 Z-0.150 F400.000
G1 X39.272 Y76.287 Z-0.150 F400.000
G1 X39.332 Y76.167 Z-0.150 F400.000
G1 X39.384 Y75.880 Z-0.150 F400.000
G1 X39.349 Y75.568 Z-0.150 F400.000
G1 X39.294 Y75.423 Z-0.150 F400.000
G1 X39.206 Y75.295 Z-0.150 F400.000
G1 X39.037 Y75.160 Z-0.150 F400.000
G1 X38.924 Y75.104 Z-0.150 F400.000
G1 X38.677 Y75.044 Z-0.150 F400.000
G1 X38.482 Y75.032 Z-0.150 F400.000
G1 X37.254 Y75.032 Z-0.150 F400.000
G1 X38.482 Y75.032 Z-0.150 F400.000
G1 X38.720 Y75.050 Z-0.150 F400.000
G1 X38.917 Y75.104 Z-0.150 F400.000
G1 X39.076 Y75.189 Z-0.150 F400.000
G1 X39.199 Y75.295 Z-0.150 F400.000
G1 X39.290 Y75.423 Z-0.150 F400.000
G1 X39.348 Y75.568 Z-0.150 F400.000
G1 X39.384 Y75.880 Z-0.150 F400.000
G1 X39.329 Y76.167 Z-0.150 F400.000
G1 X39.268 Y76.287 Z-0.150 F400.000
G1 X39.174 Y76.389 Z-0.150 F400.000
G1 X38.995 Y76.492 Z-0.150 F400.000
G1 X38.874 Y76.531 Z-0.150 F400.000
G1 X38.660 Y76.570 Z-0.150 F400.000
G1 X38.394 Y76.582 Z-0.150 F400.000
G1 X37.254 Y76.582 Z-0.150 F400.000
G1 X37.254 Y73.418 Z-0.150 F400.000
G0 Z4.000
G0 Z4.000
G0 X41.052 Y73.418
G0 Z2.000
G1 X41.052 Y73.418 Z-0.150 F150.000
G1 X41.052 Y76.582 Z-0.150 F400.000
G1 X42.049 Y76.582 Z-0.150 F400.000
G1 X42.322 Y76.565 Z-0.150 F400.000
G1 X42.541 Y76.515 Z-0.150 F400.000
G1 X42.713 Y76.435 Z-0.150 F400.000
G1 X42.844 Y76.334 Z-0.150 F400.000
G1 X42.939 Y76.213 Z-0.150 F400.000
G1 X43.001 Y76.075 Z-0.150 F400.000
G1 X43.056 Y75.770 Z-0.150 F400.000
G1 X43.020 Y75.456 Z-0.150 F400.000
G1 X42.962 Y75.309 Z-0.150 F400.000
G1 X42.870 Y75.178 Z-0.150 F400.000
G1 X42.695 Y75.036 Z-0.150 F400.000
G1 X42.580 Y74.977 Z-0.150 F400.000
G1 X42.338 Y74.914 Z-0.150 F400.000
G1 X42.131 Y74.901 Z-0.150 F400.000
G1 X41.052 Y74.901 Z-0.150 F400.000
G1 X42.131 Y74.901 Z-0.150 F400.000
G1 X42.375 Y74.920 Z-0.150 F400.000
G1 X42.576 Y74.977 Z-0.150 F400.000
G1 X42.738 Y75.066 Z-0.150 F400.000
G1 X42.864 Y75.178 Z-0.150 F400.000
G1 X42.957 Y75.309 Z-0.150 F400.000
G1 X43.017 Y75.456 Z-0.150 F400.000
G1 X43.056 Y75.770 Z-0.150 F400.000
G1 X43.001 Y76.075 Z-0.150 F400.000
G1 X42.939 Y76.213 Z-0.150 F400.000
G1 X42.843 Y76.334 Z-0.150 F400.000
G1 X42.664 Y76.461 Z-0.150 F400.000
G1 X42.539 Y76.515 Z-0.150 F400.000
G1 X42.270 Y76.572 Z-0.150 F400.000
G1 X42.049 Y76.582 Z-0.150 F400.000
G1 X41.052 Y76.582 Z-0.150 F400.000
G1 X41.052 Y73.418 Z-0.150 F400.000
G0 Z4.000
G0 Z4.000
G0 X46.765 Y74.490
G0 Z2.000
G1 X46.765 Y74.490 Z-0.150 F150.000
G1 X46.660 Y74.125 Z-0.150 F400.000
G1 X46.510 Y73.858 Z-0.150 F400.000
G1 X46.425 Y73.760 Z-0.150 F400.000
G1 X46.330 Y73.675 Z-0.150 F400.000
G1 X46.089 Y73.533 Z-0.150 F400.000
G1 X45.796 Y73.446 Z-0.150 F400.000
G1 X45.635 Y73.425 Z-0.150 F400.000
G1 X45.462 Y73.418 Z-0.150 F400.000
G1 X45.090 Y73.454 Z-0.150 F400.000
G1 X44.792 Y73.554 Z-0.150 F400.000
G1 X44.615 Y73.660 Z-0.150 F400.000
G1 X44.462 Y73.796 Z-0.150 F400.000
G1 X44.305 Y74.019 Z-0.150 F400.000
G1 X44.191 Y74.310 Z-0.150 F400.000
G1 X44.123 Y74.689 Z-0.150 F400.000
G1 X44.109 Y75.000 Z-0.150 F400.000
G1 X44.145 Y75.481 Z-0.150 F400.000
G1 X44.242 Y75.842 Z-0.150 F400.000
G1 X44.339 Y76.038 Z-0.150 F400.000
G1 X44.462 Y76.201 Z-0.150 F400.000
G1 X44.681 Y76.383 Z-0.150 F400.000
G1 X44.943 Y76.506 Z-0.150 F400.000
G1 X45.259 Y76.572 Z-0.150 F400.000
G1 X45.462 Y76.582 Z-0.150 F400.000
G1 X45.837 Y76.546 Z-0.150 F400.000
G1 X46.239 Y76.389 Z-0.150 F400.000
G1 X46.443 Y76.221 Z-0.150 F400.000
G1 X46.603 Y75.993 Z-0.150 F400.000
G1 X46.653 Y75.891 Z-0.150 F400.000
G1 X46.696 Y75.780 Z-0.150 F400.000
G1 X46.555 Y76.074 Z-0.150 F400.000
