(Exported by FreeCAD)
(Post Processor: grbl_post)
(Output Time:2021-07-08 14:03:46.776368)
(Begin preamble)
G17 G90
G21
(Begin operation: Fixture)
(Path: Fixture)
G54
(Finish operation: Fixture)
(Begin operation: 30degree_Vbit001)
(Path: 30degree_Vbit001)
(30degree_Vbit001)
(Begin toolchange)
( M6 T1.0 )
M3 S12000.0
(Finish operation: 30degree_Vbit001)
(Begin operation: Engrave)
(Path: Engrave)
(Engrave)
G0 Z6.000
G0 Z6.000
G0 X3.660 Y0.998
G0 Z4.000
G1 X3.660 Y0.998 Z-0.150 F100.000
G1 X3.562 Y1.137 Z-0.150 F300.000
G1 X3.538 Y1.267 Z-0.150 F300.000
G1 X3.448 Y2.174 Z-0.150 F300.000
G1 X3.393 Y2.409 Z-0.150 F300.000
G1 X3.217 Y2.650 Z-0.150 F300.000
G1 X3.039 Y2.759 Z-0.150 F300.000
G1 X2.792 Y2.821 Z-0.150 F300.000
G1 X2.697 Y2.830 Z-0.150 F300.000
G1 X2.596 Y2.833 Z-0.150 F300.000
G1 X2.921 Y2.797 Z-0.150 F300.000
G1 X3.217 Y2.650 Z-0.150 F300.000
G1 X3.359 Y2.477 Z-0.150 F300.000
G1 X3.448 Y2.174 Z-0.150 F300.000
G1 X3.538 Y1.267 Z-0.150 F300.000
G1 X3.562 Y1.137 Z-0.150 F300.000
G1 X3.660 Y0.998 Z-0.150 F300.000
G0 Z6.000
G0 Z6.000
G0 X1.132 Y0.998
G0 Z4.000
G1 X1.132 Y0.998 Z-0.150 F100.000
G1 X1.132 Y4.594 Z-0.150 F300.000
G1 X2.427 Y4.594 Z-0.150 F300.000
G1 X2.736 Y4.579 Z-0.150 F300.000
G1 X2.983 Y4.536 Z-0.150 F300.000
G1 X3.175 Y4.467 Z-0.150 F300.000
G1 X3.320 Y4.374 Z-0.150 F300.000
G1 X3.425 Y4.259 Z-0.150 F300.000
G1 X3.493 Y4.122 Z-0.150 F300.000
G1 X3.553 Y3.796 Z-0.150 F300.000
G1 X3.513 Y3.441 Z-0.150 F300.000
G1 X3.422 Y3.227 Z-0.150 F300.000
G1 X3.351 Y3.131 Z-0.150 F300.000
G1 X3.172 Y2.986 Z-0.150 F300.000
G1 X3.029 Y2.915 Z-0.150 F300.000
G1 X2.768 Y2.848 Z-0.150 F300.000
G1 X2.527 Y2.833 Z-0.150 F300.000
G1 X1.132 Y2.833 Z-0.150 F300.000
G1 X2.527 Y2.833 Z-0.150 F300.000
G1 X2.875 Y2.868 Z-0.150 F300.000
G1 X3.021 Y2.915 Z-0.150 F300.000
G1 X3.202 Y3.010 Z-0.150 F300.000
G1 X3.342 Y3.131 Z-0.150 F300.000
G1 X3.471 Y3.328 Z-0.150 F300.000
G1 X3.511 Y3.441 Z-0.150 F300.000
G1 X3.553 Y3.796 Z-0.150 F300.000
G1 X3.490 Y4.122 Z-0.150 F300.000
G1 X3.391 Y4.297 Z-0.150 F300.000
G1 X3.314 Y4.374 Z-0.150 F300.000
G1 X3.125 Y4.485 Z-0.150 F300.000
G1 X2.973 Y4.536 Z-0.150 F300.000
G1 X2.644 Y4.587 Z-0.150 F300.000
G1 X2.427 Y4.594 Z-0.150 F300.000
G1 X1.132 Y4.594 Z-0.150 F300.000
G1 X1.132 Y0.998 Z-0.150 F300.000
G0 Z6.000
G0 Z6.000
G0 X5.447 Y0.998
G0 Z4.000
G1 X5.447 Y0.998 Z-0.150 F100.000
G1 X5.447 Y4.594 Z-0.150 F300.000
G1 X6.581 Y4.594 Z-0.150 F300.000
G1 X6.891 Y4.575 Z-0.150 F300.000
G1 X7.140 Y4.517 Z-0.150 F300.000
G1 X7.336 Y4.427 Z-0.150 F300.000
G1 X7.485 Y4.311 Z-0.150 F300.000
G1 X7.620 Y4.124 Z-0.150 F300.000
G1 X7.663 Y4.018 Z-0.150 F300.000
G1 X7.726 Y3.671 Z-0.150 F300.000
G1 X7.684 Y3.314 Z-0.150 F300.000
G1 X7.589 Y3.098 Z-0.150 F300.000
G1 X7.514 Y2.998 Z-0.150 F300.000
G1 X7.330 Y2.845 Z-0.150 F300.000
G1 X7.184 Y2.770 Z-0.150 F300.000
G1 X6.929 Y2.701 Z-0.150 F300.000
G1 X6.674 Y2.683 Z-0.150 F300.000
G1 X5.447 Y2.683 Z-0.150 F300.000
G1 X6.674 Y2.683 Z-0.150 F300.000
G1 X7.021 Y2.719 Z-0.150 F300.000
G1 X7.180 Y2.770 Z-0.150 F300.000
G1 X7.364 Y2.871 Z-0.150 F300.000
G1 X7.507 Y2.998 Z-0.150 F300.000
G1 X7.612 Y3.147 Z-0.150 F300.000
G1 X7.681 Y3.314 Z-0.150 F300.000
G1 X7.726 Y3.671 Z-0.150 F300.000
G1 X7.663 Y4.018 Z-0.150 F300.000
G1 X7.563 Y4.218 Z-0.150 F300.000
G1 X7.483 Y4.311 Z-0.150 F300.000
G1 X7.295 Y4.448 Z-0.150 F300.000
G1 X7.138 Y4.517 Z-0.150 F300.000
G1 X6.854 Y4.579 Z-0.150 F300.000
G1 X6.581 Y4.594 Z-0.150 F300.000
G1 X5.447 Y4.594 Z-0.150 F300.000
G1 X5.447 Y0.998 Z-0.150 F300.000
G0 Z6.000
G0 Z6.000
G0 X11.940 Y2.216
G0 Z4.000
G1 X11.940 Y2.216 Z-0.150 F100.000
G1 X11.830 Y1.825 Z-0.150 F300.000
G1 X11.674 Y1.532 Z-0.150 F300.000
G1 X11.567 Y1.401 Z-0.150 F300.000
G1 X11.445 Y1.290 Z-0.150 F300.000
G1 X11.190 Y1.136 Z-0.150 F300.000
G1 X10.883 Y1.038 Z-0.150 F300.000
G1 X10.680 Y1.008 Z-0.150 F300.000
G1 X10.460 Y0.998 Z-0.150 F300.000
G1 X10.061 Y1.034 Z-0.150 F300.000
G1 X9.737 Y1.135 Z-0.150 F300.000
G1 X9.472 Y1.292 Z-0.150 F300.000
G1 X9.323 Y1.428 Z-0.150 F300.000
G1 X9.154 Y1.663 Z-0.150 F300.000
G1 X9.028 Y1.967 Z-0.150 F300.000
G1 X8.947 Y2.356 Z-0.150 F300.000
G1 X8.922 Y2.796 Z-0.150 F300.000
G1 X8.958 Y3.311 Z-0.150 F300.000
G1 X9.056 Y3.706 Z-0.150 F300.000
G1 X9.202 Y4.005 Z-0.150 F300.000
G1 X9.323 Y4.160 Z-0.150 F300.000
G1 X9.555 Y4.357 Z-0.150 F300.000
G1 X9.830 Y4.493 Z-0.150 F300.000
G1 X10.157 Y4.573 Z-0.150 F300.000
G1 X10.460 Y4.594 Z-0.150 F300.000
G1 X10.861 Y4.558 Z-0.150 F300.000
G1 X11.185 Y4.457 Z-0.150 F300.000
G1 X11.266 Y4.418 Z-0.150 F300.000
G1 X11.343 Y4.374 Z-0.150 F300.000
G1 X11.561 Y4.197 Z-0.150 F300.000
G1 X11.736 Y3.960 Z-0.150 F300.000
G1 X11.804 Y3.828 Z-0.150 F300.000
G1 X11.861 Y3.682 Z-0.150 F300.000
G1 X11.713 Y3.998 Z-0.150 F300.000
G1 X11.526 Y4.232 Z-0.150 F300.000
G1 X11.438 Y4.308 Z-0.150 F300.000
G1 X11.343 Y4.374 Z-0.150 F300.000
G1 X11.064 Y4.504 Z-0.150 F300.000
G1 X10.730 Y4.578 Z-0.150 F300.000
G1 X10.598 Y4.590 Z-0.150 F300.000
G1 X10.460 Y4.594 Z-0.150 F300.000
G1 X10.062 Y4.558 Z-0.150 F300.000
G1 X9.739 Y4.457 Z-0.150 F300.000
G1 X9.475 Y4.299 Z-0.150 F300.000
G1 X9.323 Y4.160 Z-0.150 F300.000
G1 X9.154 Y3.924 Z-0.150 F300.000
G1 X9.027 Y3.619 Z-0.150 F300.000
G1 X8.947 Y3.230 Z-0.150 F300.000
G1 X8.922 Y2.796 Z-0.150 F300.000
G1 X8.958 Y2.278 Z-0.150 F300.000
G1 X9.056 Y1.882 Z-0.150 F300.000
G1 X9.202 Y1.583 Z-0.150 F300.000
G1 X9.323 Y1.428 Z-0.150 F300.000
G1 X9.555 Y1.233 Z-0.150 F300.000
G1 X9.831 Y1.097 Z-0.150 F300.000
G1 X10.160 Y1.017 Z-0.150 F300.000
G1 X10.460 Y0.998 Z-0.150 F300.000
G1 X10.862 Y1.034 Z-0.150 F300.000
G1 X11.185 Y1.134 Z-0.150 F300.000
G1 X11.321 Y1.205 Z-0.150 F300.000
G1 X11.445 Y1.290 Z-0.150 F300.000
G1 X11.643 Y1.489 Z-0.150 F300.000
G1 X11.799 Y1.752 Z-0.150 F300.000
G1 X11.880 Y1.970 Z-0.150 F300.000
G1 X11.940 Y2.216 Z-0.150 F300.000
G0 Z6.000
G0 Z6.000
G0 Z6.000
G0 X9.351 Y15.991
G0 Z4.000
G1 X9.351 Y15.991 Z-0.150 F100.000
G1 X9.449 Y15.851 Z-0.150 F300.000
G1 X9.473 Y15.721 Z-0.150 F300.000
G1 X9.563 Y14.814 Z-0.150 F300.000
G1 X9.619 Y14.580 Z-0.150 F300.000
G1 X9.795 Y14.339 Z-0.150 F300.000
G1 X9.973 Y14.230 Z-0.150 F300.000
G1 X10.220 Y14.168 Z-0.150 F300.000
G1 X10.314 Y14.159 Z-0.150 F300.000
G1 X10.416 Y14.156 Z-0.150 F300.000
G1 X10.091 Y14.192 Z-0.150 F300.000
G1 X9.795 Y14.339 Z-0.150 F300.000
G1 X9.653 Y14.512 Z-0.150 F300.000
G1 X9.563 Y14.814 Z-0.150 F300.000
G1 X9.473 Y15.721 Z-0.150 F300.000
G1 X9.449 Y15.851 Z-0.150 F300.000
G1 X9.351 Y15.991 Z-0.150 F300.000
G0 Z6.000
G0 Z6.000
G0 X11.880 Y15.991
G0 Z4.000
G1 X11.880 Y15.991 Z-0.150 F100.000
G1 X11.880 Y12.395 Z-0.150 F300.000
G1 X10.584 Y12.395 Z-0.150 F300.000
G1 X10.275 Y12.409 Z-0.150 F300.000
G1 X10.029 Y12.453 Z-0.150 F300.000
G1 X9.837 Y12.521 Z-0.150 F300.000
G1 X9.692 Y12.615 Z-0.150 F300.000
G1 X9.587 Y12.730 Z-0.150 F300.000
G1 X9.518 Y12.867 Z-0.150 F300.000
G1 X9.459 Y13.193 Z-0.150 F300.000
G1 X9.499 Y13.548 Z-0.150 F300.000
G1 X9.590 Y13.762 Z-0.150 F300.000
G1 X9.661 Y13.857 Z-0.150 F300.000
G1 X9.840 Y14.003 Z-0.150 F300.000
G1 X9.982 Y14.074 Z-0.150 F300.000
G1 X10.244 Y14.141 Z-0.150 F300.000
G1 X10.485 Y14.156 Z-0.150 F300.000
G1 X11.880 Y14.156 Z-0.150 F300.000
G1 X10.485 Y14.156 Z-0.150 F300.000
G1 X10.137 Y14.120 Z-0.150 F300.000
G1 X9.990 Y14.074 Z-0.150 F300.000
G1 X9.810 Y13.978 Z-0.150 F300.000
G1 X9.669 Y13.857 Z-0.150 F300.000
G1 X9.541 Y13.661 Z-0.150 F300.000
G1 X9.501 Y13.548 Z-0.150 F300.000
G1 X9.459 Y13.193 Z-0.150 F300.000
G1 X9.522 Y12.867 Z-0.150 F300.000
G1 X9.621 Y12.691 Z-0.150 F300.000
G1 X9.698 Y12.615 Z-0.150 F300.000
G1 X9.886 Y12.503 Z-0.150 F300.000
G1 X10.039 Y12.453 Z-0.150 F300.000
G1 X10.368 Y12.402 Z-0.150 F300.000
G1 X10.584 Y12.395 Z-0.150 F300.000
G1 X11.880 Y12.395 Z-0.150 F300.000
G1 X11.880 Y15.991 Z-0.150 F300.000
G0 Z6.000
G0 Z6.000
G0 X7.565 Y15.991
G0 Z4.000
G1 X7.565 Y15.991 Z-0.150 F100.000
G1 X7.565 Y12.395 Z-0.150 F300.000
G1 X6.431 Y12.395 Z-0.150 F300.000
G1 X6.121 Y12.414 Z-0.150 F300.000
G1 X5.872 Y12.472 Z-0.150 F300.000
G1 X5.676 Y12.562 Z-0.150 F300.000
G1 X5.527 Y12.677 Z-0.150 F300.000
G1 X5.392 Y12.864 Z-0.150 F300.000
G1 X5.349 Y12.971 Z-0.150 F300.000
G1 X5.286 Y13.318 Z-0.150 F300.000
G1 X5.328 Y13.674 Z-0.150 F300.000
G1 X5.423 Y13.891 Z-0.150 F300.000
G1 X5.498 Y13.991 Z-0.150 F300.000
G1 X5.682 Y14.144 Z-0.150 F300.000
G1 X5.827 Y14.219 Z-0.150 F300.000
G1 X6.083 Y14.288 Z-0.150 F300.000
G1 X6.338 Y14.305 Z-0.150 F300.000
G1 X7.565 Y14.305 Z-0.150 F300.000
G1 X6.338 Y14.305 Z-0.150 F300.000
G1 X5.990 Y14.269 Z-0.150 F300.000
G1 X5.832 Y14.219 Z-0.150 F300.000
G1 X5.648 Y14.117 Z-0.150 F300.000
G1 X5.505 Y13.991 Z-0.150 F300.000
G1 X5.400 Y13.842 Z-0.150 F300.000
G1 X5.331 Y13.674 Z-0.150 F300.000
G1 X5.286 Y13.318 Z-0.150 F300.000
G1 X5.349 Y12.971 Z-0.150 F300.000
G1 X5.449 Y12.770 Z-0.150 F300.000
G1 X5.529 Y12.677 Z-0.150 F300.000
G1 X5.717 Y12.540 Z-0.150 F300.000
G1 X5.874 Y12.472 Z-0.150 F300.000
G1 X6.158 Y12.409 Z-0.150 F300.000
G1 X6.431 Y12.395 Z-0.150 F300.000
G1 X7.565 Y12.395 Z-0.150 F300.000
G1 X7.565 Y15.991 Z-0.150 F300.000
G0 Z6.000
G0 Z6.000
G0 X1.072 Y14.773
G0 Z4.000
G1 X1.072 Y14.773 Z-0.150 F100.000
G1 X1.182 Y15.164 Z-0.150 F300.000
G1 X1.338 Y15.457 Z-0.150 F300.000
G1 X1.444 Y15.588 Z-0.150 F300.000
G1 X1.566 Y15.699 Z-0.150 F300.000
G1 X1.822 Y15.852 Z-0.150 F300.000
G1 X2.129 Y15.950 Z-0.150 F300.000
G1 X2.332 Y15.981 Z-0.150 F300.000
G1 X2.552 Y15.991 Z-0.150 F300.000
G1 X2.951 Y15.955 Z-0.150 F300.000
G1 X3.275 Y15.854 Z-0.150 F300.000
G1 X3.539 Y15.697 Z-0.150 F300.000
G1 X3.689 Y15.561 Z-0.150 F300.000
G1 X3.858 Y15.326 Z-0.150 F300.000
G1 X3.984 Y15.022 Z-0.150 F300.000
G1 X4.065 Y14.633 Z-0.150 F300.000
G1 X4.090 Y14.193 Z-0.150 F300.000
G1 X4.054 Y13.677 Z-0.150 F300.000
G1 X3.956 Y13.282 Z-0.150 F300.000
G1 X3.809 Y12.983 Z-0.150 F300.000
G1 X3.689 Y12.828 Z-0.150 F300.000
G1 X3.457 Y12.632 Z-0.150 F300.000
G1 X3.182 Y12.495 Z-0.150 F300.000
G1 X2.855 Y12.415 Z-0.150 F300.000
G1 X2.552 Y12.395 Z-0.150 F300.000
G1 X2.151 Y12.431 Z-0.150 F300.000
G1 X1.827 Y12.532 Z-0.150 F300.000
G1 X1.746 Y12.571 Z-0.150 F300.000
G1 X1.669 Y12.615 Z-0.150 F300.000
G1 X1.451 Y12.792 Z-0.150 F300.000
G1 X1.276 Y13.029 Z-0.150 F300.000
G1 X1.208 Y13.161 Z-0.150 F300.000
G1 X1.151 Y13.307 Z-0.150 F300.000
G1 X1.298 Y12.990 Z-0.150 F300.000
G1 X1.486 Y12.756 Z-0.150 F300.000
G1 X1.574 Y12.681 Z-0.150 F300.000
G1 X1.669 Y12.615 Z-0.150 F300.000
G1 X1.948 Y12.484 Z-0.150 F300.000
G1 X2.282 Y12.410 Z-0.150 F300.000
G1 X2.414 Y12.399 Z-0.150 F300.000
G1 X2.552 Y12.395 Z-0.150 F300.000
G1 X2.949 Y12.431 Z-0.150 F300.000
G1 X3.273 Y12.532 Z-0.150 F300.000
G1 X3.537 Y12.689 Z-0.150 F300.000
G1 X3.689 Y12.828 Z-0.150 F300.000
G1 X3.858 Y13.065 Z-0.150 F300.000
G1 X3.985 Y13.369 Z-0.150 F300.000
G1 X4.065 Y13.758 Z-0.150 F300.000
G1 X4.090 Y14.193 Z-0.150 F300.000
G1 X4.054 Y14.711 Z-0.150 F300.000
G1 X3.956 Y15.107 Z-0.150 F300.000
G1 X3.810 Y15.405 Z-0.150 F300.000
G1 X3.689 Y15.561 Z-0.150 F300.000
G1 X3.456 Y15.756 Z-0.150 F300.000
G1 X3.181 Y15.892 Z-0.150 F300.000
G1 X2.852 Y15.971 Z-0.150 F300.000
G1 X2.552 Y15.991 Z-0.150 F300.000
G1 X2.150 Y15.955 Z-0.150 F300.000
G1 X1.827 Y15.855 Z-0.150 F300.000
G1 X1.691 Y15.784 Z-0.150 F300.000
G1 X1.566 Y15.699 Z-0.150 F300.000
G1 X1.369 Y15.499 Z-0.150 F300.000
G1 X1.213 Y15.236 Z-0.150 F300.000
G1 X1.132 Y15.019 Z-0.150 F300.000
G1 X1.072 Y14.773 Z-0.150 F300.000
G0 Z6.000
G0 Z6.000
G0 Z6.000
G0 X3.660 Y25.998
G0 Z4.000
G1 X3.660 Y25.998 Z-0.150 F100.000
G1 X3.562 Y26.137 Z-0.150 F300.000
G1 X3.538 Y26.267 Z-0.150 F300.000
G1 X3.448 Y27.174 Z-0.150 F300.000
G1 X3.393 Y27.409 Z-0.150 F300.000
G1 X3.217 Y27.650 Z-0.150 F300.000
G1 X3.039 Y27.759 Z-0.150 F300.000
G1 X2.792 Y27.821 Z-0.150 F300.000
G1 X2.697 Y27.830 Z-0.150 F300.000
G1 X2.596 Y27.833 Z-0.150 F300.000
G1 X2.921 Y27.797 Z-0.150 F300.000
G1 X3.217 Y27.650 Z-0.150 F300.000
G1 X3.359 Y27.477 Z-0.150 F300.000
G1 X3.448 Y27.174 Z-0.150 F300.000
G1 X3.538 Y26.267 Z-0.150 F300.000
G1 X3.562 Y26.137 Z-0.150 F300.000
G1 X3.660 Y25.998 Z-0.150 F300.000
G0 Z6.000
G0 Z6.000
G0 X1.132 Y25.998
G0 Z4.000
G1 X1.132 Y25.998 Z-0.150 F100.000
G1 X1.132 Y29.594 Z-0.150 F300.000
G1 X2.427 Y29.594 Z-0.150 F300.000
G1 X2.736 Y29.579 Z-0.150 F300.000
G1 X2.983 Y29.536 Z-0.150 F300.000
G1 X3.175 Y29.467 Z-0.150 F300.000
G1 X3.320 Y29.374 Z-0.150 F300.000
G1 X3.425 Y29.259 Z-0.150 F300.000
G1 X3.493 Y29.122 Z-0.150 F300.000
G1 X3.553 Y28.796 Z-0.150 F300.000
G1 X3.513 Y28.441 Z-0.150 F300.000
G1 X3.422 Y28.227 Z-0.150 F300.000
G1 X3.351 Y28.131 Z-0.150 F300.000
G1 X3.172 Y27.986 Z-0.150 F300.000
G1 X3.029 Y27.915 Z-0.150 F300.000
G1 X2.768 Y27.848 Z-0.150 F300.000
G1 X2.527 Y27.833 Z-0.150 F300.000
G1 X1.132 Y27.833 Z-0.150 F300.000
G1 X2.527 Y27.833 Z-0.150 F300.000
G1 X2.875 Y27.868 Z-0.150 F300.000
G1 X3.021 Y27.915 Z-0.150 F300.000
G1 X3.202 Y28.010 Z-0.150 F300.000
G1 X3.342 Y28.131 Z-0.150 F300.000
G1 X3.471 Y28.328 Z-0.150 F300.000
G1 X3.511 Y28.441 Z-0.150 F300.000
G1 X3.553 Y28.796 Z-0.150 F300.000
G1 X3.490 Y29.122 Z-0.150 F300.000
G1 X3.391 Y29.297 Z-0.150 F300.000
G1 X3.314 Y29.374 Z-0.150 F300.000
G1 X3.125 Y29.485 Z-0.150 F300.000
G1 X2.973 Y29.536 Z-0.150 F300.000
G1 X2.644 Y29.587 Z-0.150 F300.000
G1 X2.427 Y29.594 Z-0.150 F300.000
G1 X1.132 Y29.594 Z-0.150 F300.000
G1 X1.132 Y25.998 Z-0.150 F300.000
G0 Z6.000
G0 Z6.000
G0 X5.447 Y25.998
G0 Z4.000
G1 X5.447 Y25.998 Z-0.150 F100.000
G1 X5.447 Y29.594 Z-0.150 F300.000
G1 X6.581 Y29.594 Z-0.150 F300.000
G1 X6.891 Y29.575 Z-0.150 F300.000
G1 X7.140 Y29.517 Z-0.150 F300.000
G1 X7.336 Y29.427 Z-0.150 F300.000
G1 X7.485 Y29.311 Z-0.150 F300.000
G1 X7.620 Y29.124 Z-0.150 F300.000
G1 X7.663 Y29.018 Z-0.150 F300.000
G1 X7.726 Y28.671 Z-0.150 F300.000
G1 X7.684 Y28.314 Z-0.150 F300.000
G1 X7.589 Y28.098 Z-0.150 F300.000
G1 X7.514 Y27.998 Z-0.150 F300.000
G1 X7.330 Y27.845 Z-0.150 F300.000
G1 X7.184 Y27.770 Z-0.150 F300.000
G1 X6.929 Y27.701 Z-0.150 F300.000
G1 X6.674 Y27.683 Z-0.150 F300.000
G1 X5.447 Y27.683 Z-0.150 F300.000
G1 X6.674 Y27.683 Z-0.150 F300.000
G1 X7.021 Y27.719 Z-0.150 F300.000
G1 X7.180 Y27.770 Z-0.150 F300.000
G1 X7.364 Y27.871 Z-0.150 F300.000
G1 X7.507 Y27.998 Z-0.150 F300.000
G1 X7.612 Y28.147 Z-0.150 F300.000
G1 X7.681 Y28.314 Z-0.150 F300.000
G1 X7.726 Y28.671 Z-0.150 F300.000
G1 X7.663 Y29.018 Z-0.150 F300.000
G1 X7.563 Y29.218 Z-0.150 F300.000
G1 X7.483 Y29.311 Z-0.150 F300.000
G1 X7.295 Y29.448 Z-0.150 F300.000
G1 X7.138 Y29.517 Z-0.150 F300.000
G1 X6.854 Y29.579 Z-0.150 F300.000
G1 X6.581 Y29.594 Z-0.150 F300.000
G1 X5.447 Y29.594 Z-0.150 F300.000
G1 X5.447 Y25.998 Z-0.150 F300.000
G0 Z6.000
G0 Z6.000
G0 X11.940 Y27.216
G0 Z4.000
G1 X11.940 Y27.216 Z-0.150 F100.000
G1 X11.830 Y26.825 Z-0.150 F300.000
G1 X11.674 Y26.532 Z-0.150 F300.000
G1 X11.567 Y26.401 Z-0.150 F300.000
G1 X11.445 Y26.290 Z-0.150 F300.000
G1 X11.190 Y26.136 Z-0.150 F300.000
G1 X10.883 Y26.038 Z-0.150 F300.000
G1 X10.680 Y26.008 Z-0.150 F300.000
G1 X10.460 Y25.998 Z-0.150 F300.000
G1 X10.061 Y26.034 Z-0.150 F300.000
G1 X9.737 Y26.135 Z-0.150 F300.000
G1 X9.472 Y26.292 Z-0.150 F300.000
G1 X9.323 Y26.428 Z-0.150 F300.000
G1 X9.154 Y26.663 Z-0.150 F300.000
G1 X9.028 Y26.967 Z-0.150 F300.000
G1 X8.947 Y27.356 Z-0.150 F300.000
G1 X8.922 Y27.796 Z-0.150 F300.000
G1 X8.958 Y28.311 Z-0.150 F300.000
G1 X9.056 Y28.706 Z-0.150 F300.000
G1 X9.202 Y29.005 Z-0.150 F300.000
G1 X9.323 Y29.160 Z-0.150 F300.000
G1 X9.555 Y29.357 Z-0.150 F300.000
G1 X9.830 Y29.493 Z-0.150 F300.000
G1 X10.157 Y29.573 Z-0.150 F300.000
G1 X10.460 Y29.594 Z-0.150 F300.000
G1 X10.861 Y29.558 Z-0.150 F300.000
G1 X11.185 Y29.457 Z-0.150 F300.000
G1 X11.266 Y29.418 Z-0.150 F300.000
G1 X11.343 Y29.374 Z-0.150 F300.000
G1 X11.561 Y29.197 Z-0.150 F300.000
G1 X11.736 Y28.960 Z-0.150 F300.000
G1 X11.804 Y28.828 Z-0.150 F300.000
G1 X11.861 Y28.682 Z-0.150 F300.000
G1 X11.713 Y28.998 Z-0.150 F300.000
G1 X11.526 Y29.232 Z-0.150 F300.000
G1 X11.438 Y29.308 Z-0.150 F300.000
G1 X11.343 Y29.374 Z-0.150 F300.000
G1 X11.064 Y29.504 Z-0.150 F300.000
G1 X10.730 Y29.578 Z-0.150 F300.000
G1 X10.598 Y29.590 Z-0.150 F300.000
G1 X10.460 Y29.594 Z-0.150 F300.000
G1 X10.062 Y29.558 Z-0.150 F300.000
G1 X9.739 Y29.457 Z-0.150 F300.000
G1 X9.475 Y29.299 Z-0.150 F300.000
G1 X9.323 Y29.160 Z-0.150 F300.000
G1 X9.154 Y28.924 Z-0.150 F300.000
G1 X9.027 Y28.619 Z-0.150 F300.000
G1 X8.947 Y28.230 Z-0.150 F300.000
G1 X8.922 Y27.796 Z-0.150 F300.000
G1 X8.958 Y27.278 Z-0.150 F300.000
G1 X9.056 Y26.882 Z-0.150 F300.000
G1 X9.202 Y26.583 Z-0.150 F300.000
G1 X9.323 Y26.428 Z-0.150 F300.000
G1 X9.555 Y26.233 Z-0.150 F300.000
G1 X9.831 Y26.097 Z-0.150 F300.000
G1 X10.160 Y26.017 Z-0.150 F300.000
G1 X10.460 Y25.998 Z-0.150 F300.000
G1 X10.862 Y26.034 Z-0.150 F300.000
G1 X11.185 Y26.134 Z-0.150 F300.000
G1 X11.321 Y26.205 Z-0.150 F300.000
G1 X11.445 Y26.290 Z-0.150 F300.000
G1 X11.643 Y26.489 Z-0.150 F300.000
G1 X11.799 Y26.752 Z-0.150 F300.000
G1 X11.880 Y26.970 Z-0.150 F300.000
G1 X11.940 Y27.216 Z-0.150 F300.000
G0 Z6.000
G0 Z6.000
G0 Z6.000
G0 X9.351 Y40.991
G0 Z4.000
G1 X9.351 Y40.991 Z-0.150 F100.000
G1 X9.449 Y40.851 Z-0.150 F300.000
G1 X9.473 Y40.721 Z-0.150 F300.000
G1 X9.563 Y39.814 Z-0.150 F300.000
G1 X9.619 Y39.580 Z-0.150 F300.000
G1 X9.795 Y39.339 Z-0.150 F300.000
G1 X9.973 Y39.230 Z-0.150 F300.000
G1 X10.220 Y39.168 Z-0.150 F300.000
G1 X10.314 Y39.159 Z-0.150 F300.000
G1 X10.416 Y39.156 Z-0.150 F300.000
G1 X10.091 Y39.192 Z-0.150 F300.000
G1 X9.795 Y39.339 Z-0.150 F300.000
G1 X9.653 Y39.512 Z-0.150 F300.000
G1 X9.563 Y39.814 Z-0.150 F300.000
G1 X9.473 Y40.721 Z-0.150 F300.000
G1 X9.449 Y40.851 Z-0.150 F300.000
G1 X9.351 Y40.991 Z-0.150 F300.000
G0 Z6.000
G0 Z6.000
G0 X11.880 Y40.991
G0 Z4.000
G1 X11.880 Y40.991 Z-0.150 F100.000
G1 X11.880 Y37.395 Z-0.150 F300.000
G1 X10.584 Y37.395 Z-0.150 F300.000
G1 X10.275 Y37.409 Z-0.150 F300.000
G1 X10.029 Y37.453 Z-0.150 F300.000
G1 X9.837 Y37.521 Z-0.150 F300.000
G1 X9.692 Y37.615 Z-0.150 F300.000
G1 X9.587 Y37.730 Z-0.150 F300.000
G1 X9.518 Y37.867 Z-0.150 F300.000
G1 X9.459 Y38.193 Z-0.150 F300.000
G1 X9.499 Y38.548 Z-0.150 F300.000
G1 X9.590 Y38.762 Z-0.150 F300.000
G1 X9.661 Y38.857 Z-0.150 F300.000
G1 X9.840 Y39.003 Z-0.150 F300.000
G1 X9.982 Y39.074 Z-0.150 F300.000
G1 X10.244 Y39.141 Z-0.150 F300.000
G1 X10.485 Y39.156 Z-0.150 F300.000
G1 X11.880 Y39.156 Z-0.150 F300.000
G1 X10.485 Y39.156 Z-0.150 F300.000
G1 X10.137 Y39.120 Z-0.150 F300.000
G1 X9.990 Y39.074 Z-0.150 F300.000
G1 X9.810 Y38.978 Z-0.150 F300.000
G1 X9.669 Y38.857 Z-0.150 F300.000
G1 X9.541 Y38.661 Z-0.150 F300.000
G1 X9.501 Y38.548 Z-0.150 F300.000
G1 X9.459 Y38.193 Z-0.150 F300.000
G1 X9.522 Y37.867 Z-0.150 F300.000
G1 X9.621 Y37.691 Z-0.150 F300.000
G1 X9.698 Y37.615 Z-0.150 F300.000
G1 X9.886 Y37.503 Z-0.150 F300.000
G1 X10.039 Y37.453 Z-0.150 F300.000
G1 X10.368 Y37.402 Z-0.150 F300.000
G1 X10.584 Y37.395 Z-0.150 F300.000
G1 X11.880 Y37.395 Z-0.150 F300.000
G1 X11.880 Y40.991 Z-0.150 F300.000
G0 Z6.000
G0 Z6.000
G0 X7.565 Y40.991
G0 Z4.000
G1 X7.565 Y40.991 Z-0.150 F100.000
G1 X7.565 Y37.395 Z-0.150 F300.000
G1 X6.431 Y37.395 Z-0.150 F300.000
G1 X6.121 Y37.414 Z-0.150 F300.000
G1 X5.872 Y37.472 Z-0.150 F300.000
G1 X5.676 Y37.562 Z-0.150 F300.000
G1 X5.527 Y37.677 Z-0.150 F300.000
G1 X5.392 Y37.864 Z-0.150 F300.000
G1 X5.349 Y37.971 Z-0.150 F300.000
G1 X5.286 Y38.318 Z-0.150 F300.000
G1 X5.328 Y38.674 Z-0.150 F300.000
G1 X5.423 Y38.891 Z-0.150 F300.000
G1 X5.498 Y38.991 Z-0.150 F300.000
G1 X5.682 Y39.144 Z-0.150 F300.000
G1 X5.827 Y39.219 Z-0.150 F300.000
G1 X6.083 Y39.288 Z-0.150 F300.000
G1 X6.338 Y39.305 Z-0.150 F300.000
G1 X7.565 Y39.305 Z-0.150 F300.000
G1 X6.338 Y39.305 Z-0.150 F300.000
G1 X5.990 Y39.269 Z-0.150 F300.000
G1 X5.832 Y39.219 Z-0.150 F300.000
G1 X5.648 Y39.117 Z-0.150 F300.000
G1 X5.505 Y38.991 Z-0.150 F300.000
G1 X5.400 Y38.842 Z-0.150 F300.000
G1 X5.331 Y38.674 Z-0.150 F300.000
G1 X5.286 Y38.318 Z-0.150 F300.000
G1 X5.349 Y37.971 Z-0.150 F300.000
G1 X5.449 Y37.770 Z-0.150 F300.000
G1 X5.529 Y37.677 Z-0.150 F300.000
G1 X5.717 Y37.540 Z-0.150 F300.000
G1 X5.874 Y37.472 Z-0.150 F300.000
G1 X6.158 Y37.409 Z-0.150 F300.000
G1 X6.431 Y37.395 Z-0.150 F300.000
G1 X7.565 Y37.395 Z-0.150 F300.000
G1 X7.565 Y40.991 Z-0.150 F300.000
G0 Z6.000
G0 Z6.000
G0 X1.072 Y39.773
G0 Z4.000
G1 X1.072 Y39.773 Z-0.150 F100.000
G1 X1.182 Y40.164 Z-0.150 F300.000
G1 X1.338 Y40.457 Z-0.150 F300.000
G1 X1.444 Y40.588 Z-0.150 F300.000
G1 X1.566 Y40.699 Z-0.150 F300.000
G1 X1.822 Y40.852 Z-0.150 F300.000
G1 X2.129 Y40.950 Z-0.150 F300.000
G1 X2.332 Y40.981 Z-0.150 F300.000
G1 X2.552 Y40.991 Z-0.150 F300.000
G1 X2.951 Y40.955 Z-0.150 F300.000
G1 X3.275 Y40.854 Z-0.150 F300.000
G1 X3.539 Y40.697 Z-0.150 F300.000
G1 X3.689 Y40.561 Z-0.150 F300.000
G1 X3.858 Y40.326 Z-0.150 F300.000
G1 X3.984 Y40.022 Z-0.150 F300.000
G1 X4.065 Y39.633 Z-0.150 F300.000
G1 X4.090 Y39.193 Z-0.150 F300.000
G1 X4.054 Y38.677 Z-0.150 F300.000
G1 X3.956 Y38.282 Z-0.150 F300.000
G1 X3.809 Y37.983 Z-0.150 F300.000
G1 X3.689 Y37.828 Z-0.150 F300.000
G1 X3.457 Y37.632 Z-0.150 F300.000
G1 X3.182 Y37.495 Z-0.150 F300.000
G1 X2.855 Y37.415 Z-0.150 F300.000
G1 X2.552 Y37.395 Z-0.150 F300.000
G1 X2.151 Y37.431 Z-0.150 F300.000
G1 X1.827 Y37.532 Z-0.150 F300.000
G1 X1.746 Y37.571 Z-0.150 F300.000
G1 X1.669 Y37.615 Z-0.150 F300.000
G1 X1.451 Y37.792 Z-0.150 F300.000
G1 X1.276 Y38.029 Z-0.150 F300.000
G1 X1.208 Y38.161 Z-0.150 F300.000
G1 X1.151 Y38.307 Z-0.150 F300.000
G1 X1.298 Y37.990 Z-0.150 F300.000
G1 X1.486 Y37.756 Z-0.150 F300.000
G1 X1.574 Y37.681 Z-0.150 F300.000
G1 X1.669 Y37.615 Z-0.150 F300.000
G1 X1.948 Y37.484 Z-0.150 F300.000
G1 X2.282 Y37.410 Z-0.150 F300.000
G1 X2.414 Y37.399 Z-0.150 F300.000
G1 X2.552 Y37.395 Z-0.150 F300.000
G1 X2.949 Y37.431 Z-0.150 F300.000
G1 X3.273 Y37.532 Z-0.150 F300.000
G1 X3.537 Y37.689 Z-0.150 F300.000
G1 X3.689 Y37.828 Z-0.150 F300.000
G1 X3.858 Y38.065 Z-0.150 F300.000
G1 X3.985 Y38.369 Z-0.150 F300.000
G1 X4.065 Y38.758 Z-0.150 F300.000
G1 X4.090 Y39.193 Z-0.150 F300.000
G1 X4.054 Y39.711 Z-0.150 F300.000
G1 X3.956 Y40.107 Z-0.150 F300.000
G1 X3.810 Y40.405 Z-0.150 F300.000
G1 X3.689 Y40.561 Z-0.150 F300.000
G1 X3.456 Y40.756 Z-0.150 F300.000
G1 X3.181 Y40.892 Z-0.150 F300.000
G1 X2.852 Y40.971 Z-0.150 F300.000
G1 X2.552 Y40.991 Z-0.150 F300.000
G1 X2.150 Y40.955 Z-0.150 F300.000
G1 X1.827 Y40.855 Z-0.150 F300.000
G1 X1.691 Y40.784 Z-0.150 F300.000
G1 X1.566 Y40.699 Z-0.150 F300.000
G1 X1.369 Y40.499 Z-0.150 F300.000
G1 X1.213 Y40.236 Z-0.150 F300.000
G1 X1.132 Y40.019 Z-0.150 F300.000
G1 X1.072 Y39.773 Z-0.150 F300.000
G0 Z6.000
G0 Z6.000
G0 Z6.000
G0 X3.660 Y50.998
G0 Z4.000
G1 X3.660 Y50.998 Z-0.150 F100.000
G1 X3.562 Y51.137 Z-0.150 F300.000
G1 X3.538 Y51.267 Z-0.150 F300.000
G1 X3.448 Y52.174 Z-0.150 F300.000
G1 X3.393 Y52.409 Z-0.150 F300.000
G1 X3.217 Y52.650 Z-0.150 F300.000
G1 X3.039 Y52.759 Z-0.150 F300.000
G1 X2.792 Y52.821 Z-0.150 F300.000
G1 X2.697 Y52.830 Z-0.150 F300.000
G1 X2.596 Y52.833 Z-0.150 F300.000
G1 X2.921 Y52.797 Z-0.150 F300.000
G1 X3.217 Y52.650 Z-0.150 F300.000
G1 X3.359 Y52.477 Z-0.150 F300.000
G1 X3.448 Y52.174 Z-0.150 F300.000
G1 X3.538 Y51.267 Z-0.150 F300.000
G1 X3.562 Y51.137 Z-0.150 F300.000
G1 X3.660 Y50.998 Z-0.150 F300.000
G0 Z6.000
G0 Z6.000
G0 X1.132 Y50.998
G0 Z4.000
G1 X1.132 Y50.998 Z-0.150 F100.000
G1 X1.132 Y54.594 Z-0.150 F300.000
G1 X2.427 Y54.594 Z-0.150 F300.000
G1 X2.736 Y54.579 Z-0.150 F300.000
G1 X2.983 Y54.536 Z-0.150 F300.000
G1 X3.175 Y54.467 Z-0.150 F300.000
G1 X3.320 Y54.374 Z-0.150 F300.000
G1 X3.425 Y54.259 Z-0.150 F300.000
G1 X3.493 Y54.122 Z-0.150 F300.000
G1 X3.553 Y53.796 Z-0.150 F300.000
G1 X3.513 Y53.441 Z-0.150 F300.000
G1 X3.422 Y53.227 Z-0.150 F300.000
G1 X3.351 Y53.131 Z-0.150 F300.000
G1 X3.172 Y52.986 Z-0.150 F300.000
G1 X3.029 Y52.915 Z-0.150 F300.000
G1 X2.768 Y52.848 Z-0.150 F300.000
G1 X2.527 Y52.833 Z-0.150 F300.000
G1 X1.132 Y52.833 Z-0.150 F300.000
G1 X2.527 Y52.833 Z-0.150 F300.000
G1 X2.875 Y52.868 Z-0.150 F300.000
G1 X3.021 Y52.915 Z-0.150 F300.000
G1 X3.202 Y53.010 Z-0.150 F300.000
G1 X3.342 Y53.131 Z-0.150 F300.000
G1 X3.471 Y53.328 Z-0.150 F300.000
G1 X3.511 Y53.441 Z-0.150 F300.000
G1 X3.553 Y53.796 Z-0.150 F300.000
G1 X3.490 Y54.122 Z-0.150 F300.000
G1 X3.391 Y54.297 Z-0.150 F300.000
G1 X3.314 Y54.374 Z-0.150 F300.000
G1 X3.125 Y54.485 Z-0.150 F300.000
G1 X2.973 Y54.536 Z-0.150 F300.000
G1 X2.644 Y54.587 Z-0.150 F300.000
G1 X2.427 Y54.594 Z-0.150 F300.000
G1 X1.132 Y54.594 Z-0.150 F300.000
G1 X1.132 Y50.998 Z-0.150 F300.000
G0 Z6.000
G0 Z6.000
G0 X5.447 Y50.998
G0 Z4.000
G1 X5.447 Y50.998 Z-0.150 F100.000
G1 X5.447 Y54.594 Z-0.150 F300.000
G1 X6.581 Y54.594 Z-0.150 F300.000
G1 X6.891 Y54.575 Z-0.150 F300.000
G1 X7.140 Y54.517 Z-0.150 F300.000
G1 X7.336 Y54.427 Z-0.150 F300.000
G1 X7.485 Y54.311 Z-0.150 F300.000
G1 X7.620 Y54.124 Z-0.150 F300.000
G1 X7.663 Y54.018 Z-0.150 F300.000
G1 X7.726 Y53.671 Z-0.150 F300.000
G1 X7.684 Y53.314 Z-0.150 F300.000
G1 X7.589 Y53.098 Z-0.150 F300.000
G1 X7.514 Y52.998 Z-0.150 F300.000
G1 X7.330 Y52.845 Z-0.150 F300.000
G1 X7.184 Y52.770 Z-0.150 F300.000
G1 X6.929 Y52.701 Z-0.150 F300.000
G1 X6.674 Y52.683 Z-0.150 F300.000
G1 X5.447 Y52.683 Z-0.150 F300.000
G1 X6.674 Y52.683 Z-0.150 F300.000
G1 X7.021 Y52.719 Z-0.150 F300.000
G1 X7.180 Y52.770 Z-0.150 F300.000
G1 X7.364 Y52.871 Z-0.150 F300.000
G1 X7.507 Y52.998 Z-0.150 F300.000
G1 X7.612 Y53.147 Z-0.150 F300.000
G1 X7.681 Y53.314 Z-0.150 F300.000
G1 X7.726 Y53.671 Z-0.150 F300.000
G1 X7.663 Y54.018 Z-0.150 F300.000
G1 X7.563 Y54.218 Z-0.150 F300.000
G1 X7.483 Y54.311 Z-0.150 F300.000
G1 X7.295 Y54.448 Z-0.150 F300.000
G1 X7.138 Y54.517 Z-0.150 F300.000
G1 X6.854 Y54.579 Z-0.150 F300.000
G1 X6.581 Y54.594 Z-0.150 F300.000
G1 X5.447 Y54.594 Z-0.150 F300.000
G1 X5.447 Y50.998 Z-0.150 F300.000
G0 Z6.000
G0 Z6.000
G0 X11.940 Y52.216
G0 Z4.000
G1 X11.940 Y52.216 Z-0.150 F100.000
G1 X11.830 Y51.825 Z-0.150 F300.000
G1 X11.674 Y51.532 Z-0.150 F300.000
G1 X11.567 Y51.401 Z-0.150 F300.000
G1 X11.445 Y51.290 Z-0.150 F300.000
G1 X11.190 Y51.136 Z-0.150 F300.000
G1 X10.883 Y51.038 Z-0.150 F300.000
G1 X10.680 Y51.008 Z-0.150 F300.000
G1 X10.460 Y50.998 Z-0.150 F300.000
G1 X10.061 Y51.034 Z-0.150 F300.000
G1 X9.737 Y51.135 Z-0.150 F300.000
G1 X9.472 Y51.292 Z-0.150 F300.000
G1 X9.323 Y51.428 Z-0.150 F300.000
G1 X9.154 Y51.663 Z-0.150 F300.000
G1 X9.028 Y51.967 Z-0.150 F300.000
G1 X8.947 Y52.356 Z-0.150 F300.000
G1 X8.922 Y52.796 Z-0.150 F300.000
G1 X8.958 Y53.311 Z-0.150 F300.000
G1 X9.056 Y53.706 Z-0.150 F300.000
G1 X9.202 Y54.005 Z-0.150 F300.000
G1 X9.323 Y54.160 Z-0.150 F300.000
G1 X9.555 Y54.357 Z-0.150 F300.000
G1 X9.830 Y54.493 Z-0.150 F300.000
G1 X10.157 Y54.573 Z-0.150 F300.000
G1 X10.460 Y54.594 Z-0.150 F300.000
G1 X10.861 Y54.558 Z-0.150 F300.000
G1 X11.185 Y54.457 Z-0.150 F300.000
G1 X11.266 Y54.418 Z-0.150 F300.000
G1 X11.343 Y54.374 Z-0.150 F300.000
G1 X11.561 Y54.197 Z-0.150 F300.000
G1 X11.736 Y53.960 Z-0.150 F300.000
G1 X11.804 Y53.828 Z-0.150 F300.000
G1 X11.861 Y53.682 Z-0.150 F300.000
G1 X11.713 Y53.998 Z-0.150 F300.000
G1 X11.526 Y54.232 Z-0.150 F300.000
G1 X11.438 Y54.308 Z-0.150 F300.000
G1 X11.343 Y54.374 Z-0.150 F300.000
G1 X11.064 Y54.504 Z-0.150 F300.000
G1 X10.730 Y54.578 Z-0.150 F300.000
G1 X10.598 Y54.590 Z-0.150 F300.000
G1 X10.460 Y54.594 Z-0.150 F300.000
G1 X10.062 Y54.558 Z-0.150 F300.000
G1 X9.739 Y54.457 Z-0.150 F300.000
G1 X9.475 Y54.299 Z-0.150 F300.000
G1 X9.323 Y54.160 Z-0.150 F300.000
G1 X9.154 Y53.924 Z-0.150 F300.000
G1 X9.027 Y53.619 Z-0.150 F300.000
G1 X8.947 Y53.230 Z-0.150 F300.000
G1 X8.922 Y52.796 Z-0.150 F300.000
G1 X8.958 Y52.278 Z-0.150 F300.000
G1 X9.056 Y51.882 Z-0.150 F300.000
G1 X9.202 Y51.583 Z-0.150 F300.000
G1 X9.323 Y51.428 Z-0.150 F300.000
G1 X9.555 Y51.233 Z-0.150 F300.000
G1 X9.831 Y51.097 Z-0.150 F300.000
G1 X10.160 Y51.017 Z-0.150 F300.000
G1 X10.460 Y50.998 Z-0.150 F300.000
G1 X10.862 Y51.034 Z-0.150 F300.000
G1 X11.185 Y51.134 Z-0.150 F300.000
G1 X11.321 Y51.205 Z-0.150 F300.000
G1 X11.445 Y51.290 Z-0.150 F300.000
G1 X11.643 Y51.489 Z-0.150 F300.000
G1 X11.799 Y51.752 Z-0.150 F300.000
G1 X11.880 Y51.970 Z-0.150 F300.000
G1 X11.940 Y52.216 Z-0.150 F300.000
G0 Z6.000
G0 Z6.000
G0 Z6.000
G0 X9.351 Y65.991
G0 Z4.000
G1 X9.351 Y65.991 Z-0.150 F100.000
G1 X9.449 Y65.851 Z-0.150 F300.000
G1 X9.473 Y65.721 Z-0.150 F300.000
G1 X9.563 Y64.814 Z-0.150 F300.000
G1 X9.619 Y64.580 Z-0.150 F300.000
G1 X9.795 Y64.339 Z-0.150 F300.000
G1 X9.973 Y64.230 Z-0.150 F300.000
G1 X10.220 Y64.168 Z-0.150 F300.000
G1 X10.314 Y64.159 Z-0.150 F300.000
G1 X10.416 Y64.156 Z-0.150 F300.000
G1 X10.091 Y64.192 Z-0.150 F300.000
G1 X9.795 Y64.339 Z-0.150 F300.000
G1 X9.653 Y64.512 Z-0.150 F300.000
G1 X9.563 Y64.814 Z-0.150 F300.000
G1 X9.473 Y65.721 Z-0.150 F300.000
G1 X9.449 Y65.851 Z-0.150 F300.000
G1 X9.351 Y65.991 Z-0.150 F300.000
G0 Z6.000
G0 Z6.000
G0 X11.880 Y65.991
G0 Z4.000
G1 X11.880 Y65.991 Z-0.150 F100.000
G1 X11.880 Y62.395 Z-0.150 F300.000
G1 X10.584 Y62.395 Z-0.150 F300.000
G1 X10.275 Y62.409 Z-0.150 F300.000
G1 X10.029 Y62.453 Z-0.150 F300.000
G1 X9.837 Y62.521 Z-0.150 F300.000
G1 X9.692 Y62.615 Z-0.150 F300.000
G1 X9.587 Y62.730 Z-0.150 F300.000
G1 X9.518 Y62.867 Z-0.150 F300.000
G1 X9.459 Y63.193 Z-0.150 F300.000
G1 X9.499 Y63.548 Z-0.150 F300.000
G1 X9.590 Y63.762 Z-0.150 F300.000
G1 X9.661 Y63.857 Z-0.150 F300.000
G1 X9.840 Y64.003 Z-0.150 F300.000
G1 X9.982 Y64.074 Z-0.150 F300.000
G1 X10.244 Y64.141 Z-0.150 F300.000
G1 X10.485 Y64.156 Z-0.150 F300.000
G1 X11.880 Y64.156 Z-0.150 F300.000
G1 X10.485 Y64.156 Z-0.150 F300.000
G1 X10.137 Y64.120 Z-0.150 F300.000
G1 X9.990 Y64.074 Z-0.150 F300.000
G1 X9.810 Y63.978 Z-0.150 F300.000
G1 X9.669 Y63.857 Z-0.150 F300.000
G1 X9.541 Y63.661 Z-0.150 F300.000
G1 X9.501 Y63.548 Z-0.150 F300.000
G1 X9.459 Y63.193 Z-0.150 F300.000
G1 X9.522 Y62.867 Z-0.150 F300.000
G1 X9.621 Y62.691 Z-0.150 F300.000
G1 X9.698 Y62.615 Z-0.150 F300.000
G1 X9.886 Y62.503 Z-0.150 F300.000
G1 X10.039 Y62.453 Z-0.150 F300.000
G1 X10.368 Y62.402 Z-0.150 F300.000
G1 X10.584 Y62.395 Z-0.150 F300.000
G1 X11.880 Y62.395 Z-0.150 F300.000
G1 X11.880 Y65.991 Z-0.150 F300.000
G0 Z6.000
G0 Z6.000
G0 X7.565 Y65.991
G0 Z4.000
G1 X7.565 Y65.991 Z-0.150 F100.000
G1 X7.565 Y62.395 Z-0.150 F300.000
G1 X6.431 Y62.395 Z-0.150 F300.000
G1 X6.121 Y62.414 Z-0.150 F300.000
G1 X5.872 Y62.472 Z-0.150 F300.000
G1 X5.676 Y62.562 Z-0.150 F300.000
G1 X5.527 Y62.677 Z-0.150 F300.000
G1 X5.392 Y62.864 Z-0.150 F300.000
G1 X5.349 Y62.971 Z-0.150 F300.000
G1 X5.286 Y63.318 Z-0.150 F300.000
G1 X5.328 Y63.674 Z-0.150 F300.000
G1 X5.423 Y63.891 Z-0.150 F300.000
G1 X5.498 Y63.991 Z-0.150 F300.000
G1 X5.682 Y64.144 Z-0.150 F300.000
G1 X5.827 Y64.219 Z-0.150 F300.000
G1 X6.083 Y64.288 Z-0.150 F300.000
G1 X6.338 Y64.305 Z-0.150 F300.000
G1 X7.565 Y64.305 Z-0.150 F300.000
G1 X6.338 Y64.305 Z-0.150 F300.000
G1 X5.990 Y64.269 Z-0.150 F300.000
G1 X5.832 Y64.219 Z-0.150 F300.000
G1 X5.648 Y64.117 Z-0.150 F300.000
G1 X5.505 Y63.991 Z-0.150 F300.000
G1 X5.400 Y63.842 Z-0.150 F300.000
G1 X5.331 Y63.674 Z-0.150 F300.000
G1 X5.286 Y63.318 Z-0.150 F300.000
G1 X5.349 Y62.971 Z-0.150 F300.000
G1 X5.449 Y62.770 Z-0.150 F300.000
G1 X5.529 Y62.677 Z-0.150 F300.000
G1 X5.717 Y62.540 Z-0.150 F300.000
G1 X5.874 Y62.472 Z-0.150 F300.000
G1 X6.158 Y62.409 Z-0.150 F300.000
G1 X6.431 Y62.395 Z-0.150 F300.000
G1 X7.565 Y62.395 Z-0.150 F300.000
G1 X7.565 Y65.991 Z-0.150 F300.000
G0 Z6.000
G0 Z6.000
G0 X1.072 Y64.773
G0 Z4.000
G1 X1.072 Y64.773 Z-0.150 F100.000
G1 X1.182 Y65.164 Z-0.150 F300.000
G1 X1.338 Y65.457 Z-0.150 F300.000
G1 X1.444 Y65.588 Z-0.150 F300.000
G1 X1.566 Y65.699 Z-0.150 F300.000
G1 X1.822 Y65.852 Z-0.150 F300.000
G1 X2.129 Y65.950 Z-0.150 F300.000
G1 X2.332 Y65.981 Z-0.150 F300.000
G1 X2.552 Y65.991 Z-0.150 F300.000
G1 X2.951 Y65.955 Z-0.150 F300.000
G1 X3.275 Y65.854 Z-0.150 F300.000
G1 X3.539 Y65.697 Z-0.150 F300.000
G1 X3.689 Y65.561 Z-0.150 F300.000
G1 X3.858 Y65.326 Z-0.150 F300.000
G1 X3.984 Y65.022 Z-0.150 F300.000
G1 X4.065 Y64.633 Z-0.150 F300.000
G1 X4.090 Y64.193 Z-0.150 F300.000
G1 X4.054 Y63.677 Z-0.150 F300.000
G1 X3.956 Y63.282 Z-0.150 F300.000
G1 X3.809 Y62.983 Z-0.150 F300.000
G1 X3.689 Y62.828 Z-0.150 F300.000
G1 X3.457 Y62.632 Z-0.150 F300.000
G1 X3.182 Y62.495 Z-0.150 F300.000
G1 X2.855 Y62.415 Z-0.150 F300.000
G1 X2.552 Y62.395 Z-0.150 F300.000
G1 X2.151 Y62.431 Z-0.150 F300.000
G1 X1.827 Y62.532 Z-0.150 F300.000
G1 X1.746 Y62.571 Z-0.150 F300.000
G1 X1.669 Y62.615 Z-0.150 F300.000
G1 X1.451 Y62.792 Z-0.150 F300.000
G1 X1.276 Y63.029 Z-0.150 F300.000
G1 X1.208 Y63.161 Z-0.150 F300.000
G1 X1.151 Y63.307 Z-0.150 F300.000
G1 X1.298 Y62.990 Z-0.150 F300.000
G1 X1.486 Y62.756 Z-0.150 F300.000
G1 X1.574 Y62.681 Z-0.150 F300.000
G1 X1.669 Y62.615 Z-0.150 F300.000
G1 X1.948 Y62.484 Z-0.150 F300.000
G1 X2.282 Y62.410 Z-0.150 F300.000
G1 X2.414 Y62.399 Z-0.150 F300.000
G1 X2.552 Y62.395 Z-0.150 F300.000
G1 X2.949 Y62.431 Z-0.150 F300.000
G1 X3.273 Y62.532 Z-0.150 F300.000
G1 X3.537 Y62.689 Z-0.150 F300.000
G1 X3.689 Y62.828 Z-0.150 F300.000
G1 X3.858 Y63.065 Z-0.150 F300.000
G1 X3.985 Y63.369 Z-0.150 F300.000
G1 X4.065 Y63.758 Z-0.150 F300.000
G1 X4.090 Y64.193 Z-0.150 F300.000
G1 X4.054 Y64.711 Z-0.150 F300.000
G1 X3.956 Y65.107 Z-0.150 F300.000
G1 X3.810 Y65.405 Z-0.150 F300.000
G1 X3.689 Y65.561 Z-0.150 F300.000
G1 X3.456 Y65.756 Z-0.150 F300.000
G1 X3.181 Y65.892 Z-0.150 F300.000
G1 X2.852 Y65.971 Z-0.150 F300.000
G1 X2.552 Y65.991 Z-0.150 F300.000
G1 X2.150 Y65.955 Z-0.150 F300.000
G1 X1.827 Y65.855 Z-0.150 F300.000
G1 X1.691 Y65.784 Z-0.150 F300.000
G1 X1.566 Y65.699 Z-0.150 F300.000
G1 X1.369 Y65.499 Z-0.150 F300.000
G1 X1.213 Y65.236 Z-0.150 F300.000
G1 X1.132 Y65.019 Z-0.150 F300.000
G1 X1.072 Y64.773 Z-0.150 F300.000
G0 Z6.000
G0 Z6.000
G0 Z6.000
G0 X3.660 Y75.998
G0 Z4.000
G1 X3.660 Y75.998 Z-0.150 F100.000
G1 X3.562 Y76.137 Z-0.150 F300.000
G1 X3.538 Y76.267 Z-0.150 F300.000
G1 X3.448 Y77.174 Z-0.150 F300.000
G1 X3.393 Y77.409 Z-0.150 F300.000
G1 X3.217 Y77.650 Z-0.150 F300.000
G1 X3.039 Y77.759 Z-0.150 F300.000
G1 X2.792 Y77.821 Z-0.150 F300.000
G1 X2.697 Y77.830 Z-0.150 F300.000
G1 X2.596 Y77.833 Z-0.150 F300.000
G1 X2.921 Y77.797 Z-0.150 F300.000
G1 X3.217 Y77.650 Z-0.150 F300.000
G1 X3.359 Y77.477 Z-0.150 F300.000
G1 X3.448 Y77.174 Z-0.150 F300.000
G1 X3.538 Y76.267 Z-0.150 F300.000
G1 X3.562 Y76.137 Z-0.150 F300.000
G1 X3.660 Y75.998 Z-0.150 F300.000
G0 Z6.000
G0 Z6.000
G0 X1.132 Y75.998
G0 Z4.000
G1 X1.132 Y75.998 Z-0.150 F100.000
G1 X1.132 Y79.594 Z-0.150 F300.000
G1 X2.427 Y79.594 Z-0.150 F300.000
G1 X2.736 Y79.579 Z-0.150 F300.000
G1 X2.983 Y79.536 Z-0.150 F300.000
G1 X3.175 Y79.467 Z-0.150 F300.000
G1 X3.320 Y79.374 Z-0.150 F300.000
G1 X3.425 Y79.259 Z-0.150 F300.000
G1 X3.493 Y79.122 Z-0.150 F300.000
G1 X3.553 Y78.796 Z-0.150 F300.000
G1 X3.513 Y78.441 Z-0.150 F300.000
G1 X3.422 Y78.227 Z-0.150 F300.000
G1 X3.351 Y78.131 Z-0.150 F300.000
G1 X3.172 Y77.986 Z-0.150 F300.000
G1 X3.029 Y77.915 Z-0.150 F300.000
G1 X2.768 Y77.848 Z-0.150 F300.000
G1 X2.527 Y77.833 Z-0.150 F300.000
G1 X1.132 Y77.833 Z-0.150 F300.000
G1 X2.527 Y77.833 Z-0.150 F300.000
G1 X2.875 Y77.868 Z-0.150 F300.000
G1 X3.021 Y77.915 Z-0.150 F300.000
G1 X3.202 Y78.010 Z-0.150 F300.000
G1 X3.342 Y78.131 Z-0.150 F300.000
G1 X3.471 Y78.328 Z-0.150 F300.000
G1 X3.511 Y78.441 Z-0.150 F300.000
G1 X3.553 Y78.796 Z-0.150 F300.000
G1 X3.490 Y79.122 Z-0.150 F300.000
G1 X3.391 Y79.297 Z-0.150 F300.000
G1 X3.314 Y79.374 Z-0.150 F300.000
G1 X3.125 Y79.485 Z-0.150 F300.000
G1 X2.973 Y79.536 Z-0.150 F300.000
G1 X2.644 Y79.587 Z-0.150 F300.000
G1 X2.427 Y79.594 Z-0.150 F300.000
G1 X1.132 Y79.594 Z-0.150 F300.000
G1 X1.132 Y75.998 Z-0.150 F300.000
G0 Z6.000
G0 Z6.000
G0 X5.447 Y75.998
G0 Z4.000
G1 X5.447 Y75.998 Z-0.150 F100.000
G1 X5.447 Y79.594 Z-0.150 F300.000
G1 X6.581 Y79.594 Z-0.150 F300.000
G1 X6.891 Y79.575 Z-0.150 F300.000
G1 X7.140 Y79.517 Z-0.150 F300.000
G1 X7.336 Y79.427 Z-0.150 F300.000
G1 X7.485 Y79.311 Z-0.150 F300.000
G1 X7.620 Y79.124 Z-0.150 F300.000
G1 X7.663 Y79.018 Z-0.150 F300.000
G1 X7.726 Y78.671 Z-0.150 F300.000
G1 X7.684 Y78.314 Z-0.150 F300.000
G1 X7.589 Y78.098 Z-0.150 F300.000
G1 X7.514 Y77.998 Z-0.150 F300.000
G1 X7.330 Y77.845 Z-0.150 F300.000
G1 X7.184 Y77.770 Z-0.150 F300.000
G1 X6.929 Y77.701 Z-0.150 F300.000
G1 X6.674 Y77.683 Z-0.150 F300.000
G1 X5.447 Y77.683 Z-0.150 F300.000
G1 X6.674 Y77.683 Z-0.150 F300.000
G1 X7.021 Y77.719 Z-0.150 F300.000
G1 X7.180 Y77.770 Z-0.150 F300.000
G1 X7.364 Y77.871 Z-0.150 F300.000
G1 X7.507 Y77.998 Z-0.150 F300.000
G1 X7.612 Y78.147 Z-0.150 F300.000
G1 X7.681 Y78.314 Z-0.150 F300.000
G1 X7.726 Y78.671 Z-0.150 F300.000
G1 X7.663 Y79.018 Z-0.150 F300.000
G1 X7.563 Y79.218 Z-0.150 F300.000
G1 X7.483 Y79.311 Z-0.150 F300.000
G1 X7.295 Y79.448 Z-0.150 F300.000
G1 X7.138 Y79.517 Z-0.150 F300.000
G1 X6.854 Y79.579 Z-0.150 F300.000
G1 X6.581 Y79.594 Z-0.150 F300.000
G1 X5.447 Y79.594 Z-0.150 F300.000
G1 X5.447 Y75.998 Z-0.150 F300.000
G0 Z6.000
G0 Z6.000
G0 X11.940 Y77.216
G0 Z4.000
G1 X11.940 Y77.216 Z-0.150 F100.000
G1 X11.830 Y76.825 Z-0.150 F300.000
G1 X11.674 Y76.532 Z-0.150 F300.000
G1 X11.567 Y76.401 Z-0.150 F300.000
G1 X11.445 Y76.290 Z-0.150 F300.000
G1 X11.190 Y76.136 Z-0.150 F300.000
G1 X10.883 Y76.038 Z-0.150 F300.000
G1 X10.680 Y76.008 Z-0.150 F300.000
G1 X10.460 Y75.998 Z-0.150 F300.000
G1 X10.061 Y76.034 Z-0.150 F300.000
G1 X9.737 Y76.135 Z-0.150 F300.000
G1 X9.472 Y76.292 Z-0.150 F300.000
G1 X9.323 Y76.428 Z-0.150 F300.000
G1 X9.154 Y76.663 Z-0.150 F300.000
G1 X9.028 Y76.967 Z-0.150 F300.000
G1 X8.947 Y77.356 Z-0.150 F300.000
G1 X8.922 Y77.796 Z-0.150 F300.000
G1 X8.958 Y78.311 Z-0.150 F300.000
G1 X9.056 Y78.706 Z-0.150 F300.000
G1 X9.202 Y79.005 Z-0.150 F300.000
G1 X9.323 Y79.160 Z-0.150 F300.000
G1 X9.555 Y79.357 Z-0.150 F300.000
G1 X9.830 Y79.493 Z-0.150 F300.000
G1 X10.157 Y79.573 Z-0.150 F300.000
G1 X10.460 Y79.594 Z-0.150 F300.000
G1 X10.861 Y79.558 Z-0.150 F300.000
G1 X11.185 Y79.457 Z-0.150 F300.000
G1 X11.266 Y79.418 Z-0.150 F300.000
G1 X11.343 Y79.374 Z-0.150 F300.000
G1 X11.561 Y79.197 Z-0.150 F300.000
G1 X11.736 Y78.960 Z-0.150 F300.000
G1 X11.804 Y78.828 Z-0.150 F300.000
G1 X11.861 Y78.682 Z-0.150 F300.000
G1 X11.713 Y78.998 Z-0.150 F300.000
G1 X11.526 Y79.232 Z-0.150 F300.000
G1 X11.438 Y79.308 Z-0.150 F300.000
G1 X11.343 Y79.374 Z-0.150 F300.000
G1 X11.064 Y79.504 Z-0.150 F300.000
G1 X10.730 Y79.578 Z-0.150 F300.000
G1 X10.598 Y79.590 Z-0.150 F300.000
G1 X10.460 Y79.594 Z-0.150 F300.000
G1 X10.062 Y79.558 Z-0.150 F300.000
G1 X9.739 Y79.457 Z-0.150 F300.000
G1 X9.475 Y79.299 Z-0.150 F300.000
G1 X9.323 Y79.160 Z-0.150 F300.000
G1 X9.154 Y78.924 Z-0.150 F300.000
G1 X9.027 Y78.619 Z-0.150 F300.000
G1 X8.947 Y78.230 Z-0.150 F300.000
G1 X8.922 Y77.796 Z-0.150 F300.000
G1 X8.958 Y77.278 Z-0.150 F300.000
G1 X9.056 Y76.882 Z-0.150 F300.000
G1 X9.202 Y76.583 Z-0.150 F300.000
G1 X9.323 Y76.428 Z-0.150 F300.000
G1 X9.555 Y76.233 Z-0.150 F300.000
G1 X9.831 Y76.097 Z-0.150 F300.000
G1 X10.160 Y76.017 Z-0.150 F300.000
G1 X10.460 Y75.998 Z-0.150 F300.000
G1 X10.862 Y76.034 Z-0.150 F300.000
G1 X11.185 Y76.134 Z-0.150 F300.000
G1 X11.321 Y76.205 Z-0.150 F300.000
G1 X11.445 Y76.290 Z-0.150 F300.000
G1 X11.643 Y76.489 Z-0.150 F300.000
G1 X11.799 Y76.752 Z-0.150 F300.000
G1 X11.880 Y76.970 Z-0.150 F300.000
G1 X11.940 Y77.216 Z-0.150 F300.000
G0 Z6.000
G0 Z6.000
G0 Z6.000
G0 X9.351 Y90.991
G0 Z4.000
G1 X9.351 Y90.991 Z-0.150 F100.000
G1 X9.449 Y90.851 Z-0.150 F300.000
G1 X9.473 Y90.721 Z-0.150 F300.000
G1 X9.563 Y89.814 Z-0.150 F300.000
G1 X9.619 Y89.580 Z-0.150 F300.000
G1 X9.795 Y89.339 Z-0.150 F300.000
G1 X9.973 Y89.230 Z-0.150 F300.000
G1 X10.220 Y89.168 Z-0.150 F300.000
G1 X10.314 Y89.159 Z-0.150 F300.000
G1 X10.416 Y89.156 Z-0.150 F300.000
G1 X10.091 Y89.192 Z-0.150 F300.000
G1 X9.795 Y89.339 Z-0.150 F300.000
G1 X9.653 Y89.512 Z-0.150 F300.000
G1 X9.563 Y89.814 Z-0.150 F300.000
G1 X9.473 Y90.721 Z-0.150 F300.000
G1 X9.449 Y90.851 Z-0.150 F300.000
G1 X9.351 Y90.991 Z-0.150 F300.000
G0 Z6.000
G0 Z6.000
G0 X11.880 Y90.991
G0 Z4.000
G1 X11.880 Y90.991 Z-0.150 F100.000
G1 X11.880 Y87.395 Z-0.150 F300.000
G1 X10.584 Y87.395 Z-0.150 F300.000
G1 X10.275 Y87.409 Z-0.150 F300.000
G1 X10.029 Y87.453 Z-0.150 F300.000
G1 X9.837 Y87.521 Z-0.150 F300.000
G1 X9.692 Y87.615 Z-0.150 F300.000
G1 X9.587 Y87.730 Z-0.150 F300.000
G1 X9.518 Y87.867 Z-0.150 F300.000
G1 X9.459 Y88.193 Z-0.150 F300.000
G1 X9.499 Y88.548 Z-0.150 F300.000
G1 X9.590 Y88.762 Z-0.150 F300.000
G1 X9.661 Y88.857 Z-0.150 F300.000
G1 X9.840 Y89.003 Z-0.150 F300.000
G1 X9.982 Y89.074 Z-0.150 F300.000
G1 X10.244 Y89.141 Z-0.150 F300.000
G1 X10.485 Y89.156 Z-0.150 F300.000
G1 X11.880 Y89.156 Z-0.150 F300.000
G1 X10.485 Y89.156 Z-0.150 F300.000
G1 X10.137 Y89.120 Z-0.150 F300.000
G1 X9.990 Y89.074 Z-0.150 F300.000
G1 X9.810 Y88.978 Z-0.150 F300.000
G1 X9.669 Y88.857 Z-0.150 F300.000
G1 X9.541 Y88.661 Z-0.150 F300.000
G1 X9.501 Y88.548 Z-0.150 F300.000
G1 X9.459 Y88.193 Z-0.150 F300.000
G1 X9.522 Y87.867 Z-0.150 F300.000
G1 X9.621 Y87.691 Z-0.150 F300.000
G1 X9.698 Y87.615 Z-0.150 F300.000
G1 X9.886 Y87.503 Z-0.150 F300.000
G1 X10.039 Y87.453 Z-0.150 F300.000
G1 X10.368 Y87.402 Z-0.150 F300.000
G1 X10.584 Y87.395 Z-0.150 F300.000
G1 X11.880 Y87.395 Z-0.150 F300.000
G1 X11.880 Y90.991 Z-0.150 F300.000
G0 Z6.000
G0 Z6.000
G0 X7.565 Y90.991
G0 Z4.000
G1 X7.565 Y90.991 Z-0.150 F100.000
G1 X7.565 Y87.395 Z-0.150 F300.000
G1 X6.431 Y87.395 Z-0.150 F300.000
G1 X6.121 Y87.414 Z-0.150 F300.000
G1 X5.872 Y87.472 Z-0.150 F300.000
G1 X5.676 Y87.562 Z-0.150 F300.000
G1 X5.527 Y87.677 Z-0.150 F300.000
G1 X5.392 Y87.864 Z-0.150 F300.000
G1 X5.349 Y87.971 Z-0.150 F300.000
G1 X5.286 Y88.318 Z-0.150 F300.000
G1 X5.328 Y88.674 Z-0.150 F300.000
G1 X5.423 Y88.891 Z-0.150 F300.000
G1 X5.498 Y88.991 Z-0.150 F300.000
G1 X5.682 Y89.144 Z-0.150 F300.000
G1 X5.827 Y89.219 Z-0.150 F300.000
G1 X6.083 Y89.288 Z-0.150 F300.000
G1 X6.338 Y89.305 Z-0.150 F300.000
G1 X7.565 Y89.305 Z-0.150 F300.000
G1 X6.338 Y89.305 Z-0.150 F300.000
G1 X5.990 Y89.269 Z-0.150 F300.000
G1 X5.832 Y89.219 Z-0.150 F300.000
G1 X5.648 Y89.117 Z-0.150 F300.000
G1 X5.505 Y88.991 Z-0.150 F300.000
G1 X5.400 Y88.842 Z-0.150 F300.000
G1 X5.331 Y88.674 Z-0.150 F300.000
G1 X5.286 Y88.318 Z-0.150 F300.000
G1 X5.349 Y87.971 Z-0.150 F300.000
G1 X5.449 Y87.770 Z-0.150 F300.000
G1 X5.529 Y87.677 Z-0.150 F300.000
G1 X5.717 Y87.540 Z-0.150 F300.000
G1 X5.874 Y87.472 Z-0.150 F300.000
G1 X6.158 Y87.409 Z-0.150 F300.000
G1 X6.431 Y87.395 Z-0.150 F300.000
G1 X7.565 Y87.395 Z-0.150 F300.000
G1 X7.565 Y90.991 Z-0.150 F300.000
G0 Z6.000
G0 Z6.000
G0 X1.072 Y89.773
G0 Z4.000
G1 X1.072 Y89.773 Z-0.150 F100.000
G1 X1.182 Y90.164 Z-0.150 F300.000
G1 X1.338 Y90.457 Z-0.150 F300.000
G1 X1.444 Y90.588 Z-0.150 F300.000
G1 X1.566 Y90.699 Z-0.150 F300.000
G1 X1.822 Y90.852 Z-0.150 F300.000
G1 X2.129 Y90.950 Z-0.150 F300.000
G1 X2.332 Y90.981 Z-0.150 F300.000
G1 X2.552 Y90.991 Z-0.150 F300.000
G1 X2.951 Y90.955 Z-0.150 F300.000
G1 X3.275 Y90.854 Z-0.150 F300.000
G1 X3.539 Y90.697 Z-0.150 F300.000
G1 X3.689 Y90.561 Z-0.150 F300.000
G1 X3.858 Y90.326 Z-0.150 F300.000
G1 X3.984 Y90.022 Z-0.150 F300.000
G1 X4.065 Y89.633 Z-0.150 F300.000
G1 X4.090 Y89.193 Z-0.150 F300.000
G1 X4.054 Y88.677 Z-0.150 F300.000
G1 X3.956 Y88.282 Z-0.150 F300.000
G1 X3.809 Y87.983 Z-0.150 F300.000
G1 X3.689 Y87.828 Z-0.150 F300.000
G1 X3.457 Y87.632 Z-0.150 F300.000
G1 X3.182 Y87.495 Z-0.150 F300.000
G1 X2.855 Y87.415 Z-0.150 F300.000
G1 X2.552 Y87.395 Z-0.150 F300.000
G1 X2.151 Y87.431 Z-0.150 F300.000
G1 X1.827 Y87.532 Z-0.150 F300.000
G1 X1.746 Y87.571 Z-0.150 F300.000
G1 X1.669 Y87.615 Z-0.150 F300.000
G1 X1.451 Y87.792 Z-0.150 F300.000
G1 X1.276 Y88.029 Z-0.150 F300.000
G1 X1.208 Y88.161 Z-0.150 F300.000
G1 X1.151 Y88.307 Z-0.150 F300.000
G1 X1.298 Y87.990 Z-0.150 F300.000
G1 X1.486 Y87.756 Z-0.150 F300.000
G1 X1.574 Y87.681 Z-0.150 F300.000
G1 X1.669 Y87.615 Z-0.150 F300.000
G1 X1.948 Y87.484 Z-0.150 F300.000
G1 X2.282 Y87.410 Z-0.150 F300.000
G1 X2.414 Y87.399 Z-0.150 F300.000
G1 X2.552 Y87.395 Z-0.150 F300.000
G1 X2.949 Y87.431 Z-0.150 F300.000
G1 X3.273 Y87.532 Z-0.150 F300.000
G1 X3.537 Y87.689 Z-0.150 F300.000
G1 X3.689 Y87.828 Z-0.150 F300.000
G1 X3.858 Y88.065 Z-0.150 F300.000
G1 X3.985 Y88.369 Z-0.150 F300.000
G1 X4.065 Y88.758 Z-0.150 F300.000
G1 X4.090 Y89.193 Z-0.150 F300.000
G1 X4.054 Y89.711 Z-0.150 F300.000
G1 X3.956 Y90.107 Z-0.150 F300.000
G1 X3.810 Y90.405 Z-0.150 F300.000
G1 X3.689 Y90.561 Z-0.150 F300.000
G1 X3.456 Y90.756 Z-0.150 F300.000
G1 X3.181 Y90.892 Z-0.150 F300.000
G1 X2.852 Y90.971 Z-0.150 F300.000
G1 X2.552 Y90.991 Z-0.150 F300.000
G1 X2.150 Y90.955 Z-0.150 F300.000
G1 X1.827 Y90.855 Z-0.150 F300.000
G1 X1.691 Y90.784 Z-0.150 F300.000
G1 X1.566 Y90.699 Z-0.150 F300.000
G1 X1.369 Y90.499 Z-0.150 F300.000
G1 X1.213 Y90.236 Z-0.150 F300.000
G1 X1.132 Y90.019 Z-0.150 F300.000
G1 X1.072 Y89.773 Z-0.150 F300.000
G0 Z6.000
G0 Z6.000
G0 Z6.000
G0 X3.660 Y100.998
G0 Z4.000
G1 X3.660 Y100.998 Z-0.150 F100.000
G1 X3.562 Y101.137 Z-0.150 F300.000
G1 X3.538 Y101.267 Z-0.150 F300.000
G1 X3.448 Y102.174 Z-0.150 F300.000
G1 X3.393 Y102.409 Z-0.150 F300.000
G1 X3.217 Y102.650 Z-0.150 F300.000
G1 X3.039 Y102.759 Z-0.150 F300.000
G1 X2.792 Y102.821 Z-0.150 F300.000
G1 X2.697 Y102.830 Z-0.150 F300.000
G1 X2.596 Y102.833 Z-0.150 F300.000
G1 X2.921 Y102.797 Z-0.150 F300.000
G1 X3.217 Y102.650 Z-0.150 F300.000
G1 X3.359 Y102.477 Z-0.150 F300.000
G1 X3.448 Y102.174 Z-0.150 F300.000
G1 X3.538 Y101.267 Z-0.150 F300.000
G1 X3.562 Y101.137 Z-0.150 F300.000
G1 X3.660 Y100.998 Z-0.150 F300.000
G0 Z6.000
G0 Z6.000
G0 X1.132 Y100.998
G0 Z4.000
G1 X1.132 Y100.998 Z-0.150 F100.000
G1 X1.132 Y104.594 Z-0.150 F300.000
G1 X2.427 Y104.594 Z-0.150 F300.000
G1 X2.736 Y104.579 Z-0.150 F300.000
G1 X2.983 Y104.536 Z-0.150 F300.000
G1 X3.175 Y104.467 Z-0.150 F300.000
G1 X3.320 Y104.374 Z-0.150 F300.000
G1 X3.425 Y104.259 Z-0.150 F300.000
G1 X3.493 Y104.122 Z-0.150 F300.000
G1 X3.553 Y103.796 Z-0.150 F300.000
G1 X3.513 Y103.441 Z-0.150 F300.000
G1 X3.422 Y103.227 Z-0.150 F300.000
G1 X3.351 Y103.131 Z-0.150 F300.000
G1 X3.172 Y102.986 Z-0.150 F300.000
G1 X3.029 Y102.915 Z-0.150 F300.000
G1 X2.768 Y102.848 Z-0.150 F300.000
G1 X2.527 Y102.833 Z-0.150 F300.000
G1 X1.132 Y102.833 Z-0.150 F300.000
G1 X2.527 Y102.833 Z-0.150 F300.000
G1 X2.875 Y102.868 Z-0.150 F300.000
G1 X3.021 Y102.915 Z-0.150 F300.000
G1 X3.202 Y103.010 Z-0.150 F300.000
G1 X3.342 Y103.131 Z-0.150 F300.000
G1 X3.471 Y103.328 Z-0.150 F300.000
G1 X3.511 Y103.441 Z-0.150 F300.000
G1 X3.553 Y103.796 Z-0.150 F300.000
G1 X3.490 Y104.122 Z-0.150 F300.000
G1 X3.391 Y104.297 Z-0.150 F300.000
G1 X3.314 Y104.374 Z-0.150 F300.000
G1 X3.125 Y104.485 Z-0.150 F300.000
G1 X2.973 Y104.536 Z-0.150 F300.000
G1 X2.644 Y104.587 Z-0.150 F300.000
G1 X2.427 Y104.594 Z-0.150 F300.000
G1 X1.132 Y104.594 Z-0.150 F300.000
G1 X1.132 Y100.998 Z-0.150 F300.000
G0 Z6.000
G0 Z6.000
G0 X5.447 Y100.998
G0 Z4.000
G1 X5.447 Y100.998 Z-0.150 F100.000
G1 X5.447 Y104.594 Z-0.150 F300.000
G1 X6.581 Y104.594 Z-0.150 F300.000
G1 X6.891 Y104.575 Z-0.150 F300.000
G1 X7.140 Y104.517 Z-0.150 F300.000
G1 X7.336 Y104.427 Z-0.150 F300.000
G1 X7.485 Y104.311 Z-0.150 F300.000
G1 X7.620 Y104.124 Z-0.150 F300.000
G1 X7.663 Y104.018 Z-0.150 F300.000
G1 X7.726 Y103.671 Z-0.150 F300.000
G1 X7.684 Y103.314 Z-0.150 F300.000
G1 X7.589 Y103.098 Z-0.150 F300.000
G1 X7.514 Y102.998 Z-0.150 F300.000
G1 X7.330 Y102.845 Z-0.150 F300.000
G1 X7.184 Y102.770 Z-0.150 F300.000
G1 X6.929 Y102.701 Z-0.150 F300.000
G1 X6.674 Y102.683 Z-0.150 F300.000
G1 X5.447 Y102.683 Z-0.150 F300.000
G1 X6.674 Y102.683 Z-0.150 F300.000
G1 X7.021 Y102.719 Z-0.150 F300.000
G1 X7.180 Y102.770 Z-0.150 F300.000
G1 X7.364 Y102.871 Z-0.150 F300.000
G1 X7.507 Y102.998 Z-0.150 F300.000
G1 X7.612 Y103.147 Z-0.150 F300.000
G1 X7.681 Y103.314 Z-0.150 F300.000
G1 X7.726 Y103.671 Z-0.150 F300.000
G1 X7.663 Y104.018 Z-0.150 F300.000
G1 X7.563 Y104.218 Z-0.150 F300.000
G1 X7.483 Y104.311 Z-0.150 F300.000
G1 X7.295 Y104.448 Z-0.150 F300.000
G1 X7.138 Y104.517 Z-0.150 F300.000
G1 X6.854 Y104.579 Z-0.150 F300.000
G1 X6.581 Y104.594 Z-0.150 F300.000
G1 X5.447 Y104.594 Z-0.150 F300.000
G1 X5.447 Y100.998 Z-0.150 F300.000
G0 Z6.000
G0 Z6.000
G0 X11.940 Y102.216
G0 Z4.000
G1 X11.940 Y102.216 Z-0.150 F100.000
G1 X11.830 Y101.825 Z-0.150 F300.000
G1 X11.674 Y101.532 Z-0.150 F300.000
G1 X11.567 Y101.401 Z-0.150 F300.000
G1 X11.445 Y101.290 Z-0.150 F300.000
G1 X11.190 Y101.136 Z-0.150 F300.000
G1 X10.883 Y101.038 Z-0.150 F300.000
G1 X10.680 Y101.008 Z-0.150 F300.000
G1 X10.460 Y100.998 Z-0.150 F300.000
G1 X10.061 Y101.034 Z-0.150 F300.000
G1 X9.737 Y101.135 Z-0.150 F300.000
G1 X9.472 Y101.292 Z-0.150 F300.000
G1 X9.323 Y101.428 Z-0.150 F300.000
G1 X9.154 Y101.663 Z-0.150 F300.000
G1 X9.028 Y101.967 Z-0.150 F300.000
G1 X8.947 Y102.356 Z-0.150 F300.000
G1 X8.922 Y102.796 Z-0.150 F300.000
G1 X8.958 Y103.311 Z-0.150 F300.000
G1 X9.056 Y103.706 Z-0.150 F300.000
G1 X9.202 Y104.005 Z-0.150 F300.000
G1 X9.323 Y104.160 Z-0.150 F300.000
G1 X9.555 Y104.357 Z-0.150 F300.000
G1 X9.830 Y104.493 Z-0.150 F300.000
G1 X10.157 Y104.573 Z-0.150 F300.000
G1 X10.460 Y104.594 Z-0.150 F300.000
G1 X10.861 Y104.558 Z-0.150 F300.000
G1 X11.185 Y104.457 Z-0.150 F300.000
G1 X11.266 Y104.418 Z-0.150 F300.000
G1 X11.343 Y104.374 Z-0.150 F300.000
G1 X11.561 Y104.197 Z-0.150 F300.000
G1 X11.736 Y103.960 Z-0.150 F300.000
G1 X11.804 Y103.828 Z-0.150 F300.000
G1 X11.861 Y103.682 Z-0.150 F300.000
G1 X11.713 Y103.998 Z-0.150 F300.000
G1 X11.526 Y104.232 Z-0.150 F300.000
G1 X11.438 Y104.308 Z-0.150 F300.000
G1 X11.343 Y104.374 Z-0.150 F300.000
G1 X11.064 Y104.504 Z-0.150 F300.000
G1 X10.730 Y104.578 Z-0.150 F300.000
G1 X10.598 Y104.590 Z-0.150 F300.000
G1 X10.460 Y104.594 Z-0.150 F300.000
G1 X10.062 Y104.558 Z-0.150 F300.000
G1 X9.739 Y104.457 Z-0.150 F300.000
G1 X9.475 Y104.299 Z-0.150 F300.000
G1 X9.323 Y104.160 Z-0.150 F300.000
G1 X9.154 Y103.924 Z-0.150 F300.000
G1 X9.027 Y103.619 Z-0.150 F300.000
G1 X8.947 Y103.230 Z-0.150 F300.000
G1 X8.922 Y102.796 Z-0.150 F300.000
G1 X8.958 Y102.278 Z-0.150 F300.000
G1 X9.056 Y101.882 Z-0.150 F300.000
G1 X9.202 Y101.583 Z-0.150 F300.000
G1 X9.323 Y101.428 Z-0.150 F300.000
G1 X9.555 Y101.233 Z-0.150 F300.000
G1 X9.831 Y101.097 Z-0.150 F300.000
G1 X10.160 Y101.017 Z-0.150 F300.000
G1 X10.460 Y100.998 Z-0.150 F300.000
G1 X10.862 Y101.034 Z-0.150 F300.000
G1 X11.185 Y101.134 Z-0.150 F300.000
G1 X11.321 Y101.205 Z-0.150 F300.000
G1 X11.445 Y101.290 Z-0.150 F300.000
G1 X11.643 Y101.489 Z-0.150 F300.000
G1 X11.799 Y101.752 Z-0.150 F300.000
G1 X11.880 Y101.970 Z-0.150 F300.000
G1 X11.940 Y102.216 Z-0.150 F300.000
G0 Z6.000
G0 Z6.000
G0 Z6.000
G0 X9.351 Y115.991
G0 Z4.000
G1 X9.351 Y115.991 Z-0.150 F100.000
G1 X9.449 Y115.851 Z-0.150 F300.000
G1 X9.473 Y115.721 Z-0.150 F300.000
G1 X9.563 Y114.814 Z-0.150 F300.000
G1 X9.619 Y114.580 Z-0.150 F300.000
G1 X9.795 Y114.339 Z-0.150 F300.000
G1 X9.973 Y114.230 Z-0.150 F300.000
G1 X10.220 Y114.168 Z-0.150 F300.000
G1 X10.314 Y114.159 Z-0.150 F300.000
G1 X10.416 Y114.156 Z-0.150 F300.000
G1 X10.091 Y114.192 Z-0.150 F300.000
G1 X9.795 Y114.339 Z-0.150 F300.000
G1 X9.653 Y114.512 Z-0.150 F300.000
G1 X9.563 Y114.814 Z-0.150 F300.000
G1 X9.473 Y115.721 Z-0.150 F300.000
G1 X9.449 Y115.851 Z-0.150 F300.000
G1 X9.351 Y115.991 Z-0.150 F300.000
G0 Z6.000
G0 Z6.000
G0 X11.880 Y115.991
G0 Z4.000
G1 X11.880 Y115.991 Z-0.150 F100.000
G1 X11.880 Y112.395 Z-0.150 F300.000
G1 X10.584 Y112.395 Z-0.150 F300.000
G1 X10.275 Y112.409 Z-0.150 F300.000
G1 X10.029 Y112.453 Z-0.150 F300.000
G1 X9.837 Y112.521 Z-0.150 F300.000
G1 X9.692 Y112.615 Z-0.150 F300.000
G1 X9.587 Y112.730 Z-0.150 F300.000
G1 X9.518 Y112.867 Z-0.150 F300.000
G1 X9.459 Y113.193 Z-0.150 F300.000
G1 X9.499 Y113.548 Z-0.150 F300.000
G1 X9.590 Y113.762 Z-0.150 F300.000
G1 X9.661 Y113.857 Z-0.150 F300.000
G1 X9.840 Y114.003 Z-0.150 F300.000
G1 X9.982 Y114.074 Z-0.150 F300.000
G1 X10.244 Y114.141 Z-0.150 F300.000
G1 X10.485 Y114.156 Z-0.150 F300.000
G1 X11.880 Y114.156 Z-0.150 F300.000
G1 X10.485 Y114.156 Z-0.150 F300.000
G1 X10.137 Y114.120 Z-0.150 F300.000
G1 X9.990 Y114.074 Z-0.150 F300.000
G1 X9.810 Y113.978 Z-0.150 F300.000
G1 X9.669 Y113.857 Z-0.150 F300.000
G1 X9.541 Y113.661 Z-0.150 F300.000
G1 X9.501 Y113.548 Z-0.150 F300.000
G1 X9.459 Y113.193 Z-0.150 F300.000
G1 X9.522 Y112.867 Z-0.150 F300.000
G1 X9.621 Y112.691 Z-0.150 F300.000
G1 X9.698 Y112.615 Z-0.150 F300.000
G1 X9.886 Y112.503 Z-0.150 F300.000
G1 X10.039 Y112.453 Z-0.150 F300.000
G1 X10.368 Y112.402 Z-0.150 F300.000
G1 X10.584 Y112.395 Z-0.150 F300.000
G1 X11.880 Y112.395 Z-0.150 F300.000
G1 X11.880 Y115.991 Z-0.150 F300.000
G0 Z6.000
G0 Z6.000
G0 X7.565 Y115.991
G0 Z4.000
G1 X7.565 Y115.991 Z-0.150 F100.000
G1 X7.565 Y112.395 Z-0.150 F300.000
G1 X6.431 Y112.395 Z-0.150 F300.000
G1 X6.121 Y112.414 Z-0.150 F300.000
G1 X5.872 Y112.472 Z-0.150 F300.000
G1 X5.676 Y112.562 Z-0.150 F300.000
G1 X5.527 Y112.677 Z-0.150 F300.000
G1 X5.392 Y112.864 Z-0.150 F300.000
G1 X5.349 Y112.971 Z-0.150 F300.000
G1 X5.286 Y113.318 Z-0.150 F300.000
G1 X5.328 Y113.674 Z-0.150 F300.000
G1 X5.423 Y113.891 Z-0.150 F300.000
G1 X5.498 Y113.991 Z-0.150 F300.000
G1 X5.682 Y114.144 Z-0.150 F300.000
G1 X5.827 Y114.219 Z-0.150 F300.000
G1 X6.083 Y114.288 Z-0.150 F300.000
G1 X6.338 Y114.305 Z-0.150 F300.000
G1 X7.565 Y114.305 Z-0.150 F300.000
G1 X6.338 Y114.305 Z-0.150 F300.000
G1 X5.990 Y114.269 Z-0.150 F300.000
G1 X5.832 Y114.219 Z-0.150 F300.000
G1 X5.648 Y114.117 Z-0.150 F300.000
G1 X5.505 Y113.991 Z-0.150 F300.000
G1 X5.400 Y113.842 Z-0.150 F300.000
G1 X5.331 Y113.674 Z-0.150 F300.000
G1 X5.286 Y113.318 Z-0.150 F300.000
G1 X5.349 Y112.971 Z-0.150 F300.000
G1 X5.449 Y112.770 Z-0.150 F300.000
G1 X5.529 Y112.677 Z-0.150 F300.000
G1 X5.717 Y112.540 Z-0.150 F300.000
G1 X5.874 Y112.472 Z-0.150 F300.000
G1 X6.158 Y112.409 Z-0.150 F300.000
G1 X6.431 Y112.395 Z-0.150 F300.000
G1 X7.565 Y112.395 Z-0.150 F300.000
G1 X7.565 Y115.991 Z-0.150 F300.000
G0 Z6.000
G0 Z6.000
G0 X1.072 Y114.773
G0 Z4.000
G1 X1.072 Y114.773 Z-0.150 F100.000
G1 X1.182 Y115.164 Z-0.150 F300.000
G1 X1.338 Y115.457 Z-0.150 F300.000
G1 X1.444 Y115.588 Z-0.150 F300.000
G1 X1.566 Y115.699 Z-0.150 F300.000
G1 X1.822 Y115.852 Z-0.150 F300.000
G1 X2.129 Y115.950 Z-0.150 F300.000
G1 X2.332 Y115.981 Z-0.150 F300.000
G1 X2.552 Y115.991 Z-0.150 F300.000
G1 X2.951 Y115.955 Z-0.150 F300.000
G1 X3.275 Y115.854 Z-0.150 F300.000
G1 X3.539 Y115.697 Z-0.150 F300.000
G1 X3.689 Y115.561 Z-0.150 F300.000
G1 X3.858 Y115.326 Z-0.150 F300.000
G1 X3.984 Y115.022 Z-0.150 F300.000
G1 X4.065 Y114.633 Z-0.150 F300.000
G1 X4.090 Y114.193 Z-0.150 F300.000
G1 X4.054 Y113.677 Z-0.150 F300.000
G1 X3.956 Y113.282 Z-0.150 F300.000
G1 X3.809 Y112.983 Z-0.150 F300.000
G1 X3.689 Y112.828 Z-0.150 F300.000
G1 X3.457 Y112.632 Z-0.150 F300.000
G1 X3.182 Y112.495 Z-0.150 F300.000
G1 X2.855 Y112.415 Z-0.150 F300.000
G1 X2.552 Y112.395 Z-0.150 F300.000
G1 X2.151 Y112.431 Z-0.150 F300.000
G1 X1.827 Y112.532 Z-0.150 F300.000
G1 X1.746 Y112.571 Z-0.150 F300.000
G1 X1.669 Y112.615 Z-0.150 F300.000
G1 X1.451 Y112.792 Z-0.150 F300.000
G1 X1.276 Y113.029 Z-0.150 F300.000
G1 X1.208 Y113.161 Z-0.150 F300.000
G1 X1.151 Y113.307 Z-0.150 F300.000
G1 X1.298 Y112.990 Z-0.150 F300.000
G1 X1.486 Y112.756 Z-0.150 F300.000
G1 X1.574 Y112.681 Z-0.150 F300.000
G1 X1.669 Y112.615 Z-0.150 F300.000
G1 X1.948 Y112.484 Z-0.150 F300.000
G1 X2.282 Y112.410 Z-0.150 F300.000
G1 X2.414 Y112.399 Z-0.150 F300.000
G1 X2.552 Y112.395 Z-0.150 F300.000
G1 X2.949 Y112.431 Z-0.150 F300.000
G1 X3.273 Y112.532 Z-0.150 F300.000
G1 X3.537 Y112.689 Z-0.150 F300.000
G1 X3.689 Y112.828 Z-0.150 F300.000
G1 X3.858 Y113.065 Z-0.150 F300.000
G1 X3.985 Y113.369 Z-0.150 F300.000
G1 X4.065 Y113.758 Z-0.150 F300.000
G1 X4.090 Y114.193 Z-0.150 F300.000
G1 X4.054 Y114.711 Z-0.150 F300.000
G1 X3.956 Y115.107 Z-0.150 F300.000
G1 X3.810 Y115.405 Z-0.150 F300.000
G1 X3.689 Y115.561 Z-0.150 F300.000
G1 X3.456 Y115.756 Z-0.150 F300.000
G1 X3.181 Y115.892 Z-0.150 F300.000
G1 X2.852 Y115.971 Z-0.150 F300.000
G1 X2.552 Y115.991 Z-0.150 F300.000
G1 X2.150 Y115.955 Z-0.150 F300.000
G1 X1.827 Y115.855 Z-0.150 F300.000
G1 X1.691 Y115.784 Z-0.150 F300.000
G1 X1.566 Y115.699 Z-0.150 F300.000
G1 X1.369 Y115.499 Z-0.150 F300.000
G1 X1.213 Y115.236 Z-0.150 F300.000
G1 X1.132 Y115.019 Z-0.150 F300.000
G1 X1.072 Y114.773 Z-0.150 F300.000
G0 Z6.000
G0 Z6.000
G0 Z6.000
G0 X3.660 Y125.998
G0 Z4.000
G1 X3.660 Y125.998 Z-0.150 F100.000
G1 X3.562 Y126.137 Z-0.150 F300.000
G1 X3.538 Y126.267 Z-0.150 F300.000
G1 X3.448 Y127.174 Z-0.150 F300.000
G1 X3.393 Y127.409 Z-0.150 F300.000
G1 X3.217 Y127.650 Z-0.150 F300.000
G1 X3.039 Y127.759 Z-0.150 F300.000
G1 X2.792 Y127.821 Z-0.150 F300.000
G1 X2.697 Y127.830 Z-0.150 F300.000
G1 X2.596 Y127.833 Z-0.150 F300.000
G1 X2.921 Y127.797 Z-0.150 F300.000
G1 X3.217 Y127.650 Z-0.150 F300.000
G1 X3.359 Y127.477 Z-0.150 F300.000
G1 X3.448 Y127.174 Z-0.150 F300.000
G1 X3.538 Y126.267 Z-0.150 F300.000
G1 X3.562 Y126.137 Z-0.150 F300.000
G1 X3.660 Y125.998 Z-0.150 F300.000
G0 Z6.000
G0 Z6.000
G0 X1.132 Y125.998
G0 Z4.000
G1 X1.132 Y125.998 Z-0.150 F100.000
G1 X1.132 Y129.594 Z-0.150 F300.000
G1 X2.427 Y129.594 Z-0.150 F300.000
G1 X2.736 Y129.579 Z-0.150 F300.000
G1 X2.983 Y129.536 Z-0.150 F300.000
G1 X3.175 Y129.467 Z-0.150 F300.000
G1 X3.320 Y129.374 Z-0.150 F300.000
G1 X3.425 Y129.259 Z-0.150 F300.000
G1 X3.493 Y129.122 Z-0.150 F300.000
G1 X3.553 Y128.796 Z-0.150 F300.000
G1 X3.513 Y128.441 Z-0.150 F300.000
G1 X3.422 Y128.227 Z-0.150 F300.000
G1 X3.351 Y128.131 Z-0.150 F300.000
G1 X3.172 Y127.986 Z-0.150 F300.000
G1 X3.029 Y127.915 Z-0.150 F300.000
G1 X2.768 Y127.848 Z-0.150 F300.000
G1 X2.527 Y127.833 Z-0.150 F300.000
G1 X1.132 Y127.833 Z-0.150 F300.000
G1 X2.527 Y127.833 Z-0.150 F300.000
G1 X2.875 Y127.868 Z-0.150 F300.000
G1 X3.021 Y127.915 Z-0.150 F300.000
G1 X3.202 Y128.010 Z-0.150 F300.000
G1 X3.342 Y128.131 Z-0.150 F300.000
G1 X3.471 Y128.328 Z-0.150 F300.000
G1 X3.511 Y128.441 Z-0.150 F300.000
G1 X3.553 Y128.796 Z-0.150 F300.000
G1 X3.490 Y129.122 Z-0.150 F300.000
G1 X3.391 Y129.297 Z-0.150 F300.000
G1 X3.314 Y129.374 Z-0.150 F300.000
G1 X3.125 Y129.485 Z-0.150 F300.000
G1 X2.973 Y129.536 Z-0.150 F300.000
G1 X2.644 Y129.587 Z-0.150 F300.000
G1 X2.427 Y129.594 Z-0.150 F300.000
G1 X1.132 Y129.594 Z-0.150 F300.000
G1 X1.132 Y125.998 Z-0.150 F300.000
G0 Z6.000
G0 Z6.000
G0 X5.447 Y125.998
G0 Z4.000
G1 X5.447 Y125.998 Z-0.150 F100.000
G1 X5.447 Y129.594 Z-0.150 F300.000
G1 X6.581 Y129.594 Z-0.150 F300.000
G1 X6.891 Y129.575 Z-0.150 F300.000
G1 X7.140 Y129.517 Z-0.150 F300.000
G1 X7.336 Y129.427 Z-0.150 F300.000
G1 X7.485 Y129.311 Z-0.150 F300.000
G1 X7.620 Y129.124 Z-0.150 F300.000
G1 X7.663 Y129.018 Z-0.150 F300.000
G1 X7.726 Y128.671 Z-0.150 F300.000
G1 X7.684 Y128.314 Z-0.150 F300.000
G1 X7.589 Y128.098 Z-0.150 F300.000
G1 X7.514 Y127.998 Z-0.150 F300.000
G1 X7.330 Y127.845 Z-0.150 F300.000
G1 X7.184 Y127.770 Z-0.150 F300.000
G1 X6.929 Y127.701 Z-0.150 F300.000
G1 X6.674 Y127.683 Z-0.150 F300.000
G1 X5.447 Y127.683 Z-0.150 F300.000
G1 X6.674 Y127.683 Z-0.150 F300.000
G1 X7.021 Y127.719 Z-0.150 F300.000
G1 X7.180 Y127.770 Z-0.150 F300.000
G1 X7.364 Y127.871 Z-0.150 F300.000
G1 X7.507 Y127.998 Z-0.150 F300.000
G1 X7.612 Y128.147 Z-0.150 F300.000
G1 X7.681 Y128.314 Z-0.150 F300.000
G1 X7.726 Y128.671 Z-0.150 F300.000
G1 X7.663 Y129.018 Z-0.150 F300.000
G1 X7.563 Y129.218 Z-0.150 F300.000
G1 X7.483 Y129.311 Z-0.150 F300.000
G1 X7.295 Y129.448 Z-0.150 F300.000
G1 X7.138 Y129.517 Z-0.150 F300.000
G1 X6.854 Y129.579 Z-0.150 F300.000
G1 X6.581 Y129.594 Z-0.150 F300.000
G1 X5.447 Y129.594 Z-0.150 F300.000
G1 X5.447 Y125.998 Z-0.150 F300.000
G0 Z6.000
G0 Z6.000
G0 X11.940 Y127.216
G0 Z4.000
G1 X11.940 Y127.216 Z-0.150 F100.000
G1 X11.830 Y126.825 Z-0.150 F300.000
G1 X11.674 Y126.532 Z-0.150 F300.000
G1 X11.567 Y126.401 Z-0.150 F300.000
G1 X11.445 Y126.290 Z-0.150 F300.000
G1 X11.190 Y126.136 Z-0.150 F300.000
G1 X10.883 Y126.038 Z-0.150 F300.000
G1 X10.680 Y126.008 Z-0.150 F300.000
G1 X10.460 Y125.998 Z-0.150 F300.000
G1 X10.061 Y126.034 Z-0.150 F300.000
G1 X9.737 Y126.135 Z-0.150 F300.000
G1 X9.472 Y126.292 Z-0.150 F300.000
G1 X9.323 Y126.428 Z-0.150 F300.000
G1 X9.154 Y126.663 Z-0.150 F300.000
G1 X9.028 Y126.967 Z-0.150 F300.000
G1 X8.947 Y127.356 Z-0.150 F300.000
G1 X8.922 Y127.796 Z-0.150 F300.000
G1 X8.958 Y128.311 Z-0.150 F300.000
G1 X9.056 Y128.706 Z-0.150 F300.000
G1 X9.202 Y129.005 Z-0.150 F300.000
G1 X9.323 Y129.160 Z-0.150 F300.000
G1 X9.555 Y129.357 Z-0.150 F300.000
G1 X9.830 Y129.493 Z-0.150 F300.000
G1 X10.157 Y129.573 Z-0.150 F300.000
G1 X10.460 Y129.594 Z-0.150 F300.000
G1 X10.861 Y129.558 Z-0.150 F300.000
G1 X11.185 Y129.457 Z-0.150 F300.000
G1 X11.266 Y129.418 Z-0.150 F300.000
G1 X11.343 Y129.374 Z-0.150 F300.000
G1 X11.561 Y129.197 Z-0.150 F300.000
G1 X11.736 Y128.960 Z-0.150 F300.000
G1 X11.804 Y128.828 Z-0.150 F300.000
G1 X11.861 Y128.682 Z-0.150 F300.000
G1 X11.713 Y128.998 Z-0.150 F300.000
G1 X11.526 Y129.232 Z-0.150 F300.000
G1 X11.438 Y129.308 Z-0.150 F300.000
G1 X11.343 Y129.374 Z-0.150 F300.000
G1 X11.064 Y129.504 Z-0.150 F300.000
G1 X10.730 Y129.578 Z-0.150 F300.000
G1 X10.598 Y129.590 Z-0.150 F300.000
G1 X10.460 Y129.594 Z-0.150 F300.000
G1 X10.062 Y129.558 Z-0.150 F300.000
G1 X9.739 Y129.457 Z-0.150 F300.000
G1 X9.475 Y129.299 Z-0.150 F300.000
G1 X9.323 Y129.160 Z-0.150 F300.000
G1 X9.154 Y128.924 Z-0.150 F300.000
G1 X9.027 Y128.619 Z-0.150 F300.000
G1 X8.947 Y128.230 Z-0.150 F300.000
G1 X8.922 Y127.796 Z-0.150 F300.000
G1 X8.958 Y127.278 Z-0.150 F300.000
G1 X9.056 Y126.882 Z-0.150 F300.000
G1 X9.202 Y126.583 Z-0.150 F300.000
G1 X9.323 Y126.428 Z-0.150 F300.000
G1 X9.555 Y126.233 Z-0.150 F300.000
G1 X9.831 Y126.097 Z-0.150 F300.000
G1 X10.160 Y126.017 Z-0.150 F300.000
G1 X10.460 Y125.998 Z-0.150 F300.000
G1 X10.862 Y126.034 Z-0.150 F300.000
G1 X11.185 Y126.134 Z-0.150 F300.000
G1 X11.321 Y126.205 Z-0.150 F300.000
G1 X11.445 Y126.290 Z-0.150 F300.000
G1 X11.643 Y126.489 Z-0.150 F300.000
G1 X11.799 Y126.752 Z-0.150 F300.000
G1 X11.880 Y126.970 Z-0.150 F300.000
G1 X11.940 Y127.216 Z-0.150 F300.000
G0 Z6.000
G0 Z6.000
G0 Z6.000
G0 X9.351 Y140.991
G0 Z4.000
G1 X9.351 Y140.991 Z-0.150 F100.000
G1 X9.449 Y140.851 Z-0.150 F300.000
G1 X9.473 Y140.721 Z-0.150 F300.000
G1 X9.563 Y139.814 Z-0.150 F300.000
G1 X9.619 Y139.580 Z-0.150 F300.000
G1 X9.795 Y139.339 Z-0.150 F300.000
G1 X9.973 Y139.230 Z-0.150 F300.000
G1 X10.220 Y139.168 Z-0.150 F300.000
G1 X10.314 Y139.159 Z-0.150 F300.000
G1 X10.416 Y139.156 Z-0.150 F300.000
G1 X10.091 Y139.192 Z-0.150 F300.000
G1 X9.795 Y139.339 Z-0.150 F300.000
G1 X9.653 Y139.512 Z-0.150 F300.000
G1 X9.563 Y139.814 Z-0.150 F300.000
G1 X9.473 Y140.721 Z-0.150 F300.000
G1 X9.449 Y140.851 Z-0.150 F300.000
G1 X9.351 Y140.991 Z-0.150 F300.000
G0 Z6.000
G0 Z6.000
G0 X11.880 Y140.991
G0 Z4.000
G1 X11.880 Y140.991 Z-0.150 F100.000
G1 X11.880 Y137.395 Z-0.150 F300.000
G1 X10.584 Y137.395 Z-0.150 F300.000
G1 X10.275 Y137.409 Z-0.150 F300.000
G1 X10.029 Y137.453 Z-0.150 F300.000
G1 X9.837 Y137.521 Z-0.150 F300.000
G1 X9.692 Y137.615 Z-0.150 F300.000
G1 X9.587 Y137.730 Z-0.150 F300.000
G1 X9.518 Y137.867 Z-0.150 F300.000
G1 X9.459 Y138.193 Z-0.150 F300.000
G1 X9.499 Y138.548 Z-0.150 F300.000
G1 X9.590 Y138.762 Z-0.150 F300.000
G1 X9.661 Y138.857 Z-0.150 F300.000
G1 X9.840 Y139.003 Z-0.150 F300.000
G1 X9.982 Y139.074 Z-0.150 F300.000
G1 X10.244 Y139.141 Z-0.150 F300.000
G1 X10.485 Y139.156 Z-0.150 F300.000
G1 X11.880 Y139.156 Z-0.150 F300.000
G1 X10.485 Y139.156 Z-0.150 F300.000
G1 X10.137 Y139.120 Z-0.150 F300.000
G1 X9.990 Y139.074 Z-0.150 F300.000
G1 X9.810 Y138.978 Z-0.150 F300.000
G1 X9.669 Y138.857 Z-0.150 F300.000
G1 X9.541 Y138.661 Z-0.150 F300.000
G1 X9.501 Y138.548 Z-0.150 F300.000
G1 X9.459 Y138.193 Z-0.150 F300.000
G1 X9.522 Y137.867 Z-0.150 F300.000
G1 X9.621 Y137.691 Z-0.150 F300.000
G1 X9.698 Y137.615 Z-0.150 F300.000
G1 X9.886 Y137.503 Z-0.150 F300.000
G1 X10.039 Y137.453 Z-0.150 F300.000
G1 X10.368 Y137.402 Z-0.150 F300.000
G1 X10.584 Y137.395 Z-0.150 F300.000
G1 X11.880 Y137.395 Z-0.150 F300.000
G1 X11.880 Y140.991 Z-0.150 F300.000
G0 Z6.000
G0 Z6.000
G0 X7.565 Y140.991
G0 Z4.000
G1 X7.565 Y140.991 Z-0.150 F100.000
G1 X7.565 Y137.395 Z-0.150 F300.000
G1 X6.431 Y137.395 Z-0.150 F300.000
G1 X6.121 Y137.414 Z-0.150 F300.000
G1 X5.872 Y137.472 Z-0.150 F300.000
G1 X5.676 Y137.562 Z-0.150 F300.000
G1 X5.527 Y137.677 Z-0.150 F300.000
G1 X5.392 Y137.864 Z-0.150 F300.000
G1 X5.349 Y137.971 Z-0.150 F300.000
G1 X5.286 Y138.318 Z-0.150 F300.000
G1 X5.328 Y138.674 Z-0.150 F300.000
G1 X5.423 Y138.891 Z-0.150 F300.000
G1 X5.498 Y138.991 Z-0.150 F300.000
G1 X5.682 Y139.144 Z-0.150 F300.000
G1 X5.827 Y139.219 Z-0.150 F300.000
G1 X6.083 Y139.288 Z-0.150 F300.000
G1 X6.338 Y139.305 Z-0.150 F300.000
G1 X7.565 Y139.305 Z-0.150 F300.000
G1 X6.338 Y139.305 Z-0.150 F300.000
G1 X5.990 Y139.269 Z-0.150 F300.000
G1 X5.832 Y139.219 Z-0.150 F300.000
G1 X5.648 Y139.117 Z-0.150 F300.000
G1 X5.505 Y138.991 Z-0.150 F300.000
G1 X5.400 Y138.842 Z-0.150 F300.000
G1 X5.331 Y138.674 Z-0.150 F300.000
G1 X5.286 Y138.318 Z-0.150 F300.000
G1 X5.349 Y137.971 Z-0.150 F300.000
G1 X5.449 Y137.770 Z-0.150 F300.000
G1 X5.529 Y137.677 Z-0.150 F300.000
G1 X5.717 Y137.540 Z-0.150 F300.000
G1 X5.874 Y137.472 Z-0.150 F300.000
G1 X6.158 Y137.409 Z-0.150 F300.000
G1 X6.431 Y137.395 Z-0.150 F300.000
G1 X7.565 Y137.395 Z-0.150 F300.000
G1 X7.565 Y140.991 Z-0.150 F300.000
G0 Z6.000
G0 Z6.000
G0 X1.072 Y139.773
G0 Z4.000
G1 X1.072 Y139.773 Z-0.150 F100.000
G1 X1.182 Y140.164 Z-0.150 F300.000
G1 X1.338 Y140.457 Z-0.150 F300.000
G1 X1.444 Y140.588 Z-0.150 F300.000
G1 X1.566 Y140.699 Z-0.150 F300.000
G1 X1.822 Y140.852 Z-0.150 F300.000
G1 X2.129 Y140.950 Z-0.150 F300.000
G1 X2.332 Y140.981 Z-0.150 F300.000
G1 X2.552 Y140.991 Z-0.150 F300.000
G1 X2.951 Y140.955 Z-0.150 F300.000
G1 X3.275 Y140.854 Z-0.150 F300.000
G1 X3.539 Y140.697 Z-0.150 F300.000
G1 X3.689 Y140.561 Z-0.150 F300.000
G1 X3.858 Y140.326 Z-0.150 F300.000
G1 X3.984 Y140.022 Z-0.150 F300.000
G1 X4.065 Y139.633 Z-0.150 F300.000
G1 X4.090 Y139.193 Z-0.150 F300.000
G1 X4.054 Y138.677 Z-0.150 F300.000
G1 X3.956 Y138.282 Z-0.150 F300.000
G1 X3.809 Y137.983 Z-0.150 F300.000
G1 X3.689 Y137.828 Z-0.150 F300.000
G1 X3.457 Y137.632 Z-0.150 F300.000
G1 X3.182 Y137.495 Z-0.150 F300.000
G1 X2.855 Y137.415 Z-0.150 F300.000
G1 X2.552 Y137.395 Z-0.150 F300.000
G1 X2.151 Y137.431 Z-0.150 F300.000
G1 X1.827 Y137.532 Z-0.150 F300.000
G1 X1.746 Y137.571 Z-0.150 F300.000
G1 X1.669 Y137.615 Z-0.150 F300.000
G1 X1.451 Y137.792 Z-0.150 F300.000
G1 X1.276 Y138.029 Z-0.150 F300.000
G1 X1.208 Y138.161 Z-0.150 F300.000
G1 X1.151 Y138.307 Z-0.150 F300.000
G1 X1.298 Y137.990 Z-0.150 F300.000
G1 X1.486 Y137.756 Z-0.150 F300.000
G1 X1.574 Y137.681 Z-0.150 F300.000
G1 X1.669 Y137.615 Z-0.150 F300.000
G1 X1.948 Y137.484 Z-0.150 F300.000
G1 X2.282 Y137.410 Z-0.150 F300.000
G1 X2.414 Y137.399 Z-0.150 F300.000
G1 X2.552 Y137.395 Z-0.150 F300.000
G1 X2.949 Y137.431 Z-0.150 F300.000
G1 X3.273 Y137.532 Z-0.150 F300.000
G1 X3.537 Y137.689 Z-0.150 F300.000
G1 X3.689 Y137.828 Z-0.150 F300.000
G1 X3.858 Y138.065 Z-0.150 F300.000
G1 X3.985 Y138.369 Z-0.150 F300.000
G1 X4.065 Y138.758 Z-0.150 F300.000
G1 X4.090 Y139.193 Z-0.150 F300.000
G1 X4.054 Y139.711 Z-0.150 F300.000
G1 X3.956 Y140.107 Z-0.150 F300.000
G1 X3.810 Y140.405 Z-0.150 F300.000
G1 X3.689 Y140.561 Z-0.150 F300.000
G1 X3.456 Y140.756 Z-0.150 F300.000
G1 X3.181 Y140.892 Z-0.150 F300.000
G1 X2.852 Y140.971 Z-0.150 F300.000
G1 X2.552 Y140.991 Z-0.150 F300.000
G1 X2.150 Y140.955 Z-0.150 F300.000
G1 X1.827 Y140.855 Z-0.150 F300.000
G1 X1.691 Y140.784 Z-0.150 F300.000
G1 X1.566 Y140.699 Z-0.150 F300.000
G1 X1.369 Y140.499 Z-0.150 F300.000
G1 X1.213 Y140.236 Z-0.150 F300.000
G1 X1.132 Y140.019 Z-0.150 F300.000
G1 X1.072 Y139.773 Z-0.150 F300.000
G0 Z6.000
G0 Z6.000
G0 Z6.000
G0 X51.351 Y140.991
G0 Z4.000
G1 X51.351 Y140.991 Z-0.150 F100.000
G1 X51.449 Y140.851 Z-0.150 F300.000
G1 X51.473 Y140.721 Z-0.150 F300.000
G1 X51.563 Y139.814 Z-0.150 F300.000
G1 X51.619 Y139.580 Z-0.150 F300.000
G1 X51.795 Y139.339 Z-0.150 F300.000
G1 X51.973 Y139.230 Z-0.150 F300.000
G1 X52.220 Y139.168 Z-0.150 F300.000
G1 X52.314 Y139.159 Z-0.150 F300.000
G1 X52.416 Y139.156 Z-0.150 F300.000
G1 X52.091 Y139.192 Z-0.150 F300.000
G1 X51.795 Y139.339 Z-0.150 F300.000
G1 X51.653 Y139.512 Z-0.150 F300.000
G1 X51.563 Y139.814 Z-0.150 F300.000
G1 X51.473 Y140.721 Z-0.150 F300.000
G1 X51.449 Y140.851 Z-0.150 F300.000
G1 X51.351 Y140.991 Z-0.150 F300.000
G0 Z6.000
G0 Z6.000
G0 X53.880 Y140.991
G0 Z4.000
G1 X53.880 Y140.991 Z-0.150 F100.000
G1 X53.880 Y137.395 Z-0.150 F300.000
G1 X52.584 Y137.395 Z-0.150 F300.000
G1 X52.275 Y137.409 Z-0.150 F300.000
G1 X52.029 Y137.453 Z-0.150 F300.000
G1 X51.837 Y137.521 Z-0.150 F300.000
G1 X51.692 Y137.615 Z-0.150 F300.000
G1 X51.587 Y137.730 Z-0.150 F300.000
G1 X51.518 Y137.867 Z-0.150 F300.000
G1 X51.459 Y138.193 Z-0.150 F300.000
G1 X51.499 Y138.548 Z-0.150 F300.000
G1 X51.590 Y138.762 Z-0.150 F300.000
G1 X51.661 Y138.857 Z-0.150 F300.000
G1 X51.840 Y139.003 Z-0.150 F300.000
G1 X51.982 Y139.074 Z-0.150 F300.000
G1 X52.244 Y139.141 Z-0.150 F300.000
G1 X52.485 Y139.156 Z-0.150 F300.000
G1 X53.880 Y139.156 Z-0.150 F300.000
G1 X52.485 Y139.156 Z-0.150 F300.000
G1 X52.137 Y139.120 Z-0.150 F300.000
G1 X51.990 Y139.074 Z-0.150 F300.000
G1 X51.810 Y138.978 Z-0.150 F300.000
G1 X51.669 Y138.857 Z-0.150 F300.000
G1 X51.541 Y138.661 Z-0.150 F300.000
G1 X51.501 Y138.548 Z-0.150 F300.000
G1 X51.459 Y138.193 Z-0.150 F300.000
G1 X51.522 Y137.867 Z-0.150 F300.000
G1 X51.621 Y137.691 Z-0.150 F300.000
G1 X51.698 Y137.615 Z-0.150 F300.000
G1 X51.886 Y137.503 Z-0.150 F300.000
G1 X52.039 Y137.453 Z-0.150 F300.000
G1 X52.368 Y137.402 Z-0.150 F300.000
G1 X52.584 Y137.395 Z-0.150 F300.000
G1 X53.880 Y137.395 Z-0.150 F300.000
G1 X53.880 Y140.991 Z-0.150 F300.000
G0 Z6.000
G0 Z6.000
G0 X49.565 Y140.991
G0 Z4.000
G1 X49.565 Y140.991 Z-0.150 F100.000
G1 X49.565 Y137.395 Z-0.150 F300.000
G1 X48.431 Y137.395 Z-0.150 F300.000
G1 X48.121 Y137.414 Z-0.150 F300.000
G1 X47.872 Y137.472 Z-0.150 F300.000
G1 X47.676 Y137.562 Z-0.150 F300.000
G1 X47.527 Y137.677 Z-0.150 F300.000
G1 X47.392 Y137.864 Z-0.150 F300.000
G1 X47.349 Y137.971 Z-0.150 F300.000
G1 X47.286 Y138.318 Z-0.150 F300.000
G1 X47.328 Y138.674 Z-0.150 F300.000
G1 X47.423 Y138.891 Z-0.150 F300.000
G1 X47.498 Y138.991 Z-0.150 F300.000
G1 X47.682 Y139.144 Z-0.150 F300.000
G1 X47.827 Y139.219 Z-0.150 F300.000
G1 X48.083 Y139.288 Z-0.150 F300.000
G1 X48.338 Y139.305 Z-0.150 F300.000
G1 X49.565 Y139.305 Z-0.150 F300.000
G1 X48.338 Y139.305 Z-0.150 F300.000
G1 X47.990 Y139.269 Z-0.150 F300.000
G1 X47.832 Y139.219 Z-0.150 F300.000
G1 X47.648 Y139.117 Z-0.150 F300.000
G1 X47.505 Y138.991 Z-0.150 F300.000
G1 X47.400 Y138.842 Z-0.150 F300.000
G1 X47.331 Y138.674 Z-0.150 F300.000
G1 X47.286 Y138.318 Z-0.150 F300.000
G1 X47.349 Y137.971 Z-0.150 F300.000
G1 X47.449 Y137.770 Z-0.150 F300.000
G1 X47.529 Y137.677 Z-0.150 F300.000
G1 X47.717 Y137.540 Z-0.150 F300.000
G1 X47.874 Y137.472 Z-0.150 F300.000
G1 X48.158 Y137.409 Z-0.150 F300.000
G1 X48.431 Y137.395 Z-0.150 F300.000
G1 X49.565 Y137.395 Z-0.150 F300.000
G1 X49.565 Y140.991 Z-0.150 F300.000
G0 Z6.000
G0 Z6.000
G0 X43.072 Y139.773
G0 Z4.000
G1 X43.072 Y139.773 Z-0.150 F100.000
G1 X43.182 Y140.164 Z-0.150 F300.000
G1 X43.338 Y140.457 Z-0.150 F300.000
G1 X43.444 Y140.588 Z-0.150 F300.000
G1 X43.566 Y140.699 Z-0.150 F300.000
G1 X43.822 Y140.852 Z-0.150 F300.000
G1 X44.129 Y140.950 Z-0.150 F300.000
G1 X44.332 Y140.981 Z-0.150 F300.000
G1 X44.552 Y140.991 Z-0.150 F300.000
G1 X44.951 Y140.955 Z-0.150 F300.000
G1 X45.275 Y140.854 Z-0.150 F300.000
G1 X45.539 Y140.697 Z-0.150 F300.000
G1 X45.689 Y140.561 Z-0.150 F300.000
G1 X45.858 Y140.326 Z-0.150 F300.000
G1 X45.984 Y140.022 Z-0.150 F300.000
G1 X46.065 Y139.633 Z-0.150 F300.000
G1 X46.090 Y139.193 Z-0.150 F300.000
G1 X46.054 Y138.677 Z-0.150 F300.000
G1 X45.956 Y138.282 Z-0.150 F300.000
G1 X45.809 Y137.983 Z-0.150 F300.000
G1 X45.689 Y137.828 Z-0.150 F300.000
G1 X45.457 Y137.632 Z-0.150 F300.000
G1 X45.182 Y137.495 Z-0.150 F300.000
G1 X44.855 Y137.415 Z-0.150 F300.000
G1 X44.552 Y137.395 Z-0.150 F300.000
G1 X44.151 Y137.431 Z-0.150 F300.000
G1 X43.827 Y137.532 Z-0.150 F300.000
G1 X43.746 Y137.571 Z-0.150 F300.000
G1 X43.669 Y137.615 Z-0.150 F300.000
G1 X43.451 Y137.792 Z-0.150 F300.000
G1 X43.276 Y138.029 Z-0.150 F300.000
G1 X43.208 Y138.161 Z-0.150 F300.000
G1 X43.151 Y138.307 Z-0.150 F300.000
G1 X43.298 Y137.990 Z-0.150 F300.000
G1 X43.486 Y137.756 Z-0.150 F300.000
G1 X43.574 Y137.681 Z-0.150 F300.000
G1 X43.669 Y137.615 Z-0.150 F300.000
G1 X43.948 Y137.484 Z-0.150 F300.000
G1 X44.282 Y137.410 Z-0.150 F300.000
G1 X44.414 Y137.399 Z-0.150 F300.000
G1 X44.552 Y137.395 Z-0.150 F300.000
G1 X44.949 Y137.431 Z-0.150 F300.000
G1 X45.273 Y137.532 Z-0.150 F300.000
G1 X45.537 Y137.689 Z-0.150 F300.000
G1 X45.689 Y137.828 Z-0.150 F300.000
G1 X45.858 Y138.065 Z-0.150 F300.000
G1 X45.985 Y138.369 Z-0.150 F300.000
G1 X46.065 Y138.758 Z-0.150 F300.000
G1 X46.090 Y139.193 Z-0.150 F300.000
G1 X46.054 Y139.711 Z-0.150 F300.000
G1 X45.956 Y140.107 Z-0.150 F300.000
G1 X45.810 Y140.405 Z-0.150 F300.000
G1 X45.689 Y140.561 Z-0.150 F300.000
G1 X45.456 Y140.756 Z-0.150 F300.000
G1 X45.181 Y140.892 Z-0.150 F300.000
G1 X44.852 Y140.971 Z-0.150 F300.000
G1 X44.552 Y140.991 Z-0.150 F300.000
G1 X44.150 Y140.955 Z-0.150 F300.000
G1 X43.827 Y140.855 Z-0.150 F300.000
G1 X43.691 Y140.784 Z-0.150 F300.000
G1 X43.566 Y140.699 Z-0.150 F300.000
G1 X43.369 Y140.499 Z-0.150 F300.000
G1 X43.213 Y140.236 Z-0.150 F300.000
G1 X43.132 Y140.019 Z-0.150 F300.000
G1 X43.072 Y139.773 Z-0.150 F300.000
G0 Z6.000
G0 Z6.000
G0 Z6.000
G0 X45.660 Y125.998
G0 Z4.000
G1 X45.660 Y125.998 Z-0.150 F100.000
G1 X45.562 Y126.137 Z-0.150 F300.000
G1 X45.538 Y126.267 Z-0.150 F300.000
G1 X45.448 Y127.174 Z-0.150 F300.000
G1 X45.393 Y127.409 Z-0.150 F300.000
G1 X45.217 Y127.650 Z-0.150 F300.000
G1 X45.039 Y127.759 Z-0.150 F300.000
G1 X44.792 Y127.821 Z-0.150 F300.000
G1 X44.697 Y127.830 Z-0.150 F300.000
G1 X44.596 Y127.833 Z-0.150 F300.000
G1 X44.921 Y127.797 Z-0.150 F300.000
G1 X45.217 Y127.650 Z-0.150 F300.000
G1 X45.359 Y127.477 Z-0.150 F300.000
G1 X45.448 Y127.174 Z-0.150 F300.000
G1 X45.538 Y126.267 Z-0.150 F300.000
G1 X45.562 Y126.137 Z-0.150 F300.000
G1 X45.660 Y125.998 Z-0.150 F300.000
G0 Z6.000
G0 Z6.000
G0 X43.132 Y125.998
G0 Z4.000
G1 X43.132 Y125.998 Z-0.150 F100.000
G1 X43.132 Y129.594 Z-0.150 F300.000
G1 X44.427 Y129.594 Z-0.150 F300.000
G1 X44.736 Y129.579 Z-0.150 F300.000
G1 X44.983 Y129.536 Z-0.150 F300.000
G1 X45.175 Y129.467 Z-0.150 F300.000
G1 X45.320 Y129.374 Z-0.150 F300.000
G1 X45.425 Y129.259 Z-0.150 F300.000
G1 X45.493 Y129.122 Z-0.150 F300.000
G1 X45.553 Y128.796 Z-0.150 F300.000
G1 X45.513 Y128.441 Z-0.150 F300.000
G1 X45.422 Y128.227 Z-0.150 F300.000
G1 X45.351 Y128.131 Z-0.150 F300.000
G1 X45.172 Y127.986 Z-0.150 F300.000
G1 X45.029 Y127.915 Z-0.150 F300.000
G1 X44.768 Y127.848 Z-0.150 F300.000
G1 X44.527 Y127.833 Z-0.150 F300.000
G1 X43.132 Y127.833 Z-0.150 F300.000
G1 X44.527 Y127.833 Z-0.150 F300.000
G1 X44.875 Y127.868 Z-0.150 F300.000
G1 X45.021 Y127.915 Z-0.150 F300.000
G1 X45.202 Y128.010 Z-0.150 F300.000
G1 X45.342 Y128.131 Z-0.150 F300.000
G1 X45.471 Y128.328 Z-0.150 F300.000
G1 X45.511 Y128.441 Z-0.150 F300.000
G1 X45.553 Y128.796 Z-0.150 F300.000
G1 X45.490 Y129.122 Z-0.150 F300.000
G1 X45.391 Y129.297 Z-0.150 F300.000
G1 X45.314 Y129.374 Z-0.150 F300.000
G1 X45.125 Y129.485 Z-0.150 F300.000
G1 X44.973 Y129.536 Z-0.150 F300.000
G1 X44.644 Y129.587 Z-0.150 F300.000
G1 X44.427 Y129.594 Z-0.150 F300.000
G1 X43.132 Y129.594 Z-0.150 F300.000
G1 X43.132 Y125.998 Z-0.150 F300.000
G0 Z6.000
G0 Z6.000
G0 X47.447 Y125.998
G0 Z4.000
G1 X47.447 Y125.998 Z-0.150 F100.000
G1 X47.447 Y129.594 Z-0.150 F300.000
G1 X48.581 Y129.594 Z-0.150 F300.000
G1 X48.891 Y129.575 Z-0.150 F300.000
G1 X49.140 Y129.517 Z-0.150 F300.000
G1 X49.336 Y129.427 Z-0.150 F300.000
G1 X49.485 Y129.311 Z-0.150 F300.000
G1 X49.620 Y129.124 Z-0.150 F300.000
G1 X49.663 Y129.018 Z-0.150 F300.000
G1 X49.726 Y128.671 Z-0.150 F300.000
G1 X49.684 Y128.314 Z-0.150 F300.000
G1 X49.589 Y128.098 Z-0.150 F300.000
G1 X49.514 Y127.998 Z-0.150 F300.000
G1 X49.330 Y127.845 Z-0.150 F300.000
G1 X49.184 Y127.770 Z-0.150 F300.000
G1 X48.929 Y127.701 Z-0.150 F300.000
G1 X48.674 Y127.683 Z-0.150 F300.000
G1 X47.447 Y127.683 Z-0.150 F300.000
G1 X48.674 Y127.683 Z-0.150 F300.000
G1 X49.021 Y127.719 Z-0.150 F300.000
G1 X49.180 Y127.770 Z-0.150 F300.000
G1 X49.364 Y127.871 Z-0.150 F300.000
G1 X49.507 Y127.998 Z-0.150 F300.000
G1 X49.612 Y128.147 Z-0.150 F300.000
G1 X49.681 Y128.314 Z-0.150 F300.000
G1 X49.726 Y128.671 Z-0.150 F300.000
G1 X49.663 Y129.018 Z-0.150 F300.000
G1 X49.563 Y129.218 Z-0.150 F300.000
G1 X49.483 Y129.311 Z-0.150 F300.000
G1 X49.295 Y129.448 Z-0.150 F300.000
G1 X49.138 Y129.517 Z-0.150 F300.000
G1 X48.854 Y129.579 Z-0.150 F300.000
G1 X48.581 Y129.594 Z-0.150 F300.000
G1 X47.447 Y129.594 Z-0.150 F300.000
G1 X47.447 Y125.998 Z-0.150 F300.000
G0 Z6.000
G0 Z6.000
G0 X53.940 Y127.216
G0 Z4.000
G1 X53.940 Y127.216 Z-0.150 F100.000
G1 X53.830 Y126.825 Z-0.150 F300.000
G1 X53.674 Y126.532 Z-0.150 F300.000
G1 X53.567 Y126.401 Z-0.150 F300.000
G1 X53.445 Y126.290 Z-0.150 F300.000
G1 X53.190 Y126.136 Z-0.150 F300.000
G1 X52.883 Y126.038 Z-0.150 F300.000
G1 X52.680 Y126.008 Z-0.150 F300.000
G1 X52.460 Y125.998 Z-0.150 F300.000
G1 X52.061 Y126.034 Z-0.150 F300.000
G1 X51.737 Y126.135 Z-0.150 F300.000
G1 X51.472 Y126.292 Z-0.150 F300.000
G1 X51.323 Y126.428 Z-0.150 F300.000
G1 X51.154 Y126.663 Z-0.150 F300.000
G1 X51.028 Y126.967 Z-0.150 F300.000
G1 X50.947 Y127.356 Z-0.150 F300.000
G1 X50.922 Y127.796 Z-0.150 F300.000
G1 X50.958 Y128.311 Z-0.150 F300.000
G1 X51.056 Y128.706 Z-0.150 F300.000
G1 X51.202 Y129.005 Z-0.150 F300.000
G1 X51.323 Y129.160 Z-0.150 F300.000
G1 X51.555 Y129.357 Z-0.150 F300.000
G1 X51.830 Y129.493 Z-0.150 F300.000
G1 X52.157 Y129.573 Z-0.150 F300.000
G1 X52.460 Y129.594 Z-0.150 F300.000
G1 X52.861 Y129.558 Z-0.150 F300.000
G1 X53.185 Y129.457 Z-0.150 F300.000
G1 X53.266 Y129.418 Z-0.150 F300.000
G1 X53.343 Y129.374 Z-0.150 F300.000
G1 X53.561 Y129.197 Z-0.150 F300.000
G1 X53.736 Y128.960 Z-0.150 F300.000
G1 X53.804 Y128.828 Z-0.150 F300.000
G1 X53.861 Y128.682 Z-0.150 F300.000
G1 X53.713 Y128.998 Z-0.150 F300.000
G1 X53.526 Y129.232 Z-0.150 F300.000
G1 X53.438 Y129.308 Z-0.150 F300.000
G1 X53.343 Y129.374 Z-0.150 F300.000
G1 X53.064 Y129.504 Z-0.150 F300.000
G1 X52.730 Y129.578 Z-0.150 F300.000
G1 X52.598 Y129.590 Z-0.150 F300.000
G1 X52.460 Y129.594 Z-0.150 F300.000
G1 X52.062 Y129.558 Z-0.150 F300.000
G1 X51.739 Y129.457 Z-0.150 F300.000
G1 X51.475 Y129.299 Z-0.150 F300.000
G1 X51.323 Y129.160 Z-0.150 F300.000
G1 X51.154 Y128.924 Z-0.150 F300.000
G1 X51.027 Y128.619 Z-0.150 F300.000
G1 X50.947 Y128.230 Z-0.150 F300.000
G1 X50.922 Y127.796 Z-0.150 F300.000
G1 X50.958 Y127.278 Z-0.150 F300.000
G1 X51.056 Y126.882 Z-0.150 F300.000
G1 X51.202 Y126.583 Z-0.150 F300.000
G1 X51.323 Y126.428 Z-0.150 F300.000
G1 X51.555 Y126.233 Z-0.150 F300.000
G1 X51.831 Y126.097 Z-0.150 F300.000
G1 X52.160 Y126.017 Z-0.150 F300.000
G1 X52.460 Y125.998 Z-0.150 F300.000
G1 X52.862 Y126.034 Z-0.150 F300.000
G1 X53.185 Y126.134 Z-0.150 F300.000
G1 X53.321 Y126.205 Z-0.150 F300.000
G1 X53.445 Y126.290 Z-0.150 F300.000
G1 X53.643 Y126.489 Z-0.150 F300.000
G1 X53.799 Y126.752 Z-0.150 F300.000
G1 X53.880 Y126.970 Z-0.150 F300.000
G1 X53.940 Y127.216 Z-0.150 F300.000
G0 Z6.000
G0 Z6.000
G0 Z6.000
G0 X51.351 Y115.991
G0 Z4.000
G1 X51.351 Y115.991 Z-0.150 F100.000
G1 X51.449 Y115.851 Z-0.150 F300.000
G1 X51.473 Y115.721 Z-0.150 F300.000
G1 X51.563 Y114.814 Z-0.150 F300.000
G1 X51.619 Y114.580 Z-0.150 F300.000
G1 X51.795 Y114.339 Z-0.150 F300.000
G1 X51.973 Y114.230 Z-0.150 F300.000
G1 X52.220 Y114.168 Z-0.150 F300.000
G1 X52.314 Y114.159 Z-0.150 F300.000
G1 X52.416 Y114.156 Z-0.150 F300.000
G1 X52.091 Y114.192 Z-0.150 F300.000
G1 X51.795 Y114.339 Z-0.150 F300.000
G1 X51.653 Y114.512 Z-0.150 F300.000
G1 X51.563 Y114.814 Z-0.150 F300.000
G1 X51.473 Y115.721 Z-0.150 F300.000
G1 X51.449 Y115.851 Z-0.150 F300.000
G1 X51.351 Y115.991 Z-0.150 F300.000
G0 Z6.000
G0 Z6.000
G0 X53.880 Y115.991
G0 Z4.000
G1 X53.880 Y115.991 Z-0.150 F100.000
G1 X53.880 Y112.395 Z-0.150 F300.000
G1 X52.584 Y112.395 Z-0.150 F300.000
G1 X52.275 Y112.409 Z-0.150 F300.000
G1 X52.029 Y112.453 Z-0.150 F300.000
G1 X51.837 Y112.521 Z-0.150 F300.000
G1 X51.692 Y112.615 Z-0.150 F300.000
G1 X51.587 Y112.730 Z-0.150 F300.000
G1 X51.518 Y112.867 Z-0.150 F300.000
G1 X51.459 Y113.193 Z-0.150 F300.000
G1 X51.499 Y113.548 Z-0.150 F300.000
G1 X51.590 Y113.762 Z-0.150 F300.000
G1 X51.661 Y113.857 Z-0.150 F300.000
G1 X51.840 Y114.003 Z-0.150 F300.000
G1 X51.982 Y114.074 Z-0.150 F300.000
G1 X52.244 Y114.141 Z-0.150 F300.000
G1 X52.485 Y114.156 Z-0.150 F300.000
G1 X53.880 Y114.156 Z-0.150 F300.000
G1 X52.485 Y114.156 Z-0.150 F300.000
G1 X52.137 Y114.120 Z-0.150 F300.000
G1 X51.990 Y114.074 Z-0.150 F300.000
G1 X51.810 Y113.978 Z-0.150 F300.000
G1 X51.669 Y113.857 Z-0.150 F300.000
G1 X51.541 Y113.661 Z-0.150 F300.000
G1 X51.501 Y113.548 Z-0.150 F300.000
G1 X51.459 Y113.193 Z-0.150 F300.000
G1 X51.522 Y112.867 Z-0.150 F300.000
G1 X51.621 Y112.691 Z-0.150 F300.000
G1 X51.698 Y112.615 Z-0.150 F300.000
G1 X51.886 Y112.503 Z-0.150 F300.000
G1 X52.039 Y112.453 Z-0.150 F300.000
G1 X52.368 Y112.402 Z-0.150 F300.000
G1 X52.584 Y112.395 Z-0.150 F300.000
G1 X53.880 Y112.395 Z-0.150 F300.000
G1 X53.880 Y115.991 Z-0.150 F300.000
G0 Z6.000
G0 Z6.000
G0 X49.565 Y115.991
G0 Z4.000
G1 X49.565 Y115.991 Z-0.150 F100.000
G1 X49.565 Y112.395 Z-0.150 F300.000
G1 X48.431 Y112.395 Z-0.150 F300.000
G1 X48.121 Y112.414 Z-0.150 F300.000
G1 X47.872 Y112.472 Z-0.150 F300.000
G1 X47.676 Y112.562 Z-0.150 F300.000
G1 X47.527 Y112.677 Z-0.150 F300.000
G1 X47.392 Y112.864 Z-0.150 F300.000
G1 X47.349 Y112.971 Z-0.150 F300.000
G1 X47.286 Y113.318 Z-0.150 F300.000
G1 X47.328 Y113.674 Z-0.150 F300.000
G1 X47.423 Y113.891 Z-0.150 F300.000
G1 X47.498 Y113.991 Z-0.150 F300.000
G1 X47.682 Y114.144 Z-0.150 F300.000
G1 X47.827 Y114.219 Z-0.150 F300.000
G1 X48.083 Y114.288 Z-0.150 F300.000
G1 X48.338 Y114.305 Z-0.150 F300.000
G1 X49.565 Y114.305 Z-0.150 F300.000
G1 X48.338 Y114.305 Z-0.150 F300.000
G1 X47.990 Y114.269 Z-0.150 F300.000
G1 X47.832 Y114.219 Z-0.150 F300.000
G1 X47.648 Y114.117 Z-0.150 F300.000
G1 X47.505 Y113.991 Z-0.150 F300.000
G1 X47.400 Y113.842 Z-0.150 F300.000
G1 X47.331 Y113.674 Z-0.150 F300.000
G1 X47.286 Y113.318 Z-0.150 F300.000
G1 X47.349 Y112.971 Z-0.150 F300.000
G1 X47.449 Y112.770 Z-0.150 F300.000
G1 X47.529 Y112.677 Z-0.150 F300.000
G1 X47.717 Y112.540 Z-0.150 F300.000
G1 X47.874 Y112.472 Z-0.150 F300.000
G1 X48.158 Y112.409 Z-0.150 F300.000
G1 X48.431 Y112.395 Z-0.150 F300.000
G1 X49.565 Y112.395 Z-0.150 F300.000
G1 X49.565 Y115.991 Z-0.150 F300.000
G0 Z6.000
G0 Z6.000
G0 X43.072 Y114.773
G0 Z4.000
G1 X43.072 Y114.773 Z-0.150 F100.000
G1 X43.182 Y115.164 Z-0.150 F300.000
G1 X43.338 Y115.457 Z-0.150 F300.000
G1 X43.444 Y115.588 Z-0.150 F300.000
G1 X43.566 Y115.699 Z-0.150 F300.000
G1 X43.822 Y115.852 Z-0.150 F300.000
G1 X44.129 Y115.950 Z-0.150 F300.000
G1 X44.332 Y115.981 Z-0.150 F300.000
G1 X44.552 Y115.991 Z-0.150 F300.000
G1 X44.951 Y115.955 Z-0.150 F300.000
G1 X45.275 Y115.854 Z-0.150 F300.000
G1 X45.539 Y115.697 Z-0.150 F300.000
G1 X45.689 Y115.561 Z-0.150 F300.000
G1 X45.858 Y115.326 Z-0.150 F300.000
G1 X45.984 Y115.022 Z-0.150 F300.000
G1 X46.065 Y114.633 Z-0.150 F300.000
G1 X46.090 Y114.193 Z-0.150 F300.000
G1 X46.054 Y113.677 Z-0.150 F300.000
G1 X45.956 Y113.282 Z-0.150 F300.000
G1 X45.809 Y112.983 Z-0.150 F300.000
G1 X45.689 Y112.828 Z-0.150 F300.000
G1 X45.457 Y112.632 Z-0.150 F300.000
G1 X45.182 Y112.495 Z-0.150 F300.000
G1 X44.855 Y112.415 Z-0.150 F300.000
G1 X44.552 Y112.395 Z-0.150 F300.000
G1 X44.151 Y112.431 Z-0.150 F300.000
G1 X43.827 Y112.532 Z-0.150 F300.000
G1 X43.746 Y112.571 Z-0.150 F300.000
G1 X43.669 Y112.615 Z-0.150 F300.000
G1 X43.451 Y112.792 Z-0.150 F300.000
G1 X43.276 Y113.029 Z-0.150 F300.000
G1 X43.208 Y113.161 Z-0.150 F300.000
G1 X43.151 Y113.307 Z-0.150 F300.000
G1 X43.298 Y112.990 Z-0.150 F300.000
G1 X43.486 Y112.756 Z-0.150 F300.000
G1 X43.574 Y112.681 Z-0.150 F300.000
G1 X43.669 Y112.615 Z-0.150 F300.000
G1 X43.948 Y112.484 Z-0.150 F300.000
G1 X44.282 Y112.410 Z-0.150 F300.000
G1 X44.414 Y112.399 Z-0.150 F300.000
G1 X44.552 Y112.395 Z-0.150 F300.000
G1 X44.949 Y112.431 Z-0.150 F300.000
G1 X45.273 Y112.532 Z-0.150 F300.000
G1 X45.537 Y112.689 Z-0.150 F300.000
G1 X45.689 Y112.828 Z-0.150 F300.000
G1 X45.858 Y113.065 Z-0.150 F300.000
G1 X45.985 Y113.369 Z-0.150 F300.000
G1 X46.065 Y113.758 Z-0.150 F300.000
G1 X46.090 Y114.193 Z-0.150 F300.000
G1 X46.054 Y114.711 Z-0.150 F300.000
G1 X45.956 Y115.107 Z-0.150 F300.000
G1 X45.810 Y115.405 Z-0.150 F300.000
G1 X45.689 Y115.561 Z-0.150 F300.000
G1 X45.456 Y115.756 Z-0.150 F300.000
G1 X45.181 Y115.892 Z-0.150 F300.000
G1 X44.852 Y115.971 Z-0.150 F300.000
G1 X44.552 Y115.991 Z-0.150 F300.000
G1 X44.150 Y115.955 Z-0.150 F300.000
G1 X43.827 Y115.855 Z-0.150 F300.000
G1 X43.691 Y115.784 Z-0.150 F300.000
G1 X43.566 Y115.699 Z-0.150 F300.000
G1 X43.369 Y115.499 Z-0.150 F300.000
G1 X43.213 Y115.236 Z-0.150 F300.000
G1 X43.132 Y115.019 Z-0.150 F300.000
G1 X43.072 Y114.773 Z-0.150 F300.000
G0 Z6.000
G0 Z6.000
G0 Z6.000
G0 X45.660 Y100.998
G0 Z4.000
G1 X45.660 Y100.998 Z-0.150 F100.000
G1 X45.562 Y101.137 Z-0.150 F300.000
G1 X45.538 Y101.267 Z-0.150 F300.000
G1 X45.448 Y102.174 Z-0.150 F300.000
G1 X45.393 Y102.409 Z-0.150 F300.000
G1 X45.217 Y102.650 Z-0.150 F300.000
G1 X45.039 Y102.759 Z-0.150 F300.000
G1 X44.792 Y102.821 Z-0.150 F300.000
G1 X44.697 Y102.830 Z-0.150 F300.000
G1 X44.596 Y102.833 Z-0.150 F300.000
G1 X44.921 Y102.797 Z-0.150 F300.000
G1 X45.217 Y102.650 Z-0.150 F300.000
G1 X45.359 Y102.477 Z-0.150 F300.000
G1 X45.448 Y102.174 Z-0.150 F300.000
G1 X45.538 Y101.267 Z-0.150 F300.000
G1 X45.562 Y101.137 Z-0.150 F300.000
G1 X45.660 Y100.998 Z-0.150 F300.000
G0 Z6.000
G0 Z6.000
G0 X43.132 Y100.998
G0 Z4.000
G1 X43.132 Y100.998 Z-0.150 F100.000
G1 X43.132 Y104.594 Z-0.150 F300.000
G1 X44.427 Y104.594 Z-0.150 F300.000
G1 X44.736 Y104.579 Z-0.150 F300.000
G1 X44.983 Y104.536 Z-0.150 F300.000
G1 X45.175 Y104.467 Z-0.150 F300.000
G1 X45.320 Y104.374 Z-0.150 F300.000
G1 X45.425 Y104.259 Z-0.150 F300.000
G1 X45.493 Y104.122 Z-0.150 F300.000
G1 X45.553 Y103.796 Z-0.150 F300.000
G1 X45.513 Y103.441 Z-0.150 F300.000
G1 X45.422 Y103.227 Z-0.150 F300.000
G1 X45.351 Y103.131 Z-0.150 F300.000
G1 X45.172 Y102.986 Z-0.150 F300.000
G1 X45.029 Y102.915 Z-0.150 F300.000
G1 X44.768 Y102.848 Z-0.150 F300.000
G1 X44.527 Y102.833 Z-0.150 F300.000
G1 X43.132 Y102.833 Z-0.150 F300.000
G1 X44.527 Y102.833 Z-0.150 F300.000
G1 X44.875 Y102.868 Z-0.150 F300.000
G1 X45.021 Y102.915 Z-0.150 F300.000
G1 X45.202 Y103.010 Z-0.150 F300.000
G1 X45.342 Y103.131 Z-0.150 F300.000
G1 X45.471 Y103.328 Z-0.150 F300.000
G1 X45.511 Y103.441 Z-0.150 F300.000
G1 X45.553 Y103.796 Z-0.150 F300.000
G1 X45.490 Y104.122 Z-0.150 F300.000
G1 X45.391 Y104.297 Z-0.150 F300.000
G1 X45.314 Y104.374 Z-0.150 F300.000
G1 X45.125 Y104.485 Z-0.150 F300.000
G1 X44.973 Y104.536 Z-0.150 F300.000
G1 X44.644 Y104.587 Z-0.150 F300.000
G1 X44.427 Y104.594 Z-0.150 F300.000
G1 X43.132 Y104.594 Z-0.150 F300.000
G1 X43.132 Y100.998 Z-0.150 F300.000
G0 Z6.000
G0 Z6.000
G0 X47.447 Y100.998
G0 Z4.000
G1 X47.447 Y100.998 Z-0.150 F100.000
G1 X47.447 Y104.594 Z-0.150 F300.000
G1 X48.581 Y104.594 Z-0.150 F300.000
G1 X48.891 Y104.575 Z-0.150 F300.000
G1 X49.140 Y104.517 Z-0.150 F300.000
G1 X49.336 Y104.427 Z-0.150 F300.000
G1 X49.485 Y104.311 Z-0.150 F300.000
G1 X49.620 Y104.124 Z-0.150 F300.000
G1 X49.663 Y104.018 Z-0.150 F300.000
G1 X49.726 Y103.671 Z-0.150 F300.000
G1 X49.684 Y103.314 Z-0.150 F300.000
G1 X49.589 Y103.098 Z-0.150 F300.000
G1 X49.514 Y102.998 Z-0.150 F300.000
G1 X49.330 Y102.845 Z-0.150 F300.000
G1 X49.184 Y102.770 Z-0.150 F300.000
G1 X48.929 Y102.701 Z-0.150 F300.000
G1 X48.674 Y102.683 Z-0.150 F300.000
G1 X47.447 Y102.683 Z-0.150 F300.000
G1 X48.674 Y102.683 Z-0.150 F300.000
G1 X49.021 Y102.719 Z-0.150 F300.000
G1 X49.180 Y102.770 Z-0.150 F300.000
G1 X49.364 Y102.871 Z-0.150 F300.000
G1 X49.507 Y102.998 Z-0.150 F300.000
G1 X49.612 Y103.147 Z-0.150 F300.000
G1 X49.681 Y103.314 Z-0.150 F300.000
G1 X49.726 Y103.671 Z-0.150 F300.000
G1 X49.663 Y104.018 Z-0.150 F300.000
G1 X49.563 Y104.218 Z-0.150 F300.000
G1 X49.483 Y104.311 Z-0.150 F300.000
G1 X49.295 Y104.448 Z-0.150 F300.000
G1 X49.138 Y104.517 Z-0.150 F300.000
G1 X48.854 Y104.579 Z-0.150 F300.000
G1 X48.581 Y104.594 Z-0.150 F300.000
G1 X47.447 Y104.594 Z-0.150 F300.000
G1 X47.447 Y100.998 Z-0.150 F300.000
G0 Z6.000
G0 Z6.000
G0 X53.940 Y102.216
G0 Z4.000
G1 X53.940 Y102.216 Z-0.150 F100.000
G1 X53.830 Y101.825 Z-0.150 F300.000
G1 X53.674 Y101.532 Z-0.150 F300.000
G1 X53.567 Y101.401 Z-0.150 F300.000
G1 X53.445 Y101.290 Z-0.150 F300.000
G1 X53.190 Y101.136 Z-0.150 F300.000
G1 X52.883 Y101.038 Z-0.150 F300.000
G1 X52.680 Y101.008 Z-0.150 F300.000
G1 X52.460 Y100.998 Z-0.150 F300.000
G1 X52.061 Y101.034 Z-0.150 F300.000
G1 X51.737 Y101.135 Z-0.150 F300.000
G1 X51.472 Y101.292 Z-0.150 F300.000
G1 X51.323 Y101.428 Z-0.150 F300.000
G1 X51.154 Y101.663 Z-0.150 F300.000
G1 X51.028 Y101.967 Z-0.150 F300.000
G1 X50.947 Y102.356 Z-0.150 F300.000
G1 X50.922 Y102.796 Z-0.150 F300.000
G1 X50.958 Y103.311 Z-0.150 F300.000
G1 X51.056 Y103.706 Z-0.150 F300.000
G1 X51.202 Y104.005 Z-0.150 F300.000
G1 X51.323 Y104.160 Z-0.150 F300.000
G1 X51.555 Y104.357 Z-0.150 F300.000
G1 X51.830 Y104.493 Z-0.150 F300.000
G1 X52.157 Y104.573 Z-0.150 F300.000
G1 X52.460 Y104.594 Z-0.150 F300.000
G1 X52.861 Y104.558 Z-0.150 F300.000
G1 X53.185 Y104.457 Z-0.150 F300.000
G1 X53.266 Y104.418 Z-0.150 F300.000
G1 X53.343 Y104.374 Z-0.150 F300.000
G1 X53.561 Y104.197 Z-0.150 F300.000
G1 X53.736 Y103.960 Z-0.150 F300.000
G1 X53.804 Y103.828 Z-0.150 F300.000
G1 X53.861 Y103.682 Z-0.150 F300.000
G1 X53.713 Y103.998 Z-0.150 F300.000
G1 X53.526 Y104.232 Z-0.150 F300.000
G1 X53.438 Y104.308 Z-0.150 F300.000
G1 X53.343 Y104.374 Z-0.150 F300.000
G1 X53.064 Y104.504 Z-0.150 F300.000
G1 X52.730 Y104.578 Z-0.150 F300.000
G1 X52.598 Y104.590 Z-0.150 F300.000
G1 X52.460 Y104.594 Z-0.150 F300.000
G1 X52.062 Y104.558 Z-0.150 F300.000
G1 X51.739 Y104.457 Z-0.150 F300.000
G1 X51.475 Y104.299 Z-0.150 F300.000
G1 X51.323 Y104.160 Z-0.150 F300.000
G1 X51.154 Y103.924 Z-0.150 F300.000
G1 X51.027 Y103.619 Z-0.150 F300.000
G1 X50.947 Y103.230 Z-0.150 F300.000
G1 X50.922 Y102.796 Z-0.150 F300.000
G1 X50.958 Y102.278 Z-0.150 F300.000
G1 X51.056 Y101.882 Z-0.150 F300.000
G1 X51.202 Y101.583 Z-0.150 F300.000
G1 X51.323 Y101.428 Z-0.150 F300.000
G1 X51.555 Y101.233 Z-0.150 F300.000
G1 X51.831 Y101.097 Z-0.150 F300.000
G1 X52.160 Y101.017 Z-0.150 F300.000
G1 X52.460 Y100.998 Z-0.150 F300.000
G1 X52.862 Y101.034 Z-0.150 F300.000
G1 X53.185 Y101.134 Z-0.150 F300.000
G1 X53.321 Y101.205 Z-0.150 F300.000
G1 X53.445 Y101.290 Z-0.150 F300.000
G1 X53.643 Y101.489 Z-0.150 F300.000
G1 X53.799 Y101.752 Z-0.150 F300.000
G1 X53.880 Y101.970 Z-0.150 F300.000
G1 X53.940 Y102.216 Z-0.150 F300.000
G0 Z6.000
G0 Z6.000
G0 Z6.000
G0 X51.351 Y90.991
G0 Z4.000
G1 X51.351 Y90.991 Z-0.150 F100.000
G1 X51.449 Y90.851 Z-0.150 F300.000
G1 X51.473 Y90.721 Z-0.150 F300.000
G1 X51.563 Y89.814 Z-0.150 F300.000
G1 X51.619 Y89.580 Z-0.150 F300.000
G1 X51.795 Y89.339 Z-0.150 F300.000
G1 X51.973 Y89.230 Z-0.150 F300.000
G1 X52.220 Y89.168 Z-0.150 F300.000
G1 X52.314 Y89.159 Z-0.150 F300.000
G1 X52.416 Y89.156 Z-0.150 F300.000
G1 X52.091 Y89.192 Z-0.150 F300.000
G1 X51.795 Y89.339 Z-0.150 F300.000
G1 X51.653 Y89.512 Z-0.150 F300.000
G1 X51.563 Y89.814 Z-0.150 F300.000
G1 X51.473 Y90.721 Z-0.150 F300.000
G1 X51.449 Y90.851 Z-0.150 F300.000
G1 X51.351 Y90.991 Z-0.150 F300.000
G0 Z6.000
G0 Z6.000
G0 X53.880 Y90.991
G0 Z4.000
G1 X53.880 Y90.991 Z-0.150 F100.000
G1 X53.880 Y87.395 Z-0.150 F300.000
G1 X52.584 Y87.395 Z-0.150 F300.000
G1 X52.275 Y87.409 Z-0.150 F300.000
G1 X52.029 Y87.453 Z-0.150 F300.000
G1 X51.837 Y87.521 Z-0.150 F300.000
G1 X51.692 Y87.615 Z-0.150 F300.000
G1 X51.587 Y87.730 Z-0.150 F300.000
G1 X51.518 Y87.867 Z-0.150 F300.000
G1 X51.459 Y88.193 Z-0.150 F300.000
G1 X51.499 Y88.548 Z-0.150 F300.000
G1 X51.590 Y88.762 Z-0.150 F300.000
G1 X51.661 Y88.857 Z-0.150 F300.000
G1 X51.840 Y89.003 Z-0.150 F300.000
G1 X51.982 Y89.074 Z-0.150 F300.000
G1 X52.244 Y89.141 Z-0.150 F300.000
G1 X52.485 Y89.156 Z-0.150 F300.000
G1 X53.880 Y89.156 Z-0.150 F300.000
G1 X52.485 Y89.156 Z-0.150 F300.000
G1 X52.137 Y89.120 Z-0.150 F300.000
G1 X51.990 Y89.074 Z-0.150 F300.000
G1 X51.810 Y88.978 Z-0.150 F300.000
G1 X51.669 Y88.857 Z-0.150 F300.000
G1 X51.541 Y88.661 Z-0.150 F300.000
G1 X51.501 Y88.548 Z-0.150 F300.000
G1 X51.459 Y88.193 Z-0.150 F300.000
G1 X51.522 Y87.867 Z-0.150 F300.000
G1 X51.621 Y87.691 Z-0.150 F300.000
G1 X51.698 Y87.615 Z-0.150 F300.000
G1 X51.886 Y87.503 Z-0.150 F300.000
G1 X52.039 Y87.453 Z-0.150 F300.000
G1 X52.368 Y87.402 Z-0.150 F300.000
G1 X52.584 Y87.395 Z-0.150 F300.000
G1 X53.880 Y87.395 Z-0.150 F300.000
G1 X53.880 Y90.991 Z-0.150 F300.000
G0 Z6.000
G0 Z6.000
G0 X49.565 Y90.991
G0 Z4.000
G1 X49.565 Y90.991 Z-0.150 F100.000
G1 X49.565 Y87.395 Z-0.150 F300.000
G1 X48.431 Y87.395 Z-0.150 F300.000
G1 X48.121 Y87.414 Z-0.150 F300.000
G1 X47.872 Y87.472 Z-0.150 F300.000
G1 X47.676 Y87.562 Z-0.150 F300.000
G1 X47.527 Y87.677 Z-0.150 F300.000
G1 X47.392 Y87.864 Z-0.150 F300.000
G1 X47.349 Y87.971 Z-0.150 F300.000
G1 X47.286 Y88.318 Z-0.150 F300.000
G1 X47.328 Y88.674 Z-0.150 F300.000
G1 X47.423 Y88.891 Z-0.150 F300.000
G1 X47.498 Y88.991 Z-0.150 F300.000
G1 X47.682 Y89.144 Z-0.150 F300.000
G1 X47.827 Y89.219 Z-0.150 F300.000
G1 X48.083 Y89.288 Z-0.150 F300.000
G1 X48.338 Y89.305 Z-0.150 F300.000
G1 X49.565 Y89.305 Z-0.150 F300.000
G1 X48.338 Y89.305 Z-0.150 F300.000
G1 X47.990 Y89.269 Z-0.150 F300.000
G1 X47.832 Y89.219 Z-0.150 F300.000
G1 X47.648 Y89.117 Z-0.150 F300.000
G1 X47.505 Y88.991 Z-0.150 F300.000
G1 X47.400 Y88.842 Z-0.150 F300.000
G1 X47.331 Y88.674 Z-0.150 F300.000
G1 X47.286 Y88.318 Z-0.150 F300.000
G1 X47.349 Y87.971 Z-0.150 F300.000
G1 X47.449 Y87.770 Z-0.150 F300.000
G1 X47.529 Y87.677 Z-0.150 F300.000
G1 X47.717 Y87.540 Z-0.150 F300.000
G1 X47.874 Y87.472 Z-0.150 F300.000
G1 X48.158 Y87.409 Z-0.150 F300.000
G1 X48.431 Y87.395 Z-0.150 F300.000
G1 X49.565 Y87.395 Z-0.150 F300.000
G1 X49.565 Y90.991 Z-0.150 F300.000
G0 Z6.000
G0 Z6.000
G0 X43.072 Y89.773
G0 Z4.000
G1 X43.072 Y89.773 Z-0.150 F100.000
G1 X43.182 Y90.164 Z-0.150 F300.000
G1 X43.338 Y90.457 Z-0.150 F300.000
G1 X43.444 Y90.588 Z-0.150 F300.000
G1 X43.566 Y90.699 Z-0.150 F300.000
G1 X43.822 Y90.852 Z-0.150 F300.000
G1 X44.129 Y90.950 Z-0.150 F300.000
G1 X44.332 Y90.981 Z-0.150 F300.000
G1 X44.552 Y90.991 Z-0.150 F300.000
G1 X44.951 Y90.955 Z-0.150 F300.000
G1 X45.275 Y90.854 Z-0.150 F300.000
G1 X45.539 Y90.697 Z-0.150 F300.000
G1 X45.689 Y90.561 Z-0.150 F300.000
G1 X45.858 Y90.326 Z-0.150 F300.000
G1 X45.984 Y90.022 Z-0.150 F300.000
G1 X46.065 Y89.633 Z-0.150 F300.000
G1 X46.090 Y89.193 Z-0.150 F300.000
G1 X46.054 Y88.677 Z-0.150 F300.000
G1 X45.956 Y88.282 Z-0.150 F300.000
G1 X45.809 Y87.983 Z-0.150 F300.000
G1 X45.689 Y87.828 Z-0.150 F300.000
G1 X45.457 Y87.632 Z-0.150 F300.000
G1 X45.182 Y87.495 Z-0.150 F300.000
G1 X44.855 Y87.415 Z-0.150 F300.000
G1 X44.552 Y87.395 Z-0.150 F300.000
G1 X44.151 Y87.431 Z-0.150 F300.000
G1 X43.827 Y87.532 Z-0.150 F300.000
G1 X43.746 Y87.571 Z-0.150 F300.000
G1 X43.669 Y87.615 Z-0.150 F300.000
G1 X43.451 Y87.792 Z-0.150 F300.000
G1 X43.276 Y88.029 Z-0.150 F300.000
G1 X43.208 Y88.161 Z-0.150 F300.000
G1 X43.151 Y88.307 Z-0.150 F300.000
G1 X43.298 Y87.990 Z-0.150 F300.000
G1 X43.486 Y87.756 Z-0.150 F300.000
G1 X43.574 Y87.681 Z-0.150 F300.000
G1 X43.669 Y87.615 Z-0.150 F300.000
G1 X43.948 Y87.484 Z-0.150 F300.000
G1 X44.282 Y87.410 Z-0.150 F300.000
G1 X44.414 Y87.399 Z-0.150 F300.000
G1 X44.552 Y87.395 Z-0.150 F300.000
G1 X44.949 Y87.431 Z-0.150 F300.000
G1 X45.273 Y87.532 Z-0.150 F300.000
G1 X45.537 Y87.689 Z-0.150 F300.000
G1 X45.689 Y87.828 Z-0.150 F300.000
G1 X45.858 Y88.065 Z-0.150 F300.000
G1 X45.985 Y88.369 Z-0.150 F300.000
G1 X46.065 Y88.758 Z-0.150 F300.000
G1 X46.090 Y89.193 Z-0.150 F300.000
G1 X46.054 Y89.711 Z-0.150 F300.000
G1 X45.956 Y90.107 Z-0.150 F300.000
G1 X45.810 Y90.405 Z-0.150 F300.000
G1 X45.689 Y90.561 Z-0.150 F300.000
G1 X45.456 Y90.756 Z-0.150 F300.000
G1 X45.181 Y90.892 Z-0.150 F300.000
G1 X44.852 Y90.971 Z-0.150 F300.000
G1 X44.552 Y90.991 Z-0.150 F300.000
G1 X44.150 Y90.955 Z-0.150 F300.000
G1 X43.827 Y90.855 Z-0.150 F300.000
G1 X43.691 Y90.784 Z-0.150 F300.000
G1 X43.566 Y90.699 Z-0.150 F300.000
G1 X43.369 Y90.499 Z-0.150 F300.000
G1 X43.213 Y90.236 Z-0.150 F300.000
G1 X43.132 Y90.019 Z-0.150 F300.000
G1 X43.072 Y89.773 Z-0.150 F300.000
G0 Z6.000
G0 Z6.000
G0 Z6.000
G0 X45.660 Y75.998
G0 Z4.000
G1 X45.660 Y75.998 Z-0.150 F100.000
G1 X45.562 Y76.137 Z-0.150 F300.000
G1 X45.538 Y76.267 Z-0.150 F300.000
G1 X45.448 Y77.174 Z-0.150 F300.000
G1 X45.393 Y77.409 Z-0.150 F300.000
G1 X45.217 Y77.650 Z-0.150 F300.000
G1 X45.039 Y77.759 Z-0.150 F300.000
G1 X44.792 Y77.821 Z-0.150 F300.000
G1 X44.697 Y77.830 Z-0.150 F300.000
G1 X44.596 Y77.833 Z-0.150 F300.000
G1 X44.921 Y77.797 Z-0.150 F300.000
G1 X45.217 Y77.650 Z-0.150 F300.000
G1 X45.359 Y77.477 Z-0.150 F300.000
G1 X45.448 Y77.174 Z-0.150 F300.000
G1 X45.538 Y76.267 Z-0.150 F300.000
G1 X45.562 Y76.137 Z-0.150 F300.000
G1 X45.660 Y75.998 Z-0.150 F300.000
G0 Z6.000
G0 Z6.000
G0 X43.132 Y75.998
G0 Z4.000
G1 X43.132 Y75.998 Z-0.150 F100.000
G1 X43.132 Y79.594 Z-0.150 F300.000
G1 X44.427 Y79.594 Z-0.150 F300.000
G1 X44.736 Y79.579 Z-0.150 F300.000
G1 X44.983 Y79.536 Z-0.150 F300.000
G1 X45.175 Y79.467 Z-0.150 F300.000
G1 X45.320 Y79.374 Z-0.150 F300.000
G1 X45.425 Y79.259 Z-0.150 F300.000
G1 X45.493 Y79.122 Z-0.150 F300.000
G1 X45.553 Y78.796 Z-0.150 F300.000
G1 X45.513 Y78.441 Z-0.150 F300.000
G1 X45.422 Y78.227 Z-0.150 F300.000
G1 X45.351 Y78.131 Z-0.150 F300.000
G1 X45.172 Y77.986 Z-0.150 F300.000
G1 X45.029 Y77.915 Z-0.150 F300.000
G1 X44.768 Y77.848 Z-0.150 F300.000
G1 X44.527 Y77.833 Z-0.150 F300.000
G1 X43.132 Y77.833 Z-0.150 F300.000
G1 X44.527 Y77.833 Z-0.150 F300.000
G1 X44.875 Y77.868 Z-0.150 F300.000
G1 X45.021 Y77.915 Z-0.150 F300.000
G1 X45.202 Y78.010 Z-0.150 F300.000
G1 X45.342 Y78.131 Z-0.150 F300.000
G1 X45.471 Y78.328 Z-0.150 F300.000
G1 X45.511 Y78.441 Z-0.150 F300.000
G1 X45.553 Y78.796 Z-0.150 F300.000
G1 X45.490 Y79.122 Z-0.150 F300.000
G1 X45.391 Y79.297 Z-0.150 F300.000
G1 X45.314 Y79.374 Z-0.150 F300.000
G1 X45.125 Y79.485 Z-0.150 F300.000
G1 X44.973 Y79.536 Z-0.150 F300.000
G1 X44.644 Y79.587 Z-0.150 F300.000
G1 X44.427 Y79.594 Z-0.150 F300.000
G1 X43.132 Y79.594 Z-0.150 F300.000
G1 X43.132 Y75.998 Z-0.150 F300.000
G0 Z6.000
G0 Z6.000
G0 X47.447 Y75.998
G0 Z4.000
G1 X47.447 Y75.998 Z-0.150 F100.000
G1 X47.447 Y79.594 Z-0.150 F300.000
G1 X48.581 Y79.594 Z-0.150 F300.000
G1 X48.891 Y79.575 Z-0.150 F300.000
G1 X49.140 Y79.517 Z-0.150 F300.000
G1 X49.336 Y79.427 Z-0.150 F300.000
G1 X49.485 Y79.311 Z-0.150 F300.000
G1 X49.620 Y79.124 Z-0.150 F300.000
G1 X49.663 Y79.018 Z-0.150 F300.000
G1 X49.726 Y78.671 Z-0.150 F300.000
G1 X49.684 Y78.314 Z-0.150 F300.000
G1 X49.589 Y78.098 Z-0.150 F300.000
G1 X49.514 Y77.998 Z-0.150 F300.000
G1 X49.330 Y77.845 Z-0.150 F300.000
G1 X49.184 Y77.770 Z-0.150 F300.000
G1 X48.929 Y77.701 Z-0.150 F300.000
G1 X48.674 Y77.683 Z-0.150 F300.000
G1 X47.447 Y77.683 Z-0.150 F300.000
G1 X48.674 Y77.683 Z-0.150 F300.000
G1 X49.021 Y77.719 Z-0.150 F300.000
G1 X49.180 Y77.770 Z-0.150 F300.000
G1 X49.364 Y77.871 Z-0.150 F300.000
G1 X49.507 Y77.998 Z-0.150 F300.000
G1 X49.612 Y78.147 Z-0.150 F300.000
G1 X49.681 Y78.314 Z-0.150 F300.000
G1 X49.726 Y78.671 Z-0.150 F300.000
G1 X49.663 Y79.018 Z-0.150 F300.000
G1 X49.563 Y79.218 Z-0.150 F300.000
G1 X49.483 Y79.311 Z-0.150 F300.000
G1 X49.295 Y79.448 Z-0.150 F300.000
G1 X49.138 Y79.517 Z-0.150 F300.000
G1 X48.854 Y79.579 Z-0.150 F300.000
G1 X48.581 Y79.594 Z-0.150 F300.000
G1 X47.447 Y79.594 Z-0.150 F300.000
G1 X47.447 Y75.998 Z-0.150 F300.000
G0 Z6.000
G0 Z6.000
G0 X53.940 Y77.216
G0 Z4.000
G1 X53.940 Y77.216 Z-0.150 F100.000
G1 X53.830 Y76.825 Z-0.150 F300.000
G1 X53.674 Y76.532 Z-0.150 F300.000
G1 X53.567 Y76.401 Z-0.150 F300.000
