G91G1F450X6.15Y16Z-12
G38.3Z-5F30.0
G91G1F30Z0.1
G10L20P1X0Y0Z0
(Exported by FreeCAD)
(Post Processor: grbl_post)
(Output Time:2021-08-12 13:12:05.355955)
(Begin preamble)
G17 G90
G21
(Begin operation: Fixture)
(Path: Fixture)
G54
(Finish operation: Fixture)
(Begin operation: 30degree_Vbit001)
(Path: 30degree_Vbit001)
(30degree_Vbit001)
(Begin toolchange)
( M6 T1.0 )
M3 S12000.0
(Finish operation: 30degree_Vbit001)
(Begin operation: Engrave)
(Path: Engrave)
(Engrave)
G0 Z4.000
G0 Z4.000
G0 X-2.531 Y-1.582
G0 Z2.000
G1 X-2.531 Y-1.582 Z-0.200 F150.000
G1 X-2.617 Y-1.460 Z-0.200 F400.000
G1 X-2.638 Y-1.345 Z-0.200 F400.000
G1 X-2.717 Y-0.547 Z-0.200 F400.000
G1 X-2.772 Y-0.328 Z-0.200 F400.000
G1 X-2.921 Y-0.129 Z-0.200 F400.000
G1 X-3.090 Y-0.028 Z-0.200 F400.000
G1 X-3.468 Y0.032 Z-0.200 F400.000
G1 X-3.166 Y-0.003 Z-0.200 F400.000
G1 X-2.921 Y-0.129 Z-0.200 F400.000
G1 X-2.790 Y-0.292 Z-0.200 F400.000
G1 X-2.717 Y-0.547 Z-0.200 F400.000
G1 X-2.638 Y-1.345 Z-0.200 F400.000
G1 X-2.617 Y-1.460 Z-0.200 F400.000
G1 X-2.531 Y-1.582 Z-0.200 F400.000
G0 Z4.000
G0 Z4.000
G0 X-4.756 Y-1.582
G0 Z2.000
G1 X-4.756 Y-1.582 Z-0.200 F150.000
G1 X-4.756 Y1.582 Z-0.200 F400.000
G1 X-3.616 Y1.582 Z-0.200 F400.000
G1 X-3.127 Y1.531 Z-0.200 F400.000
G1 X-2.958 Y1.471 Z-0.200 F400.000
G1 X-2.831 Y1.389 Z-0.200 F400.000
G1 X-2.738 Y1.287 Z-0.200 F400.000
G1 X-2.678 Y1.167 Z-0.200 F400.000
G1 X-2.626 Y0.880 Z-0.200 F400.000
G1 X-2.661 Y0.568 Z-0.200 F400.000
G1 X-2.716 Y0.423 Z-0.200 F400.000
G1 X-2.804 Y0.295 Z-0.200 F400.000
G1 X-2.973 Y0.160 Z-0.200 F400.000
G1 X-3.086 Y0.104 Z-0.200 F400.000
G1 X-3.333 Y0.044 Z-0.200 F400.000
G1 X-3.528 Y0.032 Z-0.200 F400.000
G1 X-4.756 Y0.032 Z-0.200 F400.000
G1 X-3.528 Y0.032 Z-0.200 F400.000
G1 X-3.290 Y0.050 Z-0.200 F400.000
G1 X-3.093 Y0.104 Z-0.200 F400.000
G1 X-2.934 Y0.189 Z-0.200 F400.000
G1 X-2.811 Y0.295 Z-0.200 F400.000
G1 X-2.720 Y0.423 Z-0.200 F400.000
G1 X-2.662 Y0.568 Z-0.200 F400.000
G1 X-2.626 Y0.880 Z-0.200 F400.000
G1 X-2.681 Y1.167 Z-0.200 F400.000
G1 X-2.742 Y1.287 Z-0.200 F400.000
G1 X-2.836 Y1.389 Z-0.200 F400.000
G1 X-3.015 Y1.492 Z-0.200 F400.000
G1 X-3.136 Y1.531 Z-0.200 F400.000
G1 X-3.350 Y1.570 Z-0.200 F400.000
G1 X-3.616 Y1.582 Z-0.200 F400.000
G1 X-4.756 Y1.582 Z-0.200 F400.000
G1 X-4.756 Y-1.582 Z-0.200 F400.000
G0 Z4.000
G0 Z4.000
G0 X-0.958 Y-1.582
G0 Z2.000
G1 X-0.958 Y-1.582 Z-0.200 F150.000
G1 X-0.958 Y1.582 Z-0.200 F400.000
G1 X0.039 Y1.582 Z-0.200 F400.000
G1 X0.312 Y1.565 Z-0.200 F400.000
G1 X0.531 Y1.515 Z-0.200 F400.000
G1 X0.703 Y1.435 Z-0.200 F400.000
G1 X0.834 Y1.334 Z-0.200 F400.000
G1 X0.929 Y1.213 Z-0.200 F400.000
G1 X0.991 Y1.075 Z-0.200 F400.000
G1 X1.046 Y0.770 Z-0.200 F400.000
G1 X1.010 Y0.456 Z-0.200 F400.000
G1 X0.952 Y0.309 Z-0.200 F400.000
G1 X0.860 Y0.178 Z-0.200 F400.000
G1 X0.685 Y0.036 Z-0.200 F400.000
G1 X0.570 Y-0.023 Z-0.200 F400.000
G1 X0.328 Y-0.086 Z-0.200 F400.000
G1 X0.121 Y-0.099 Z-0.200 F400.000
G1 X-0.958 Y-0.099 Z-0.200 F400.000
G1 X0.121 Y-0.099 Z-0.200 F400.000
G1 X0.365 Y-0.080 Z-0.200 F400.000
G1 X0.566 Y-0.023 Z-0.200 F400.000
G1 X0.728 Y0.066 Z-0.200 F400.000
G1 X0.854 Y0.178 Z-0.200 F400.000
G1 X0.947 Y0.309 Z-0.200 F400.000
G1 X1.007 Y0.456 Z-0.200 F400.000
G1 X1.046 Y0.770 Z-0.200 F400.000
G1 X0.991 Y1.075 Z-0.200 F400.000
G1 X0.929 Y1.213 Z-0.200 F400.000
G1 X0.833 Y1.334 Z-0.200 F400.000
G1 X0.654 Y1.461 Z-0.200 F400.000
G1 X0.529 Y1.515 Z-0.200 F400.000
G1 X0.260 Y1.572 Z-0.200 F400.000
G1 X0.039 Y1.582 Z-0.200 F400.000
G1 X-0.958 Y1.582 Z-0.200 F400.000
G1 X-0.958 Y-1.582 Z-0.200 F400.000
G0 Z4.000
G0 Z4.000
G0 X4.755 Y-0.510
G0 Z2.000
G1 X4.755 Y-0.510 Z-0.200 F150.000
G1 X4.650 Y-0.875 Z-0.200 F400.000
G1 X4.500 Y-1.142 Z-0.200 F400.000
G1 X4.415 Y-1.240 Z-0.200 F400.000
G1 X4.320 Y-1.325 Z-0.200 F400.000
G1 X4.079 Y-1.467 Z-0.200 F400.000
G1 X3.786 Y-1.554 Z-0.200 F400.000
G1 X3.625 Y-1.575 Z-0.200 F400.000
G1 X3.452 Y-1.582 Z-0.200 F400.000
G1 X3.080 Y-1.546 Z-0.200 F400.000
G1 X2.782 Y-1.446 Z-0.200 F400.000
G1 X2.605 Y-1.340 Z-0.200 F400.000
G1 X2.452 Y-1.204 Z-0.200 F400.000
G1 X2.295 Y-0.981 Z-0.200 F400.000
G1 X2.181 Y-0.690 Z-0.200 F400.000
G1 X2.113 Y-0.311 Z-0.200 F400.000
G1 X2.099 Y-0.000 Z-0.200 F400.000
G1 X2.135 Y0.481 Z-0.200 F400.000
G1 X2.232 Y0.842 Z-0.200 F400.000
G1 X2.329 Y1.038 Z-0.200 F400.000
G1 X2.452 Y1.201 Z-0.200 F400.000
G1 X2.671 Y1.383 Z-0.200 F400.000
G1 X2.933 Y1.506 Z-0.200 F400.000
G1 X3.249 Y1.572 Z-0.200 F400.000
G1 X3.452 Y1.582 Z-0.200 F400.000
G1 X3.827 Y1.546 Z-0.200 F400.000
G1 X4.229 Y1.389 Z-0.200 F400.000
G1 X4.433 Y1.221 Z-0.200 F400.000
G1 X4.593 Y0.993 Z-0.200 F400.000
G1 X4.643 Y0.891 Z-0.200 F400.000
G1 X4.686 Y0.780 Z-0.200 F400.000
G1 X4.545 Y1.074 Z-0.200 F400.000
G1 X4.366 Y1.287 Z-0.200 F400.000
G1 X4.300 Y1.341 Z-0.200 F400.000
G1 X4.229 Y1.389 Z-0.200 F400.000
G1 X3.966 Y1.509 Z-0.200 F400.000
G1 X3.648 Y1.573 Z-0.200 F400.000
G1 X3.552 Y1.580 Z-0.200 F400.000
G1 X3.452 Y1.582 Z-0.200 F400.000
G1 X3.081 Y1.546 Z-0.200 F400.000
G1 X2.784 Y1.446 Z-0.200 F400.000
G1 X2.606 Y1.339 Z-0.200 F400.000
G1 X2.452 Y1.201 Z-0.200 F400.000
G1 X2.295 Y0.977 Z-0.200 F400.000
G1 X2.180 Y0.685 Z-0.200 F400.000
G1 X2.113 Y0.307 Z-0.200 F400.000
G1 X2.099 Y-0.000 Z-0.200 F400.000
G1 X2.135 Y-0.483 Z-0.200 F400.000
G1 X2.232 Y-0.845 Z-0.200 F400.000
G1 X2.329 Y-1.041 Z-0.200 F400.000
G1 X2.452 Y-1.204 Z-0.200 F400.000
G1 X2.672 Y-1.385 Z-0.200 F400.000
G1 X2.935 Y-1.507 Z-0.200 F400.000
G1 X3.251 Y-1.573 Z-0.200 F400.000
G1 X3.452 Y-1.582 Z-0.200 F400.000
G1 X3.828 Y-1.546 Z-0.200 F400.000
G1 X4.125 Y-1.446 Z-0.200 F400.000
G1 X4.226 Y-1.391 Z-0.200 F400.000
G1 X4.320 Y-1.325 Z-0.200 F400.000
G1 X4.504 Y-1.136 Z-0.200 F400.000
G1 X4.646 Y-0.883 Z-0.200 F400.000
G1 X4.708 Y-0.707 Z-0.200 F400.000
G1 X4.755 Y-0.510 Z-0.200 F400.000
G0 Z4.000
G0 Z4.000
G0 Z4.000
G0 X2.543 Y12.071
G0 Z2.000
(autolevel)
M5
G4P0.5
G90G1F400Z1
G38.3Z-3F30.0
G10L20P1Z0
G90G1F400Z1
M3 S12000
G4P0.5
(autolevel)
G1 X2.543 Y12.071 Z-0.200 F150.000
G1 X2.629 Y11.948 Z-0.200 F400.000
G1 X2.650 Y11.834 Z-0.200 F400.000
G1 X2.729 Y11.035 Z-0.200 F400.000
G1 X2.784 Y10.817 Z-0.200 F400.000
G1 X2.933 Y10.617 Z-0.200 F400.000
G1 X3.102 Y10.516 Z-0.200 F400.000
G1 X3.480 Y10.456 Z-0.200 F400.000
G1 X3.178 Y10.491 Z-0.200 F400.000
G1 X2.933 Y10.617 Z-0.200 F400.000
G1 X2.802 Y10.780 Z-0.200 F400.000
G1 X2.729 Y11.035 Z-0.200 F400.000
G1 X2.650 Y11.834 Z-0.200 F400.000
G1 X2.629 Y11.948 Z-0.200 F400.000
G1 X2.543 Y12.071 Z-0.200 F400.000
G0 Z4.000
G0 Z4.000
G0 X4.768 Y12.071
G0 Z2.000
G1 X4.768 Y12.071 Z-0.200 F150.000
G1 X4.768 Y8.906 Z-0.200 F400.000
G1 X3.628 Y8.906 Z-0.200 F400.000
G1 X3.139 Y8.957 Z-0.200 F400.000
G1 X2.970 Y9.018 Z-0.200 F400.000
G1 X2.842 Y9.100 Z-0.200 F400.000
G1 X2.750 Y9.201 Z-0.200 F400.000
G1 X2.690 Y9.322 Z-0.200 F400.000
G1 X2.637 Y9.608 Z-0.200 F400.000
G1 X2.673 Y9.921 Z-0.200 F400.000
G1 X2.728 Y10.066 Z-0.200 F400.000
G1 X2.816 Y10.193 Z-0.200 F400.000
G1 X2.985 Y10.329 Z-0.200 F400.000
G1 X3.098 Y10.384 Z-0.200 F400.000
G1 X3.345 Y10.445 Z-0.200 F400.000
G1 X3.540 Y10.456 Z-0.200 F400.000
G1 X4.768 Y10.456 Z-0.200 F400.000
G1 X3.540 Y10.456 Z-0.200 F400.000
G1 X3.302 Y10.438 Z-0.200 F400.000
G1 X3.105 Y10.384 Z-0.200 F400.000
G1 X2.946 Y10.300 Z-0.200 F400.000
G1 X2.823 Y10.193 Z-0.200 F400.000
G1 X2.732 Y10.066 Z-0.200 F400.000
G1 X2.674 Y9.921 Z-0.200 F400.000
G1 X2.637 Y9.608 Z-0.200 F400.000
G1 X2.693 Y9.322 Z-0.200 F400.000
G1 X2.754 Y9.201 Z-0.200 F400.000
G1 X2.848 Y9.100 Z-0.200 F400.000
G1 X3.027 Y8.996 Z-0.200 F400.000
G1 X3.148 Y8.957 Z-0.200 F400.000
G1 X3.362 Y8.919 Z-0.200 F400.000
G1 X3.628 Y8.906 Z-0.200 F400.000
G1 X4.768 Y8.906 Z-0.200 F400.000
G1 X4.768 Y12.071 Z-0.200 F400.000
G0 Z4.000
G0 Z4.000
G0 X0.970 Y12.071
G0 Z2.000
G1 X0.970 Y12.071 Z-0.200 F150.000
G1 X0.970 Y8.906 Z-0.200 F400.000
G1 X-0.027 Y8.906 Z-0.200 F400.000
G1 X-0.300 Y8.923 Z-0.200 F400.000
G1 X-0.519 Y8.974 Z-0.200 F400.000
G1 X-0.692 Y9.053 Z-0.200 F400.000
G1 X-0.823 Y9.155 Z-0.200 F400.000
G1 X-0.918 Y9.275 Z-0.200 F400.000
G1 X-0.979 Y9.414 Z-0.200 F400.000
G1 X-1.034 Y9.719 Z-0.200 F400.000
G1 X-0.998 Y10.032 Z-0.200 F400.000
G1 X-0.940 Y10.180 Z-0.200 F400.000
G1 X-0.848 Y10.311 Z-0.200 F400.000
G1 X-0.674 Y10.453 Z-0.200 F400.000
G1 X-0.558 Y10.511 Z-0.200 F400.000
G1 X-0.317 Y10.575 Z-0.200 F400.000
G1 X-0.109 Y10.588 Z-0.200 F400.000
G1 X0.970 Y10.588 Z-0.200 F400.000
G1 X-0.109 Y10.588 Z-0.200 F400.000
G1 X-0.353 Y10.569 Z-0.200 F400.000
G1 X-0.554 Y10.511 Z-0.200 F400.000
G1 X-0.717 Y10.422 Z-0.200 F400.000
G1 X-0.842 Y10.311 Z-0.200 F400.000
G1 X-0.935 Y10.180 Z-0.200 F400.000
G1 X-0.995 Y10.032 Z-0.200 F400.000
G1 X-1.034 Y9.719 Z-0.200 F400.000
G1 X-0.979 Y9.414 Z-0.200 F400.000
G1 X-0.917 Y9.275 Z-0.200 F400.000
G1 X-0.821 Y9.155 Z-0.200 F400.000
G1 X-0.642 Y9.028 Z-0.200 F400.000
G1 X-0.517 Y8.974 Z-0.200 F400.000
G1 X-0.248 Y8.917 Z-0.200 F400.000
G1 X-0.027 Y8.906 Z-0.200 F400.000
G1 X0.970 Y8.906 Z-0.200 F400.000
G1 X0.970 Y12.071 Z-0.200 F400.000
G0 Z4.000
G0 Z4.000
G0 X-4.743 Y10.999
G0 Z2.000
G1 X-4.743 Y10.999 Z-0.200 F150.000
G1 X-4.638 Y11.363 Z-0.200 F400.000
G1 X-4.488 Y11.630 Z-0.200 F400.000
G1 X-4.403 Y11.729 Z-0.200 F400.000
G1 X-4.308 Y11.814 Z-0.200 F400.000
G1 X-4.067 Y11.956 Z-0.200 F400.000
G1 X-3.774 Y12.043 Z-0.200 F400.000
G1 X-3.613 Y12.064 Z-0.200 F400.000
G1 X-3.441 Y12.071 Z-0.200 F400.000
G1 X-3.068 Y12.035 Z-0.200 F400.000
G1 X-2.770 Y11.935 Z-0.200 F400.000
G1 X-2.594 Y11.829 Z-0.200 F400.000
G1 X-2.440 Y11.692 Z-0.200 F400.000
G1 X-2.283 Y11.470 Z-0.200 F400.000
G1 X-2.169 Y11.178 Z-0.200 F400.000
G1 X-2.101 Y10.800 Z-0.200 F400.000
G1 X-2.087 Y10.489 Z-0.200 F400.000
G1 X-2.123 Y10.008 Z-0.200 F400.000
G1 X-2.221 Y9.647 Z-0.200 F400.000
G1 X-2.317 Y9.451 Z-0.200 F400.000
G1 X-2.440 Y9.288 Z-0.200 F400.000
G1 X-2.659 Y9.106 Z-0.200 F400.000
G1 X-2.922 Y8.982 Z-0.200 F400.000
G1 X-3.237 Y8.917 Z-0.200 F400.000
G1 X-3.441 Y8.906 Z-0.200 F400.000
G1 X-3.815 Y8.943 Z-0.200 F400.000
G1 X-4.218 Y9.100 Z-0.200 F400.000
G1 X-4.421 Y9.268 Z-0.200 F400.000
G1 X-4.582 Y9.496 Z-0.200 F400.000
G1 X-4.631 Y9.598 Z-0.200 F400.000
G1 X-4.674 Y9.709 Z-0.200 F400.000
G1 X-4.534 Y9.414 Z-0.200 F400.000
G1 X-4.354 Y9.201 Z-0.200 F400.000
G1 X-4.288 Y9.148 Z-0.200 F400.000
G1 X-4.218 Y9.100 Z-0.200 F400.000
G1 X-3.954 Y8.979 Z-0.200 F400.000
G1 X-3.636 Y8.915 Z-0.200 F400.000
G1 X-3.540 Y8.909 Z-0.200 F400.000
G1 X-3.441 Y8.906 Z-0.200 F400.000
G1 X-3.070 Y8.943 Z-0.200 F400.000
G1 X-2.772 Y9.043 Z-0.200 F400.000
G1 X-2.594 Y9.150 Z-0.200 F400.000
G1 X-2.440 Y9.288 Z-0.200 F400.000
G1 X-2.283 Y9.511 Z-0.200 F400.000
G1 X-2.168 Y9.804 Z-0.200 F400.000
G1 X-2.101 Y10.182 Z-0.200 F400.000
G1 X-2.087 Y10.489 Z-0.200 F400.000
G1 X-2.123 Y10.972 Z-0.200 F400.000
G1 X-2.221 Y11.334 Z-0.200 F400.000
G1 X-2.317 Y11.530 Z-0.200 F400.000
G1 X-2.440 Y11.692 Z-0.200 F400.000
G1 X-2.660 Y11.874 Z-0.200 F400.000
G1 X-2.923 Y11.996 Z-0.200 F400.000
G1 X-3.240 Y12.061 Z-0.200 F400.000
G1 X-3.441 Y12.071 Z-0.200 F400.000
G1 X-3.816 Y12.035 Z-0.200 F400.000
G1 X-4.113 Y11.935 Z-0.200 F400.000
G1 X-4.214 Y11.879 Z-0.200 F400.000
G1 X-4.308 Y11.814 Z-0.200 F400.000
G1 X-4.492 Y11.625 Z-0.200 F400.000
G1 X-4.634 Y11.372 Z-0.200 F400.000
G1 X-4.697 Y11.196 Z-0.200 F400.000
G1 X-4.743 Y10.999 Z-0.200 F400.000
G0 Z4.000
G0 Z4.000
G0 Z4.000
G0 X-2.531 Y23.418
G0 Z2.000
(autolevel)
M5
G4P0.5
G90G1F400Z1
G38.3Z-3F30.0
G10L20P1Z0
G90G1F400Z1
M3 S12000
G4P0.5
(autolevel)
G1 X-2.531 Y23.418 Z-0.200 F150.000
G1 X-2.617 Y23.540 Z-0.200 F400.000
G1 X-2.638 Y23.655 Z-0.200 F400.000
G1 X-2.717 Y24.453 Z-0.200 F400.000
G1 X-2.772 Y24.672 Z-0.200 F400.000
G1 X-2.921 Y24.871 Z-0.200 F400.000
G1 X-3.090 Y24.972 Z-0.200 F400.000
G1 X-3.468 Y25.032 Z-0.200 F400.000
G1 X-3.166 Y24.997 Z-0.200 F400.000
G1 X-2.921 Y24.871 Z-0.200 F400.000
G1 X-2.790 Y24.708 Z-0.200 F400.000
G1 X-2.717 Y24.453 Z-0.200 F400.000
G1 X-2.638 Y23.655 Z-0.200 F400.000
G1 X-2.617 Y23.540 Z-0.200 F400.000
G1 X-2.531 Y23.418 Z-0.200 F400.000
G0 Z4.000
G0 Z4.000
G0 X-4.756 Y23.418
G0 Z2.000
G1 X-4.756 Y23.418 Z-0.200 F150.000
G1 X-4.756 Y26.582 Z-0.200 F400.000
G1 X-3.616 Y26.582 Z-0.200 F400.000
G1 X-3.127 Y26.531 Z-0.200 F400.000
G1 X-2.958 Y26.471 Z-0.200 F400.000
G1 X-2.831 Y26.389 Z-0.200 F400.000
G1 X-2.738 Y26.287 Z-0.200 F400.000
G1 X-2.678 Y26.167 Z-0.200 F400.000
G1 X-2.626 Y25.880 Z-0.200 F400.000
G1 X-2.661 Y25.568 Z-0.200 F400.000
G1 X-2.716 Y25.423 Z-0.200 F400.000
G1 X-2.804 Y25.295 Z-0.200 F400.000
G1 X-2.973 Y25.160 Z-0.200 F400.000
G1 X-3.086 Y25.104 Z-0.200 F400.000
G1 X-3.333 Y25.044 Z-0.200 F400.000
G1 X-3.528 Y25.032 Z-0.200 F400.000
G1 X-4.756 Y25.032 Z-0.200 F400.000
G1 X-3.528 Y25.032 Z-0.200 F400.000
G1 X-3.290 Y25.050 Z-0.200 F400.000
G1 X-3.093 Y25.104 Z-0.200 F400.000
G1 X-2.934 Y25.189 Z-0.200 F400.000
G1 X-2.811 Y25.295 Z-0.200 F400.000
G1 X-2.720 Y25.423 Z-0.200 F400.000
G1 X-2.662 Y25.568 Z-0.200 F400.000
G1 X-2.626 Y25.880 Z-0.200 F400.000
G1 X-2.681 Y26.167 Z-0.200 F400.000
G1 X-2.742 Y26.287 Z-0.200 F400.000
G1 X-2.836 Y26.389 Z-0.200 F400.000
G1 X-3.015 Y26.492 Z-0.200 F400.000
G1 X-3.136 Y26.531 Z-0.200 F400.000
G1 X-3.350 Y26.570 Z-0.200 F400.000
G1 X-3.616 Y26.582 Z-0.200 F400.000
G1 X-4.756 Y26.582 Z-0.200 F400.000
G1 X-4.756 Y23.418 Z-0.200 F400.000
G0 Z4.000
G0 Z4.000
G0 X-0.958 Y23.418
G0 Z2.000
G1 X-0.958 Y23.418 Z-0.200 F150.000
G1 X-0.958 Y26.582 Z-0.200 F400.000
G1 X0.039 Y26.582 Z-0.200 F400.000
G1 X0.312 Y26.565 Z-0.200 F400.000
G1 X0.531 Y26.515 Z-0.200 F400.000
G1 X0.703 Y26.435 Z-0.200 F400.000
G1 X0.834 Y26.334 Z-0.200 F400.000
G1 X0.929 Y26.213 Z-0.200 F400.000
G1 X0.991 Y26.075 Z-0.200 F400.000
G1 X1.046 Y25.770 Z-0.200 F400.000
G1 X1.010 Y25.456 Z-0.200 F400.000
G1 X0.952 Y25.309 Z-0.200 F400.000
G1 X0.860 Y25.178 Z-0.200 F400.000
G1 X0.685 Y25.036 Z-0.200 F400.000
G1 X0.570 Y24.977 Z-0.200 F400.000
G1 X0.328 Y24.914 Z-0.200 F400.000
G1 X0.121 Y24.901 Z-0.200 F400.000
G1 X-0.958 Y24.901 Z-0.200 F400.000
G1 X0.121 Y24.901 Z-0.200 F400.000
G1 X0.365 Y24.920 Z-0.200 F400.000
G1 X0.566 Y24.977 Z-0.200 F400.000
G1 X0.728 Y25.066 Z-0.200 F400.000
G1 X0.854 Y25.178 Z-0.200 F400.000
G1 X0.947 Y25.309 Z-0.200 F400.000
G1 X1.007 Y25.456 Z-0.200 F400.000
G1 X1.046 Y25.770 Z-0.200 F400.000
G1 X0.991 Y26.075 Z-0.200 F400.000
G1 X0.929 Y26.213 Z-0.200 F400.000
G1 X0.833 Y26.334 Z-0.200 F400.000
G1 X0.654 Y26.461 Z-0.200 F400.000
G1 X0.529 Y26.515 Z-0.200 F400.000
G1 X0.260 Y26.572 Z-0.200 F400.000
G1 X0.039 Y26.582 Z-0.200 F400.000
G1 X-0.958 Y26.582 Z-0.200 F400.000
G1 X-0.958 Y23.418 Z-0.200 F400.000
G0 Z4.000
G0 Z4.000
G0 X4.755 Y24.490
G0 Z2.000
G1 X4.755 Y24.490 Z-0.200 F150.000
G1 X4.650 Y24.125 Z-0.200 F400.000
G1 X4.500 Y23.858 Z-0.200 F400.000
G1 X4.415 Y23.760 Z-0.200 F400.000
G1 X4.320 Y23.675 Z-0.200 F400.000
G1 X4.079 Y23.533 Z-0.200 F400.000
G1 X3.786 Y23.446 Z-0.200 F400.000
G1 X3.625 Y23.425 Z-0.200 F400.000
G1 X3.452 Y23.418 Z-0.200 F400.000
G1 X3.080 Y23.454 Z-0.200 F400.000
G1 X2.782 Y23.554 Z-0.200 F400.000
G1 X2.605 Y23.660 Z-0.200 F400.000
G1 X2.452 Y23.796 Z-0.200 F400.000
G1 X2.295 Y24.019 Z-0.200 F400.000
G1 X2.181 Y24.310 Z-0.200 F400.000
G1 X2.113 Y24.689 Z-0.200 F400.000
G1 X2.099 Y25.000 Z-0.200 F400.000
G1 X2.135 Y25.481 Z-0.200 F400.000
G1 X2.232 Y25.842 Z-0.200 F400.000
G1 X2.329 Y26.038 Z-0.200 F400.000
G1 X2.452 Y26.201 Z-0.200 F400.000
G1 X2.671 Y26.383 Z-0.200 F400.000
G1 X2.933 Y26.506 Z-0.200 F400.000
G1 X3.249 Y26.572 Z-0.200 F400.000
G1 X3.452 Y26.582 Z-0.200 F400.000
G1 X3.827 Y26.546 Z-0.200 F400.000
G1 X4.229 Y26.389 Z-0.200 F400.000
G1 X4.433 Y26.221 Z-0.200 F400.000
G1 X4.593 Y25.993 Z-0.200 F400.000
G1 X4.643 Y25.891 Z-0.200 F400.000
G1 X4.686 Y25.780 Z-0.200 F400.000
G1 X4.545 Y26.074 Z-0.200 F400.000
G1 X4.366 Y26.287 Z-0.200 F400.000
G1 X4.300 Y26.341 Z-0.200 F400.000
G1 X4.229 Y26.389 Z-0.200 F400.000
G1 X3.966 Y26.509 Z-0.200 F400.000
G1 X3.648 Y26.573 Z-0.200 F400.000
G1 X3.552 Y26.580 Z-0.200 F400.000
G1 X3.452 Y26.582 Z-0.200 F400.000
G1 X3.081 Y26.546 Z-0.200 F400.000
G1 X2.784 Y26.446 Z-0.200 F400.000
G1 X2.606 Y26.339 Z-0.200 F400.000
G1 X2.452 Y26.201 Z-0.200 F400.000
G1 X2.295 Y25.977 Z-0.200 F400.000
G1 X2.180 Y25.685 Z-0.200 F400.000
G1 X2.113 Y25.307 Z-0.200 F400.000
G1 X2.099 Y25.000 Z-0.200 F400.000
G1 X2.135 Y24.517 Z-0.200 F400.000
G1 X2.232 Y24.155 Z-0.200 F400.000
G1 X2.329 Y23.959 Z-0.200 F400.000
G1 X2.452 Y23.796 Z-0.200 F400.000
G1 X2.672 Y23.615 Z-0.200 F400.000
G1 X2.935 Y23.493 Z-0.200 F400.000
G1 X3.251 Y23.427 Z-0.200 F400.000
G1 X3.452 Y23.418 Z-0.200 F400.000
G1 X3.828 Y23.454 Z-0.200 F400.000
G1 X4.125 Y23.554 Z-0.200 F400.000
G1 X4.226 Y23.609 Z-0.200 F400.000
G1 X4.320 Y23.675 Z-0.200 F400.000
G1 X4.504 Y23.864 Z-0.200 F400.000
G1 X4.646 Y24.117 Z-0.200 F400.000
G1 X4.708 Y24.293 Z-0.200 F400.000
G1 X4.755 Y24.490 Z-0.200 F400.000
G0 Z4.000
G0 Z4.000
G0 Z4.000
G0 X2.543 Y37.071
G0 Z2.000
(autolevel)
M5
G4P0.5
G90G1F400Z1
G38.3Z-3F30.0
G10L20P1Z0
G90G1F400Z1
M3 S12000
G4P0.5
(autolevel)
G1 X2.543 Y37.071 Z-0.200 F150.000
G1 X2.629 Y36.948 Z-0.200 F400.000
G1 X2.650 Y36.834 Z-0.200 F400.000
G1 X2.729 Y36.035 Z-0.200 F400.000
G1 X2.784 Y35.817 Z-0.200 F400.000
G1 X2.933 Y35.617 Z-0.200 F400.000
G1 X3.102 Y35.516 Z-0.200 F400.000
G1 X3.480 Y35.456 Z-0.200 F400.000
G1 X3.178 Y35.491 Z-0.200 F400.000
G1 X2.933 Y35.617 Z-0.200 F400.000
G1 X2.802 Y35.780 Z-0.200 F400.000
G1 X2.729 Y36.035 Z-0.200 F400.000
G1 X2.650 Y36.834 Z-0.200 F400.000
G1 X2.629 Y36.948 Z-0.200 F400.000
G1 X2.543 Y37.071 Z-0.200 F400.000
G0 Z4.000
G0 Z4.000
G0 X4.768 Y37.071
G0 Z2.000
G1 X4.768 Y37.071 Z-0.200 F150.000
G1 X4.768 Y33.906 Z-0.200 F400.000
G1 X3.628 Y33.906 Z-0.200 F400.000
G1 X3.139 Y33.957 Z-0.200 F400.000
G1 X2.970 Y34.018 Z-0.200 F400.000
G1 X2.842 Y34.100 Z-0.200 F400.000
G1 X2.750 Y34.201 Z-0.200 F400.000
G1 X2.690 Y34.322 Z-0.200 F400.000
G1 X2.637 Y34.608 Z-0.200 F400.000
G1 X2.673 Y34.921 Z-0.200 F400.000
G1 X2.728 Y35.066 Z-0.200 F400.000
G1 X2.816 Y35.193 Z-0.200 F400.000
G1 X2.985 Y35.329 Z-0.200 F400.000
G1 X3.098 Y35.384 Z-0.200 F400.000
G1 X3.345 Y35.445 Z-0.200 F400.000
G1 X3.540 Y35.456 Z-0.200 F400.000
G1 X4.768 Y35.456 Z-0.200 F400.000
G1 X3.540 Y35.456 Z-0.200 F400.000
G1 X3.302 Y35.438 Z-0.200 F400.000
G1 X3.105 Y35.384 Z-0.200 F400.000
G1 X2.946 Y35.300 Z-0.200 F400.000
G1 X2.823 Y35.193 Z-0.200 F400.000
G1 X2.732 Y35.066 Z-0.200 F400.000
G1 X2.674 Y34.921 Z-0.200 F400.000
G1 X2.637 Y34.608 Z-0.200 F400.000
G1 X2.693 Y34.322 Z-0.200 F400.000
G1 X2.754 Y34.201 Z-0.200 F400.000
G1 X2.848 Y34.100 Z-0.200 F400.000
G1 X3.027 Y33.996 Z-0.200 F400.000
G1 X3.148 Y33.957 Z-0.200 F400.000
G1 X3.362 Y33.919 Z-0.200 F400.000
G1 X3.628 Y33.906 Z-0.200 F400.000
G1 X4.768 Y33.906 Z-0.200 F400.000
G1 X4.768 Y37.071 Z-0.200 F400.000
G0 Z4.000
G0 Z4.000
G0 X0.970 Y37.071
G0 Z2.000
G1 X0.970 Y37.071 Z-0.200 F150.000
G1 X0.970 Y33.906 Z-0.200 F400.000
G1 X-0.027 Y33.906 Z-0.200 F400.000
G1 X-0.300 Y33.923 Z-0.200 F400.000
G1 X-0.519 Y33.974 Z-0.200 F400.000
G1 X-0.692 Y34.053 Z-0.200 F400.000
G1 X-0.823 Y34.155 Z-0.200 F400.000
G1 X-0.918 Y34.275 Z-0.200 F400.000
G1 X-0.979 Y34.414 Z-0.200 F400.000
G1 X-1.034 Y34.719 Z-0.200 F400.000
G1 X-0.998 Y35.032 Z-0.200 F400.000
G1 X-0.940 Y35.180 Z-0.200 F400.000
G1 X-0.848 Y35.311 Z-0.200 F400.000
G1 X-0.674 Y35.453 Z-0.200 F400.000
G1 X-0.558 Y35.511 Z-0.200 F400.000
G1 X-0.317 Y35.575 Z-0.200 F400.000
G1 X-0.109 Y35.588 Z-0.200 F400.000
G1 X0.970 Y35.588 Z-0.200 F400.000
G1 X-0.109 Y35.588 Z-0.200 F400.000
G1 X-0.353 Y35.569 Z-0.200 F400.000
G1 X-0.554 Y35.511 Z-0.200 F400.000
G1 X-0.717 Y35.422 Z-0.200 F400.000
G1 X-0.842 Y35.311 Z-0.200 F400.000
G1 X-0.935 Y35.180 Z-0.200 F400.000
G1 X-0.995 Y35.032 Z-0.200 F400.000
G1 X-1.034 Y34.719 Z-0.200 F400.000
G1 X-0.979 Y34.414 Z-0.200 F400.000
G1 X-0.917 Y34.275 Z-0.200 F400.000
G1 X-0.821 Y34.155 Z-0.200 F400.000
G1 X-0.642 Y34.028 Z-0.200 F400.000
G1 X-0.517 Y33.974 Z-0.200 F400.000
G1 X-0.248 Y33.917 Z-0.200 F400.000
G1 X-0.027 Y33.906 Z-0.200 F400.000
G1 X0.970 Y33.906 Z-0.200 F400.000
G1 X0.970 Y37.071 Z-0.200 F400.000
G0 Z4.000
G0 Z4.000
G0 X-4.743 Y35.999
G0 Z2.000
G1 X-4.743 Y35.999 Z-0.200 F150.000
G1 X-4.638 Y36.363 Z-0.200 F400.000
G1 X-4.488 Y36.630 Z-0.200 F400.000
G1 X-4.403 Y36.729 Z-0.200 F400.000
G1 X-4.308 Y36.814 Z-0.200 F400.000
G1 X-4.067 Y36.956 Z-0.200 F400.000
G1 X-3.774 Y37.043 Z-0.200 F400.000
G1 X-3.613 Y37.064 Z-0.200 F400.000
G1 X-3.441 Y37.071 Z-0.200 F400.000
G1 X-3.068 Y37.035 Z-0.200 F400.000
G1 X-2.770 Y36.935 Z-0.200 F400.000
G1 X-2.594 Y36.829 Z-0.200 F400.000
G1 X-2.440 Y36.692 Z-0.200 F400.000
G1 X-2.283 Y36.470 Z-0.200 F400.000
G1 X-2.169 Y36.178 Z-0.200 F400.000
G1 X-2.101 Y35.800 Z-0.200 F400.000
G1 X-2.087 Y35.489 Z-0.200 F400.000
G1 X-2.123 Y35.008 Z-0.200 F400.000
G1 X-2.221 Y34.647 Z-0.200 F400.000
G1 X-2.317 Y34.451 Z-0.200 F400.000
G1 X-2.440 Y34.288 Z-0.200 F400.000
G1 X-2.659 Y34.106 Z-0.200 F400.000
G1 X-2.922 Y33.982 Z-0.200 F400.000
G1 X-3.237 Y33.917 Z-0.200 F400.000
G1 X-3.441 Y33.906 Z-0.200 F400.000
G1 X-3.815 Y33.943 Z-0.200 F400.000
G1 X-4.218 Y34.100 Z-0.200 F400.000
G1 X-4.421 Y34.268 Z-0.200 F400.000
G1 X-4.582 Y34.496 Z-0.200 F400.000
G1 X-4.631 Y34.598 Z-0.200 F400.000
G1 X-4.674 Y34.709 Z-0.200 F400.000
G1 X-4.534 Y34.414 Z-0.200 F400.000
G1 X-4.354 Y34.201 Z-0.200 F400.000
G1 X-4.288 Y34.148 Z-0.200 F400.000
G1 X-4.218 Y34.100 Z-0.200 F400.000
G1 X-3.954 Y33.979 Z-0.200 F400.000
G1 X-3.636 Y33.915 Z-0.200 F400.000
G1 X-3.540 Y33.909 Z-0.200 F400.000
G1 X-3.441 Y33.906 Z-0.200 F400.000
G1 X-3.070 Y33.943 Z-0.200 F400.000
G1 X-2.772 Y34.043 Z-0.200 F400.000
G1 X-2.594 Y34.150 Z-0.200 F400.000
G1 X-2.440 Y34.288 Z-0.200 F400.000
G1 X-2.283 Y34.511 Z-0.200 F400.000
G1 X-2.168 Y34.804 Z-0.200 F400.000
G1 X-2.101 Y35.182 Z-0.200 F400.000
G1 X-2.087 Y35.489 Z-0.200 F400.000
G1 X-2.123 Y35.972 Z-0.200 F400.000
G1 X-2.221 Y36.334 Z-0.200 F400.000
G1 X-2.317 Y36.530 Z-0.200 F400.000
G1 X-2.440 Y36.692 Z-0.200 F400.000
G1 X-2.660 Y36.874 Z-0.200 F400.000
G1 X-2.923 Y36.996 Z-0.200 F400.000
G1 X-3.240 Y37.061 Z-0.200 F400.000
G1 X-3.441 Y37.071 Z-0.200 F400.000
G1 X-3.816 Y37.035 Z-0.200 F400.000
G1 X-4.113 Y36.935 Z-0.200 F400.000
G1 X-4.214 Y36.879 Z-0.200 F400.000
G1 X-4.308 Y36.814 Z-0.200 F400.000
G1 X-4.492 Y36.625 Z-0.200 F400.000
G1 X-4.634 Y36.372 Z-0.200 F400.000
G1 X-4.697 Y36.196 Z-0.200 F400.000
G1 X-4.743 Y35.999 Z-0.200 F400.000
G0 Z4.000
G0 Z4.000
G0 Z4.000
G0 X-2.531 Y48.418
G0 Z2.000
(autolevel)
M5
G4P0.5
G90G1F400Z1
G38.3Z-3F30.0
G10L20P1Z0
G90G1F400Z1
M3 S12000
G4P0.5
(autolevel)
G1 X-2.531 Y48.418 Z-0.200 F150.000
G1 X-2.617 Y48.540 Z-0.200 F400.000
G1 X-2.638 Y48.655 Z-0.200 F400.000
G1 X-2.717 Y49.453 Z-0.200 F400.000
G1 X-2.772 Y49.672 Z-0.200 F400.000
G1 X-2.921 Y49.871 Z-0.200 F400.000
G1 X-3.090 Y49.972 Z-0.200 F400.000
G1 X-3.468 Y50.032 Z-0.200 F400.000
G1 X-3.166 Y49.997 Z-0.200 F400.000
G1 X-2.921 Y49.871 Z-0.200 F400.000
G1 X-2.790 Y49.708 Z-0.200 F400.000
G1 X-2.717 Y49.453 Z-0.200 F400.000
G1 X-2.638 Y48.655 Z-0.200 F400.000
G1 X-2.617 Y48.540 Z-0.200 F400.000
G1 X-2.531 Y48.418 Z-0.200 F400.000
G0 Z4.000
G0 Z4.000
G0 X-4.756 Y48.418
G0 Z2.000
G1 X-4.756 Y48.418 Z-0.200 F150.000
G1 X-4.756 Y51.582 Z-0.200 F400.000
G1 X-3.616 Y51.582 Z-0.200 F400.000
G1 X-3.127 Y51.531 Z-0.200 F400.000
G1 X-2.958 Y51.471 Z-0.200 F400.000
G1 X-2.831 Y51.389 Z-0.200 F400.000
G1 X-2.738 Y51.287 Z-0.200 F400.000
G1 X-2.678 Y51.167 Z-0.200 F400.000
G1 X-2.626 Y50.880 Z-0.200 F400.000
G1 X-2.661 Y50.568 Z-0.200 F400.000
G1 X-2.716 Y50.423 Z-0.200 F400.000
G1 X-2.804 Y50.295 Z-0.200 F400.000
G1 X-2.973 Y50.160 Z-0.200 F400.000
G1 X-3.086 Y50.104 Z-0.200 F400.000
G1 X-3.333 Y50.044 Z-0.200 F400.000
G1 X-3.528 Y50.032 Z-0.200 F400.000
G1 X-4.756 Y50.032 Z-0.200 F400.000
G1 X-3.528 Y50.032 Z-0.200 F400.000
G1 X-3.290 Y50.050 Z-0.200 F400.000
G1 X-3.093 Y50.104 Z-0.200 F400.000
G1 X-2.934 Y50.189 Z-0.200 F400.000
G1 X-2.811 Y50.295 Z-0.200 F400.000
G1 X-2.720 Y50.423 Z-0.200 F400.000
G1 X-2.662 Y50.568 Z-0.200 F400.000
G1 X-2.626 Y50.880 Z-0.200 F400.000
G1 X-2.681 Y51.167 Z-0.200 F400.000
G1 X-2.742 Y51.287 Z-0.200 F400.000
G1 X-2.836 Y51.389 Z-0.200 F400.000
G1 X-3.015 Y51.492 Z-0.200 F400.000
G1 X-3.136 Y51.531 Z-0.200 F400.000
G1 X-3.350 Y51.570 Z-0.200 F400.000
G1 X-3.616 Y51.582 Z-0.200 F400.000
G1 X-4.756 Y51.582 Z-0.200 F400.000
G1 X-4.756 Y48.418 Z-0.200 F400.000
G0 Z4.000
G0 Z4.000
G0 X-0.958 Y48.418
G0 Z2.000
G1 X-0.958 Y48.418 Z-0.200 F150.000
G1 X-0.958 Y51.582 Z-0.200 F400.000
G1 X0.039 Y51.582 Z-0.200 F400.000
G1 X0.312 Y51.565 Z-0.200 F400.000
G1 X0.531 Y51.515 Z-0.200 F400.000
G1 X0.703 Y51.435 Z-0.200 F400.000
G1 X0.834 Y51.334 Z-0.200 F400.000
G1 X0.929 Y51.213 Z-0.200 F400.000
G1 X0.991 Y51.075 Z-0.200 F400.000
G1 X1.046 Y50.770 Z-0.200 F400.000
G1 X1.010 Y50.456 Z-0.200 F400.000
G1 X0.952 Y50.309 Z-0.200 F400.000
G1 X0.860 Y50.178 Z-0.200 F400.000
G1 X0.685 Y50.036 Z-0.200 F400.000
G1 X0.570 Y49.977 Z-0.200 F400.000
G1 X0.328 Y49.914 Z-0.200 F400.000
G1 X0.121 Y49.901 Z-0.200 F400.000
G1 X-0.958 Y49.901 Z-0.200 F400.000
G1 X0.121 Y49.901 Z-0.200 F400.000
G1 X0.365 Y49.920 Z-0.200 F400.000
G1 X0.566 Y49.977 Z-0.200 F400.000
G1 X0.728 Y50.066 Z-0.200 F400.000
G1 X0.854 Y50.178 Z-0.200 F400.000
G1 X0.947 Y50.309 Z-0.200 F400.000
G1 X1.007 Y50.456 Z-0.200 F400.000
G1 X1.046 Y50.770 Z-0.200 F400.000
G1 X0.991 Y51.075 Z-0.200 F400.000
G1 X0.929 Y51.213 Z-0.200 F400.000
G1 X0.833 Y51.334 Z-0.200 F400.000
G1 X0.654 Y51.461 Z-0.200 F400.000
G1 X0.529 Y51.515 Z-0.200 F400.000
G1 X0.260 Y51.572 Z-0.200 F400.000
G1 X0.039 Y51.582 Z-0.200 F400.000
G1 X-0.958 Y51.582 Z-0.200 F400.000
G1 X-0.958 Y48.418 Z-0.200 F400.000
G0 Z4.000
G0 Z4.000
G0 X4.755 Y49.490
G0 Z2.000
G1 X4.755 Y49.490 Z-0.200 F150.000
G1 X4.650 Y49.125 Z-0.200 F400.000
G1 X4.500 Y48.858 Z-0.200 F400.000
G1 X4.415 Y48.760 Z-0.200 F400.000
G1 X4.320 Y48.675 Z-0.200 F400.000
G1 X4.079 Y48.533 Z-0.200 F400.000
G1 X3.786 Y48.446 Z-0.200 F400.000
G1 X3.625 Y48.425 Z-0.200 F400.000
G1 X3.452 Y48.418 Z-0.200 F400.000
G1 X3.080 Y48.454 Z-0.200 F400.000
G1 X2.782 Y48.554 Z-0.200 F400.000
G1 X2.605 Y48.660 Z-0.200 F400.000
G1 X2.452 Y48.796 Z-0.200 F400.000
G1 X2.295 Y49.019 Z-0.200 F400.000
G1 X2.181 Y49.310 Z-0.200 F400.000
G1 X2.113 Y49.689 Z-0.200 F400.000
G1 X2.099 Y50.000 Z-0.200 F400.000
G1 X2.135 Y50.481 Z-0.200 F400.000
G1 X2.232 Y50.842 Z-0.200 F400.000
G1 X2.329 Y51.038 Z-0.200 F400.000
G1 X2.452 Y51.201 Z-0.200 F400.000
G1 X2.671 Y51.383 Z-0.200 F400.000
G1 X2.933 Y51.506 Z-0.200 F400.000
G1 X3.249 Y51.572 Z-0.200 F400.000
G1 X3.452 Y51.582 Z-0.200 F400.000
G1 X3.827 Y51.546 Z-0.200 F400.000
G1 X4.229 Y51.389 Z-0.200 F400.000
G1 X4.433 Y51.221 Z-0.200 F400.000
G1 X4.593 Y50.993 Z-0.200 F400.000
G1 X4.643 Y50.891 Z-0.200 F400.000
G1 X4.686 Y50.780 Z-0.200 F400.000
G1 X4.545 Y51.074 Z-0.200 F400.000
G1 X4.366 Y51.287 Z-0.200 F400.000
G1 X4.300 Y51.341 Z-0.200 F400.000
G1 X4.229 Y51.389 Z-0.200 F400.000
G1 X3.966 Y51.509 Z-0.200 F400.000
G1 X3.648 Y51.573 Z-0.200 F400.000
G1 X3.552 Y51.580 Z-0.200 F400.000
G1 X3.452 Y51.582 Z-0.200 F400.000
G1 X3.081 Y51.546 Z-0.200 F400.000
G1 X2.784 Y51.446 Z-0.200 F400.000
G1 X2.606 Y51.339 Z-0.200 F400.000
G1 X2.452 Y51.201 Z-0.200 F400.000
G1 X2.295 Y50.977 Z-0.200 F400.000
G1 X2.180 Y50.685 Z-0.200 F400.000
G1 X2.113 Y50.307 Z-0.200 F400.000
G1 X2.099 Y50.000 Z-0.200 F400.000
G1 X2.135 Y49.517 Z-0.200 F400.000
G1 X2.232 Y49.155 Z-0.200 F400.000
G1 X2.329 Y48.959 Z-0.200 F400.000
G1 X2.452 Y48.796 Z-0.200 F400.000
G1 X2.672 Y48.615 Z-0.200 F400.000
G1 X2.935 Y48.493 Z-0.200 F400.000
G1 X3.251 Y48.427 Z-0.200 F400.000
G1 X3.452 Y48.418 Z-0.200 F400.000
G1 X3.828 Y48.454 Z-0.200 F400.000
G1 X4.125 Y48.554 Z-0.200 F400.000
G1 X4.226 Y48.609 Z-0.200 F400.000
G1 X4.320 Y48.675 Z-0.200 F400.000
G1 X4.504 Y48.864 Z-0.200 F400.000
G1 X4.646 Y49.117 Z-0.200 F400.000
G1 X4.708 Y49.293 Z-0.200 F400.000
G1 X4.755 Y49.490 Z-0.200 F400.000
G0 Z4.000
G0 Z4.000
G0 Z4.000
G0 X2.543 Y62.071
G0 Z2.000
(autolevel)
M5
G4P0.5
G90G1F400Z1
G38.3Z-3F30.0
G10L20P1Z0
G90G1F400Z1
M3 S12000
G4P0.5
(autolevel)
G1 X2.543 Y62.071 Z-0.200 F150.000
G1 X2.629 Y61.948 Z-0.200 F400.000
G1 X2.650 Y61.834 Z-0.200 F400.000
G1 X2.729 Y61.035 Z-0.200 F400.000
G1 X2.784 Y60.817 Z-0.200 F400.000
G1 X2.933 Y60.617 Z-0.200 F400.000
G1 X3.102 Y60.516 Z-0.200 F400.000
G1 X3.480 Y60.456 Z-0.200 F400.000
G1 X3.178 Y60.491 Z-0.200 F400.000
G1 X2.933 Y60.617 Z-0.200 F400.000
G1 X2.802 Y60.780 Z-0.200 F400.000
G1 X2.729 Y61.035 Z-0.200 F400.000
G1 X2.650 Y61.834 Z-0.200 F400.000
G1 X2.629 Y61.948 Z-0.200 F400.000
G1 X2.543 Y62.071 Z-0.200 F400.000
G0 Z4.000
G0 Z4.000
G0 X4.768 Y62.071
G0 Z2.000
G1 X4.768 Y62.071 Z-0.200 F150.000
G1 X4.768 Y58.906 Z-0.200 F400.000
G1 X3.628 Y58.906 Z-0.200 F400.000
G1 X3.139 Y58.957 Z-0.200 F400.000
G1 X2.970 Y59.018 Z-0.200 F400.000
G1 X2.842 Y59.100 Z-0.200 F400.000
G1 X2.750 Y59.201 Z-0.200 F400.000
G1 X2.690 Y59.322 Z-0.200 F400.000
G1 X2.637 Y59.608 Z-0.200 F400.000
G1 X2.673 Y59.921 Z-0.200 F400.000
G1 X2.728 Y60.066 Z-0.200 F400.000
G1 X2.816 Y60.193 Z-0.200 F400.000
G1 X2.985 Y60.329 Z-0.200 F400.000
G1 X3.098 Y60.384 Z-0.200 F400.000
G1 X3.345 Y60.445 Z-0.200 F400.000
G1 X3.540 Y60.456 Z-0.200 F400.000
G1 X4.768 Y60.456 Z-0.200 F400.000
G1 X3.540 Y60.456 Z-0.200 F400.000
G1 X3.302 Y60.438 Z-0.200 F400.000
G1 X3.105 Y60.384 Z-0.200 F400.000
G1 X2.946 Y60.300 Z-0.200 F400.000
G1 X2.823 Y60.193 Z-0.200 F400.000
G1 X2.732 Y60.066 Z-0.200 F400.000
G1 X2.674 Y59.921 Z-0.200 F400.000
G1 X2.637 Y59.608 Z-0.200 F400.000
G1 X2.693 Y59.322 Z-0.200 F400.000
G1 X2.754 Y59.201 Z-0.200 F400.000
G1 X2.848 Y59.100 Z-0.200 F400.000
G1 X3.027 Y58.996 Z-0.200 F400.000
G1 X3.148 Y58.957 Z-0.200 F400.000
G1 X3.362 Y58.919 Z-0.200 F400.000
G1 X3.628 Y58.906 Z-0.200 F400.000
G1 X4.768 Y58.906 Z-0.200 F400.000
G1 X4.768 Y62.071 Z-0.200 F400.000
G0 Z4.000
G0 Z4.000
G0 X0.970 Y62.071
G0 Z2.000
G1 X0.970 Y62.071 Z-0.200 F150.000
G1 X0.970 Y58.906 Z-0.200 F400.000
G1 X-0.027 Y58.906 Z-0.200 F400.000
G1 X-0.300 Y58.923 Z-0.200 F400.000
G1 X-0.519 Y58.974 Z-0.200 F400.000
G1 X-0.692 Y59.053 Z-0.200 F400.000
G1 X-0.823 Y59.155 Z-0.200 F400.000
G1 X-0.918 Y59.275 Z-0.200 F400.000
G1 X-0.979 Y59.414 Z-0.200 F400.000
G1 X-1.034 Y59.719 Z-0.200 F400.000
G1 X-0.998 Y60.032 Z-0.200 F400.000
G1 X-0.940 Y60.180 Z-0.200 F400.000
G1 X-0.848 Y60.311 Z-0.200 F400.000
G1 X-0.674 Y60.453 Z-0.200 F400.000
G1 X-0.558 Y60.511 Z-0.200 F400.000
G1 X-0.317 Y60.575 Z-0.200 F400.000
G1 X-0.109 Y60.588 Z-0.200 F400.000
G1 X0.970 Y60.588 Z-0.200 F400.000
G1 X-0.109 Y60.588 Z-0.200 F400.000
G1 X-0.353 Y60.569 Z-0.200 F400.000
G1 X-0.554 Y60.511 Z-0.200 F400.000
G1 X-0.717 Y60.422 Z-0.200 F400.000
G1 X-0.842 Y60.311 Z-0.200 F400.000
G1 X-0.935 Y60.180 Z-0.200 F400.000
G1 X-0.995 Y60.032 Z-0.200 F400.000
G1 X-1.034 Y59.719 Z-0.200 F400.000
G1 X-0.979 Y59.414 Z-0.200 F400.000
G1 X-0.917 Y59.275 Z-0.200 F400.000
G1 X-0.821 Y59.155 Z-0.200 F400.000
G1 X-0.642 Y59.028 Z-0.200 F400.000
G1 X-0.517 Y58.974 Z-0.200 F400.000
G1 X-0.248 Y58.917 Z-0.200 F400.000
G1 X-0.027 Y58.906 Z-0.200 F400.000
G1 X0.970 Y58.906 Z-0.200 F400.000
G1 X0.970 Y62.071 Z-0.200 F400.000
G0 Z4.000
G0 Z4.000
G0 X-4.743 Y60.999
G0 Z2.000
G1 X-4.743 Y60.999 Z-0.200 F150.000
G1 X-4.638 Y61.363 Z-0.200 F400.000
G1 X-4.488 Y61.630 Z-0.200 F400.000
G1 X-4.403 Y61.729 Z-0.200 F400.000
G1 X-4.308 Y61.814 Z-0.200 F400.000
G1 X-4.067 Y61.956 Z-0.200 F400.000
G1 X-3.774 Y62.043 Z-0.200 F400.000
G1 X-3.613 Y62.064 Z-0.200 F400.000
G1 X-3.441 Y62.071 Z-0.200 F400.000
G1 X-3.068 Y62.035 Z-0.200 F400.000
G1 X-2.770 Y61.935 Z-0.200 F400.000
G1 X-2.594 Y61.829 Z-0.200 F400.000
G1 X-2.440 Y61.692 Z-0.200 F400.000
G1 X-2.283 Y61.470 Z-0.200 F400.000
G1 X-2.169 Y61.178 Z-0.200 F400.000
G1 X-2.101 Y60.800 Z-0.200 F400.000
G1 X-2.087 Y60.489 Z-0.200 F400.000
G1 X-2.123 Y60.008 Z-0.200 F400.000
G1 X-2.221 Y59.647 Z-0.200 F400.000
G1 X-2.317 Y59.451 Z-0.200 F400.000
G1 X-2.440 Y59.288 Z-0.200 F400.000
G1 X-2.659 Y59.106 Z-0.200 F400.000
G1 X-2.922 Y58.982 Z-0.200 F400.000
G1 X-3.237 Y58.917 Z-0.200 F400.000
G1 X-3.441 Y58.906 Z-0.200 F400.000
G1 X-3.815 Y58.943 Z-0.200 F400.000
G1 X-4.218 Y59.100 Z-0.200 F400.000
G1 X-4.421 Y59.268 Z-0.200 F400.000
G1 X-4.582 Y59.496 Z-0.200 F400.000
G1 X-4.631 Y59.598 Z-0.200 F400.000
G1 X-4.674 Y59.709 Z-0.200 F400.000
G1 X-4.534 Y59.414 Z-0.200 F400.000
G1 X-4.354 Y59.201 Z-0.200 F400.000
G1 X-4.288 Y59.148 Z-0.200 F400.000
G1 X-4.218 Y59.100 Z-0.200 F400.000
G1 X-3.954 Y58.979 Z-0.200 F400.000
G1 X-3.636 Y58.915 Z-0.200 F400.000
G1 X-3.540 Y58.909 Z-0.200 F400.000
G1 X-3.441 Y58.906 Z-0.200 F400.000
G1 X-3.070 Y58.943 Z-0.200 F400.000
G1 X-2.772 Y59.043 Z-0.200 F400.000
G1 X-2.594 Y59.150 Z-0.200 F400.000
G1 X-2.440 Y59.288 Z-0.200 F400.000
G1 X-2.283 Y59.511 Z-0.200 F400.000
G1 X-2.168 Y59.804 Z-0.200 F400.000
G1 X-2.101 Y60.182 Z-0.200 F400.000
G1 X-2.087 Y60.489 Z-0.200 F400.000
G1 X-2.123 Y60.972 Z-0.200 F400.000
G1 X-2.221 Y61.334 Z-0.200 F400.000
G1 X-2.317 Y61.530 Z-0.200 F400.000
G1 X-2.440 Y61.692 Z-0.200 F400.000
G1 X-2.660 Y61.874 Z-0.200 F400.000
G1 X-2.923 Y61.996 Z-0.200 F400.000
G1 X-3.240 Y62.061 Z-0.200 F400.000
G1 X-3.441 Y62.071 Z-0.200 F400.000
G1 X-3.816 Y62.035 Z-0.200 F400.000
G1 X-4.113 Y61.935 Z-0.200 F400.000
G1 X-4.214 Y61.879 Z-0.200 F400.000
G1 X-4.308 Y61.814 Z-0.200 F400.000
G1 X-4.492 Y61.625 Z-0.200 F400.000
G1 X-4.634 Y61.372 Z-0.200 F400.000
G1 X-4.697 Y61.196 Z-0.200 F400.000
G1 X-4.743 Y60.999 Z-0.200 F400.000
G0 Z4.000
G0 Z4.000
G0 Z4.000
G0 X-2.531 Y73.418
G0 Z2.000
(autolevel)
M5
G4P0.5
G90G1F400Z1
G38.3Z-3F30.0
G10L20P1Z0
G90G1F400Z1
M3 S12000
G4P0.5
(autolevel)
G1 X-2.531 Y73.418 Z-0.200 F150.000
G1 X-2.617 Y73.540 Z-0.200 F400.000
G1 X-2.638 Y73.655 Z-0.200 F400.000
G1 X-2.717 Y74.453 Z-0.200 F400.000
G1 X-2.772 Y74.672 Z-0.200 F400.000
G1 X-2.921 Y74.871 Z-0.200 F400.000
G1 X-3.090 Y74.972 Z-0.200 F400.000
G1 X-3.468 Y75.032 Z-0.200 F400.000
G1 X-3.166 Y74.997 Z-0.200 F400.000
G1 X-2.921 Y74.871 Z-0.200 F400.000
G1 X-2.790 Y74.708 Z-0.200 F400.000
G1 X-2.717 Y74.453 Z-0.200 F400.000
G1 X-2.638 Y73.655 Z-0.200 F400.000
G1 X-2.617 Y73.540 Z-0.200 F400.000
G1 X-2.531 Y73.418 Z-0.200 F400.000
G0 Z4.000
G0 Z4.000
G0 X-4.756 Y73.418
G0 Z2.000
G1 X-4.756 Y73.418 Z-0.200 F150.000
G1 X-4.756 Y76.582 Z-0.200 F400.000
G1 X-3.616 Y76.582 Z-0.200 F400.000
G1 X-3.127 Y76.531 Z-0.200 F400.000
G1 X-2.958 Y76.471 Z-0.200 F400.000
G1 X-2.831 Y76.389 Z-0.200 F400.000
G1 X-2.738 Y76.287 Z-0.200 F400.000
G1 X-2.678 Y76.167 Z-0.200 F400.000
G1 X-2.626 Y75.880 Z-0.200 F400.000
G1 X-2.661 Y75.568 Z-0.200 F400.000
G1 X-2.716 Y75.423 Z-0.200 F400.000
G1 X-2.804 Y75.295 Z-0.200 F400.000
G1 X-2.973 Y75.160 Z-0.200 F400.000
G1 X-3.086 Y75.104 Z-0.200 F400.000
G1 X-3.333 Y75.044 Z-0.200 F400.000
G1 X-3.528 Y75.032 Z-0.200 F400.000
G1 X-4.756 Y75.032 Z-0.200 F400.000
G1 X-3.528 Y75.032 Z-0.200 F400.000
G1 X-3.290 Y75.050 Z-0.200 F400.000
G1 X-3.093 Y75.104 Z-0.200 F400.000
G1 X-2.934 Y75.189 Z-0.200 F400.000
G1 X-2.811 Y75.295 Z-0.200 F400.000
G1 X-2.720 Y75.423 Z-0.200 F400.000
G1 X-2.662 Y75.568 Z-0.200 F400.000
G1 X-2.626 Y75.880 Z-0.200 F400.000
G1 X-2.681 Y76.167 Z-0.200 F400.000
G1 X-2.742 Y76.287 Z-0.200 F400.000
G1 X-2.836 Y76.389 Z-0.200 F400.000
G1 X-3.015 Y76.492 Z-0.200 F400.000
G1 X-3.136 Y76.531 Z-0.200 F400.000
G1 X-3.350 Y76.570 Z-0.200 F400.000
G1 X-3.616 Y76.582 Z-0.200 F400.000
G1 X-4.756 Y76.582 Z-0.200 F400.000
G1 X-4.756 Y73.418 Z-0.200 F400.000
G0 Z4.000
G0 Z4.000
G0 X-0.958 Y73.418
G0 Z2.000
G1 X-0.958 Y73.418 Z-0.200 F150.000
G1 X-0.958 Y76.582 Z-0.200 F400.000
G1 X0.039 Y76.582 Z-0.200 F400.000
G1 X0.312 Y76.565 Z-0.200 F400.000
G1 X0.531 Y76.515 Z-0.200 F400.000
G1 X0.703 Y76.435 Z-0.200 F400.000
G1 X0.834 Y76.334 Z-0.200 F400.000
G1 X0.929 Y76.213 Z-0.200 F400.000
G1 X0.991 Y76.075 Z-0.200 F400.000
G1 X1.046 Y75.770 Z-0.200 F400.000
G1 X1.010 Y75.456 Z-0.200 F400.000
G1 X0.952 Y75.309 Z-0.200 F400.000
G1 X0.860 Y75.178 Z-0.200 F400.000
G1 X0.685 Y75.036 Z-0.200 F400.000
G1 X0.570 Y74.977 Z-0.200 F400.000
G1 X0.328 Y74.914 Z-0.200 F400.000
G1 X0.121 Y74.901 Z-0.200 F400.000
G1 X-0.958 Y74.901 Z-0.200 F400.000
G1 X0.121 Y74.901 Z-0.200 F400.000
G1 X0.365 Y74.920 Z-0.200 F400.000
G1 X0.566 Y74.977 Z-0.200 F400.000
G1 X0.728 Y75.066 Z-0.200 F400.000
G1 X0.854 Y75.178 Z-0.200 F400.000
G1 X0.947 Y75.309 Z-0.200 F400.000
G1 X1.007 Y75.456 Z-0.200 F400.000
G1 X1.046 Y75.770 Z-0.200 F400.000
G1 X0.991 Y76.075 Z-0.200 F400.000
G1 X0.929 Y76.213 Z-0.200 F400.000
G1 X0.833 Y76.334 Z-0.200 F400.000
G1 X0.654 Y76.461 Z-0.200 F400.000
G1 X0.529 Y76.515 Z-0.200 F400.000
G1 X0.260 Y76.572 Z-0.200 F400.000
G1 X0.039 Y76.582 Z-0.200 F400.000
G1 X-0.958 Y76.582 Z-0.200 F400.000
G1 X-0.958 Y73.418 Z-0.200 F400.000
G0 Z4.000
G0 Z4.000
G0 X4.755 Y74.490
G0 Z2.000
G1 X4.755 Y74.490 Z-0.200 F150.000
G1 X4.650 Y74.125 Z-0.200 F400.000
G1 X4.500 Y73.858 Z-0.200 F400.000
G1 X4.415 Y73.760 Z-0.200 F400.000
G1 X4.320 Y73.675 Z-0.200 F400.000
G1 X4.079 Y73.533 Z-0.200 F400.000
G1 X3.786 Y73.446 Z-0.200 F400.000
G1 X3.625 Y73.425 Z-0.200 F400.000
G1 X3.452 Y73.418 Z-0.200 F400.000
G1 X3.080 Y73.454 Z-0.200 F400.000
G1 X2.782 Y73.554 Z-0.200 F400.000
G1 X2.605 Y73.660 Z-0.200 F400.000
G1 X2.452 Y73.796 Z-0.200 F400.000
G1 X2.295 Y74.019 Z-0.200 F400.000
G1 X2.181 Y74.310 Z-0.200 F400.000
G1 X2.113 Y74.689 Z-0.200 F400.000
G1 X2.099 Y75.000 Z-0.200 F400.000
G1 X2.135 Y75.481 Z-0.200 F400.000
G1 X2.232 Y75.842 Z-0.200 F400.000
G1 X2.329 Y76.038 Z-0.200 F400.000
G1 X2.452 Y76.201 Z-0.200 F400.000
G1 X2.671 Y76.383 Z-0.200 F400.000
G1 X2.933 Y76.506 Z-0.200 F400.000
G1 X3.249 Y76.572 Z-0.200 F400.000
G1 X3.452 Y76.582 Z-0.200 F400.000
G1 X3.827 Y76.546 Z-0.200 F400.000
G1 X4.229 Y76.389 Z-0.200 F400.000
G1 X4.433 Y76.221 Z-0.200 F400.000
G1 X4.593 Y75.993 Z-0.200 F400.000
G1 X4.643 Y75.891 Z-0.200 F400.000
G1 X4.686 Y75.780 Z-0.200 F400.000
G1 X4.545 Y76.074 Z-0.200 F400.000
G1 X4.366 Y76.287 Z-0.200 F400.000
G1 X4.300 Y76.341 Z-0.200 F400.000
G1 X4.229 Y76.389 Z-0.200 F400.000
G1 X3.966 Y76.509 Z-0.200 F400.000
G1 X3.648 Y76.573 Z-0.200 F400.000
G1 X3.552 Y76.580 Z-0.200 F400.000
G1 X3.452 Y76.582 Z-0.200 F400.000
G1 X3.081 Y76.546 Z-0.200 F400.000
G1 X2.784 Y76.446 Z-0.200 F400.000
G1 X2.606 Y76.339 Z-0.200 F400.000
G1 X2.452 Y76.201 Z-0.200 F400.000
G1 X2.295 Y75.977 Z-0.200 F400.000
G1 X2.180 Y75.685 Z-0.200 F400.000
G1 X2.113 Y75.307 Z-0.200 F400.000
G1 X2.099 Y75.000 Z-0.200 F400.000
G1 X2.135 Y74.517 Z-0.200 F400.000
G1 X2.232 Y74.155 Z-0.200 F400.000
G1 X2.329 Y73.959 Z-0.200 F400.000
G1 X2.452 Y73.796 Z-0.200 F400.000
G1 X2.672 Y73.615 Z-0.200 F400.000
G1 X2.935 Y73.493 Z-0.200 F400.000
G1 X3.251 Y73.427 Z-0.200 F400.000
G1 X3.452 Y73.418 Z-0.200 F400.000
G1 X3.828 Y73.454 Z-0.200 F400.000
G1 X4.125 Y73.554 Z-0.200 F400.000
G1 X4.226 Y73.609 Z-0.200 F400.000
G1 X4.320 Y73.675 Z-0.200 F400.000
G1 X4.504 Y73.864 Z-0.200 F400.000
G1 X4.646 Y74.117 Z-0.200 F400.000
G1 X4.708 Y74.293 Z-0.200 F400.000
G1 X4.755 Y74.490 Z-0.200 F400.000
G0 Z4.000
G0 Z4.000
G0 Z4.000
G0 X2.543 Y87.071
G0 Z2.000
(autolevel)
M5
G4P0.5
G90G1F400Z1
G38.3Z-3F30.0
G10L20P1Z0
G90G1F400Z1
M3 S12000
G4P0.5
(autolevel)
G1 X2.543 Y87.071 Z-0.200 F150.000
G1 X2.629 Y86.948 Z-0.200 F400.000
G1 X2.650 Y86.834 Z-0.200 F400.000
G1 X2.729 Y86.035 Z-0.200 F400.000
G1 X2.784 Y85.817 Z-0.200 F400.000
G1 X2.933 Y85.617 Z-0.200 F400.000
G1 X3.102 Y85.516 Z-0.200 F400.000
G1 X3.480 Y85.456 Z-0.200 F400.000
G1 X3.178 Y85.491 Z-0.200 F400.000
G1 X2.933 Y85.617 Z-0.200 F400.000
G1 X2.802 Y85.780 Z-0.200 F400.000
G1 X2.729 Y86.035 Z-0.200 F400.000
G1 X2.650 Y86.834 Z-0.200 F400.000
G1 X2.629 Y86.948 Z-0.200 F400.000
G1 X2.543 Y87.071 Z-0.200 F400.000
G0 Z4.000
G0 Z4.000
G0 X4.768 Y87.071
G0 Z2.000
G1 X4.768 Y87.071 Z-0.200 F150.000
G1 X4.768 Y83.906 Z-0.200 F400.000
G1 X3.628 Y83.906 Z-0.200 F400.000
G1 X3.139 Y83.957 Z-0.200 F400.000
G1 X2.970 Y84.018 Z-0.200 F400.000
G1 X2.842 Y84.100 Z-0.200 F400.000
G1 X2.750 Y84.201 Z-0.200 F400.000
G1 X2.690 Y84.322 Z-0.200 F400.000
G1 X2.637 Y84.608 Z-0.200 F400.000
G1 X2.673 Y84.921 Z-0.200 F400.000
G1 X2.728 Y85.066 Z-0.200 F400.000
G1 X2.816 Y85.193 Z-0.200 F400.000
G1 X2.985 Y85.329 Z-0.200 F400.000
G1 X3.098 Y85.384 Z-0.200 F400.000
G1 X3.345 Y85.445 Z-0.200 F400.000
G1 X3.540 Y85.456 Z-0.200 F400.000
G1 X4.768 Y85.456 Z-0.200 F400.000
G1 X3.540 Y85.456 Z-0.200 F400.000
G1 X3.302 Y85.438 Z-0.200 F400.000
G1 X3.105 Y85.384 Z-0.200 F400.000
G1 X2.946 Y85.300 Z-0.200 F400.000
G1 X2.823 Y85.193 Z-0.200 F400.000
G1 X2.732 Y85.066 Z-0.200 F400.000
G1 X2.674 Y84.921 Z-0.200 F400.000
G1 X2.637 Y84.608 Z-0.200 F400.000
G1 X2.693 Y84.322 Z-0.200 F400.000
G1 X2.754 Y84.201 Z-0.200 F400.000
G1 X2.848 Y84.100 Z-0.200 F400.000
G1 X3.027 Y83.996 Z-0.200 F400.000
G1 X3.148 Y83.957 Z-0.200 F400.000
G1 X3.362 Y83.919 Z-0.200 F400.000
G1 X3.628 Y83.906 Z-0.200 F400.000
G1 X4.768 Y83.906 Z-0.200 F400.000
G1 X4.768 Y87.071 Z-0.200 F400.000
G0 Z4.000
G0 Z4.000
G0 X0.970 Y87.071
G0 Z2.000
G1 X0.970 Y87.071 Z-0.200 F150.000
G1 X0.970 Y83.906 Z-0.200 F400.000
G1 X-0.027 Y83.906 Z-0.200 F400.000
G1 X-0.300 Y83.923 Z-0.200 F400.000
G1 X-0.519 Y83.974 Z-0.200 F400.000
G1 X-0.692 Y84.053 Z-0.200 F400.000
G1 X-0.823 Y84.155 Z-0.200 F400.000
G1 X-0.918 Y84.275 Z-0.200 F400.000
G1 X-0.979 Y84.414 Z-0.200 F400.000
G1 X-1.034 Y84.719 Z-0.200 F400.000
G1 X-0.998 Y85.032 Z-0.200 F400.000
G1 X-0.940 Y85.180 Z-0.200 F400.000
G1 X-0.848 Y85.311 Z-0.200 F400.000
G1 X-0.674 Y85.453 Z-0.200 F400.000
G1 X-0.558 Y85.511 Z-0.200 F400.000
G1 X-0.317 Y85.575 Z-0.200 F400.000
G1 X-0.109 Y85.588 Z-0.200 F400.000
G1 X0.970 Y85.588 Z-0.200 F400.000
G1 X-0.109 Y85.588 Z-0.200 F400.000
G1 X-0.353 Y85.569 Z-0.200 F400.000
G1 X-0.554 Y85.511 Z-0.200 F400.000
G1 X-0.717 Y85.422 Z-0.200 F400.000
G1 X-0.842 Y85.311 Z-0.200 F400.000
G1 X-0.935 Y85.180 Z-0.200 F400.000
G1 X-0.995 Y85.032 Z-0.200 F400.000
G1 X-1.034 Y84.719 Z-0.200 F400.000
G1 X-0.979 Y84.414 Z-0.200 F400.000
G1 X-0.917 Y84.275 Z-0.200 F400.000
G1 X-0.821 Y84.155 Z-0.200 F400.000
G1 X-0.642 Y84.028 Z-0.200 F400.000
G1 X-0.517 Y83.974 Z-0.200 F400.000
G1 X-0.248 Y83.917 Z-0.200 F400.000
G1 X-0.027 Y83.906 Z-0.200 F400.000
G1 X0.970 Y83.906 Z-0.200 F400.000
G1 X0.970 Y87.071 Z-0.200 F400.000
G0 Z4.000
G0 Z4.000
G0 X-4.743 Y85.999
G0 Z2.000
G1 X-4.743 Y85.999 Z-0.200 F150.000
G1 X-4.638 Y86.363 Z-0.200 F400.000
G1 X-4.488 Y86.630 Z-0.200 F400.000
G1 X-4.403 Y86.729 Z-0.200 F400.000
G1 X-4.308 Y86.814 Z-0.200 F400.000
G1 X-4.067 Y86.956 Z-0.200 F400.000
G1 X-3.774 Y87.043 Z-0.200 F400.000
G1 X-3.613 Y87.064 Z-0.200 F400.000
G1 X-3.441 Y87.071 Z-0.200 F400.000
G1 X-3.068 Y87.035 Z-0.200 F400.000
G1 X-2.770 Y86.935 Z-0.200 F400.000
G1 X-2.594 Y86.829 Z-0.200 F400.000
G1 X-2.440 Y86.692 Z-0.200 F400.000
G1 X-2.283 Y86.470 Z-0.200 F400.000
G1 X-2.169 Y86.178 Z-0.200 F400.000
G1 X-2.101 Y85.800 Z-0.200 F400.000
G1 X-2.087 Y85.489 Z-0.200 F400.000
G1 X-2.123 Y85.008 Z-0.200 F400.000
G1 X-2.221 Y84.647 Z-0.200 F400.000
G1 X-2.317 Y84.451 Z-0.200 F400.000
G1 X-2.440 Y84.288 Z-0.200 F400.000
G1 X-2.659 Y84.106 Z-0.200 F400.000
G1 X-2.922 Y83.982 Z-0.200 F400.000
G1 X-3.237 Y83.917 Z-0.200 F400.000
G1 X-3.441 Y83.906 Z-0.200 F400.000
G1 X-3.815 Y83.943 Z-0.200 F400.000
G1 X-4.218 Y84.100 Z-0.200 F400.000
G1 X-4.421 Y84.268 Z-0.200 F400.000
G1 X-4.582 Y84.496 Z-0.200 F400.000
G1 X-4.631 Y84.598 Z-0.200 F400.000
G1 X-4.674 Y84.709 Z-0.200 F400.000
G1 X-4.534 Y84.414 Z-0.200 F400.000
G1 X-4.354 Y84.201 Z-0.200 F400.000
G1 X-4.288 Y84.148 Z-0.200 F400.000
G1 X-4.218 Y84.100 Z-0.200 F400.000
G1 X-3.954 Y83.979 Z-0.200 F400.000
G1 X-3.636 Y83.915 Z-0.200 F400.000
G1 X-3.540 Y83.909 Z-0.200 F400.000
G1 X-3.441 Y83.906 Z-0.200 F400.000
G1 X-3.070 Y83.943 Z-0.200 F400.000
G1 X-2.772 Y84.043 Z-0.200 F400.000
G1 X-2.594 Y84.150 Z-0.200 F400.000
G1 X-2.440 Y84.288 Z-0.200 F400.000
G1 X-2.283 Y84.511 Z-0.200 F400.000
G1 X-2.168 Y84.804 Z-0.200 F400.000
G1 X-2.101 Y85.182 Z-0.200 F400.000
G1 X-2.087 Y85.489 Z-0.200 F400.000
G1 X-2.123 Y85.972 Z-0.200 F400.000
G1 X-2.221 Y86.334 Z-0.200 F400.000
G1 X-2.317 Y86.530 Z-0.200 F400.000
G1 X-2.440 Y86.692 Z-0.200 F400.000
G1 X-2.660 Y86.874 Z-0.200 F400.000
G1 X-2.923 Y86.996 Z-0.200 F400.000
G1 X-3.240 Y87.061 Z-0.200 F400.000
G1 X-3.441 Y87.071 Z-0.200 F400.000
G1 X-3.816 Y87.035 Z-0.200 F400.000
G1 X-4.113 Y86.935 Z-0.200 F400.000
G1 X-4.214 Y86.879 Z-0.200 F400.000
G1 X-4.308 Y86.814 Z-0.200 F400.000
G1 X-4.492 Y86.625 Z-0.200 F400.000
G1 X-4.634 Y86.372 Z-0.200 F400.000
G1 X-4.697 Y86.196 Z-0.200 F400.000
G1 X-4.743 Y85.999 Z-0.200 F400.000
G0 Z4.000
G0 Z4.000
G0 Z4.000
G0 X-2.531 Y98.418
G0 Z2.000
(autolevel)
M5
G4P0.5
G90G1F400Z1
G38.3Z-3F30.0
G10L20P1Z0
G90G1F400Z1
M3 S12000
G4P0.5
(autolevel)
G1 X-2.531 Y98.418 Z-0.200 F150.000
G1 X-2.617 Y98.540 Z-0.200 F400.000
G1 X-2.638 Y98.655 Z-0.200 F400.000
G1 X-2.717 Y99.453 Z-0.200 F400.000
G1 X-2.772 Y99.672 Z-0.200 F400.000
G1 X-2.921 Y99.871 Z-0.200 F400.000
G1 X-3.090 Y99.972 Z-0.200 F400.000
G1 X-3.468 Y100.032 Z-0.200 F400.000
G1 X-3.166 Y99.997 Z-0.200 F400.000
G1 X-2.921 Y99.871 Z-0.200 F400.000
G1 X-2.790 Y99.708 Z-0.200 F400.000
G1 X-2.717 Y99.453 Z-0.200 F400.000
G1 X-2.638 Y98.655 Z-0.200 F400.000
G1 X-2.617 Y98.540 Z-0.200 F400.000
G1 X-2.531 Y98.418 Z-0.200 F400.000
G0 Z4.000
G0 Z4.000
G0 X-4.756 Y98.418
G0 Z2.000
G1 X-4.756 Y98.418 Z-0.200 F150.000
G1 X-4.756 Y101.582 Z-0.200 F400.000
G1 X-3.616 Y101.582 Z-0.200 F400.000
G1 X-3.127 Y101.531 Z-0.200 F400.000
G1 X-2.958 Y101.471 Z-0.200 F400.000
G1 X-2.831 Y101.389 Z-0.200 F400.000
G1 X-2.738 Y101.287 Z-0.200 F400.000
G1 X-2.678 Y101.167 Z-0.200 F400.000
G1 X-2.626 Y100.880 Z-0.200 F400.000
G1 X-2.661 Y100.568 Z-0.200 F400.000
G1 X-2.716 Y100.423 Z-0.200 F400.000
G1 X-2.804 Y100.295 Z-0.200 F400.000
G1 X-2.973 Y100.160 Z-0.200 F400.000
G1 X-3.086 Y100.104 Z-0.200 F400.000
G1 X-3.333 Y100.044 Z-0.200 F400.000
G1 X-3.528 Y100.032 Z-0.200 F400.000
G1 X-4.756 Y100.032 Z-0.200 F400.000
G1 X-3.528 Y100.032 Z-0.200 F400.000
G1 X-3.290 Y100.050 Z-0.200 F400.000
G1 X-3.093 Y100.104 Z-0.200 F400.000
G1 X-2.934 Y100.189 Z-0.200 F400.000
G1 X-2.811 Y100.295 Z-0.200 F400.000
G1 X-2.720 Y100.423 Z-0.200 F400.000
G1 X-2.662 Y100.568 Z-0.200 F400.000
G1 X-2.626 Y100.880 Z-0.200 F400.000
G1 X-2.681 Y101.167 Z-0.200 F400.000
G1 X-2.742 Y101.287 Z-0.200 F400.000
G1 X-2.836 Y101.389 Z-0.200 F400.000
G1 X-3.015 Y101.492 Z-0.200 F400.000
G1 X-3.136 Y101.531 Z-0.200 F400.000
G1 X-3.350 Y101.570 Z-0.200 F400.000
G1 X-3.616 Y101.582 Z-0.200 F400.000
G1 X-4.756 Y101.582 Z-0.200 F400.000
G1 X-4.756 Y98.418 Z-0.200 F400.000
G0 Z4.000
G0 Z4.000
G0 X-0.958 Y98.418
G0 Z2.000
G1 X-0.958 Y98.418 Z-0.200 F150.000
G1 X-0.958 Y101.582 Z-0.200 F400.000
G1 X0.039 Y101.582 Z-0.200 F400.000
G1 X0.312 Y101.565 Z-0.200 F400.000
G1 X0.531 Y101.515 Z-0.200 F400.000
G1 X0.703 Y101.435 Z-0.200 F400.000
G1 X0.834 Y101.334 Z-0.200 F400.000
G1 X0.929 Y101.213 Z-0.200 F400.000
G1 X0.991 Y101.075 Z-0.200 F400.000
G1 X1.046 Y100.770 Z-0.200 F400.000
G1 X1.010 Y100.456 Z-0.200 F400.000
G1 X0.952 Y100.309 Z-0.200 F400.000
G1 X0.860 Y100.178 Z-0.200 F400.000
G1 X0.685 Y100.036 Z-0.200 F400.000
G1 X0.570 Y99.977 Z-0.200 F400.000
G1 X0.328 Y99.914 Z-0.200 F400.000
G1 X0.121 Y99.901 Z-0.200 F400.000
G1 X-0.958 Y99.901 Z-0.200 F400.000
G1 X0.121 Y99.901 Z-0.200 F400.000
G1 X0.365 Y99.920 Z-0.200 F400.000
G1 X0.566 Y99.977 Z-0.200 F400.000
G1 X0.728 Y100.066 Z-0.200 F400.000
G1 X0.854 Y100.178 Z-0.200 F400.000
G1 X0.947 Y100.309 Z-0.200 F400.000
G1 X1.007 Y100.456 Z-0.200 F400.000
G1 X1.046 Y100.770 Z-0.200 F400.000
G1 X0.991 Y101.075 Z-0.200 F400.000
G1 X0.929 Y101.213 Z-0.200 F400.000
G1 X0.833 Y101.334 Z-0.200 F400.000
G1 X0.654 Y101.461 Z-0.200 F400.000
G1 X0.529 Y101.515 Z-0.200 F400.000
G1 X0.260 Y101.572 Z-0.200 F400.000
G1 X0.039 Y101.582 Z-0.200 F400.000
G1 X-0.958 Y101.582 Z-0.200 F400.000
G1 X-0.958 Y98.418 Z-0.200 F400.000
G0 Z4.000
G0 Z4.000
G0 X4.755 Y99.490
G0 Z2.000
G1 X4.755 Y99.490 Z-0.200 F150.000
G1 X4.650 Y99.125 Z-0.200 F400.000
G1 X4.500 Y98.858 Z-0.200 F400.000
G1 X4.415 Y98.760 Z-0.200 F400.000
G1 X4.320 Y98.675 Z-0.200 F400.000
G1 X4.079 Y98.533 Z-0.200 F400.000
G1 X3.786 Y98.446 Z-0.200 F400.000
G1 X3.625 Y98.425 Z-0.200 F400.000
G1 X3.452 Y98.418 Z-0.200 F400.000
G1 X3.080 Y98.454 Z-0.200 F400.000
G1 X2.782 Y98.554 Z-0.200 F400.000
G1 X2.605 Y98.660 Z-0.200 F400.000
G1 X2.452 Y98.796 Z-0.200 F400.000
G1 X2.295 Y99.019 Z-0.200 F400.000
G1 X2.181 Y99.310 Z-0.200 F400.000
G1 X2.113 Y99.689 Z-0.200 F400.000
G1 X2.099 Y100.000 Z-0.200 F400.000
G1 X2.135 Y100.481 Z-0.200 F400.000
G1 X2.232 Y100.842 Z-0.200 F400.000
G1 X2.329 Y101.038 Z-0.200 F400.000
G1 X2.452 Y101.201 Z-0.200 F400.000
G1 X2.671 Y101.383 Z-0.200 F400.000
G1 X2.933 Y101.506 Z-0.200 F400.000
G1 X3.249 Y101.572 Z-0.200 F400.000
G1 X3.452 Y101.582 Z-0.200 F400.000
G1 X3.827 Y101.546 Z-0.200 F400.000
G1 X4.229 Y101.389 Z-0.200 F400.000
G1 X4.433 Y101.221 Z-0.200 F400.000
G1 X4.593 Y100.993 Z-0.200 F400.000
G1 X4.643 Y100.891 Z-0.200 F400.000
G1 X4.686 Y100.780 Z-0.200 F400.000
G1 X4.545 Y101.074 Z-0.200 F400.000
G1 X4.366 Y101.287 Z-0.200 F400.000
G1 X4.300 Y101.341 Z-0.200 F400.000
G1 X4.229 Y101.389 Z-0.200 F400.000
G1 X3.966 Y101.509 Z-0.200 F400.000
G1 X3.648 Y101.573 Z-0.200 F400.000
G1 X3.552 Y101.580 Z-0.200 F400.000
G1 X3.452 Y101.582 Z-0.200 F400.000
G1 X3.081 Y101.546 Z-0.200 F400.000
G1 X2.784 Y101.446 Z-0.200 F400.000
G1 X2.606 Y101.339 Z-0.200 F400.000
G1 X2.452 Y101.201 Z-0.200 F400.000
G1 X2.295 Y100.977 Z-0.200 F400.000
G1 X2.180 Y100.685 Z-0.200 F400.000
G1 X2.113 Y100.307 Z-0.200 F400.000
G1 X2.099 Y100.000 Z-0.200 F400.000
G1 X2.135 Y99.517 Z-0.200 F400.000
G1 X2.232 Y99.155 Z-0.200 F400.000
G1 X2.329 Y98.959 Z-0.200 F400.000
G1 X2.452 Y98.796 Z-0.200 F400.000
G1 X2.672 Y98.615 Z-0.200 F400.000
G1 X2.935 Y98.493 Z-0.200 F400.000
G1 X3.251 Y98.427 Z-0.200 F400.000
G1 X3.452 Y98.418 Z-0.200 F400.000
G1 X3.828 Y98.454 Z-0.200 F400.000
G1 X4.125 Y98.554 Z-0.200 F400.000
G1 X4.226 Y98.609 Z-0.200 F400.000
G1 X4.320 Y98.675 Z-0.200 F400.000
G1 X4.504 Y98.864 Z-0.200 F400.000
G1 X4.646 Y99.117 Z-0.200 F400.000
G1 X4.708 Y99.293 Z-0.200 F400.000
G1 X4.755 Y99.490 Z-0.200 F400.000
G0 Z4.000
G0 Z4.000
G0 Z4.000
G0 X2.543 Y112.071
G0 Z2.000
(autolevel)
M5
G4P0.5
G90G1F400Z1
G38.3Z-3F30.0
G10L20P1Z0
G90G1F400Z1
M3 S12000
G4P0.5
(autolevel)
G1 X2.543 Y112.071 Z-0.200 F150.000
G1 X2.629 Y111.948 Z-0.200 F400.000
G1 X2.650 Y111.834 Z-0.200 F400.000
G1 X2.729 Y111.035 Z-0.200 F400.000
G1 X2.784 Y110.817 Z-0.200 F400.000
G1 X2.933 Y110.617 Z-0.200 F400.000
G1 X3.102 Y110.516 Z-0.200 F400.000
G1 X3.480 Y110.456 Z-0.200 F400.000
G1 X3.178 Y110.491 Z-0.200 F400.000
G1 X2.933 Y110.617 Z-0.200 F400.000
G1 X2.802 Y110.780 Z-0.200 F400.000
G1 X2.729 Y111.035 Z-0.200 F400.000
G1 X2.650 Y111.834 Z-0.200 F400.000
G1 X2.629 Y111.948 Z-0.200 F400.000
G1 X2.543 Y112.071 Z-0.200 F400.000
G0 Z4.000
G0 Z4.000
G0 X4.768 Y112.071
G0 Z2.000
G1 X4.768 Y112.071 Z-0.200 F150.000
G1 X4.768 Y108.906 Z-0.200 F400.000
G1 X3.628 Y108.906 Z-0.200 F400.000
G1 X3.139 Y108.957 Z-0.200 F400.000
G1 X2.970 Y109.018 Z-0.200 F400.000
G1 X2.842 Y109.100 Z-0.200 F400.000
G1 X2.750 Y109.201 Z-0.200 F400.000
G1 X2.690 Y109.322 Z-0.200 F400.000
G1 X2.637 Y109.608 Z-0.200 F400.000
G1 X2.673 Y109.921 Z-0.200 F400.000
G1 X2.728 Y110.066 Z-0.200 F400.000
G1 X2.816 Y110.193 Z-0.200 F400.000
G1 X2.985 Y110.329 Z-0.200 F400.000
G1 X3.098 Y110.384 Z-0.200 F400.000
G1 X3.345 Y110.445 Z-0.200 F400.000
G1 X3.540 Y110.456 Z-0.200 F400.000
G1 X4.768 Y110.456 Z-0.200 F400.000
G1 X3.540 Y110.456 Z-0.200 F400.000
G1 X3.302 Y110.438 Z-0.200 F400.000
G1 X3.105 Y110.384 Z-0.200 F400.000
G1 X2.946 Y110.300 Z-0.200 F400.000
G1 X2.823 Y110.193 Z-0.200 F400.000
G1 X2.732 Y110.066 Z-0.200 F400.000
G1 X2.674 Y109.921 Z-0.200 F400.000
G1 X2.637 Y109.608 Z-0.200 F400.000
G1 X2.693 Y109.322 Z-0.200 F400.000
G1 X2.754 Y109.201 Z-0.200 F400.000
G1 X2.848 Y109.100 Z-0.200 F400.000
G1 X3.027 Y108.996 Z-0.200 F400.000
G1 X3.148 Y108.957 Z-0.200 F400.000
G1 X3.362 Y108.919 Z-0.200 F400.000
G1 X3.628 Y108.906 Z-0.200 F400.000
G1 X4.768 Y108.906 Z-0.200 F400.000
G1 X4.768 Y112.071 Z-0.200 F400.000
G0 Z4.000
G0 Z4.000
G0 X0.970 Y112.071
G0 Z2.000
G1 X0.970 Y112.071 Z-0.200 F150.000
G1 X0.970 Y108.906 Z-0.200 F400.000
G1 X-0.027 Y108.906 Z-0.200 F400.000
G1 X-0.300 Y108.923 Z-0.200 F400.000
G1 X-0.519 Y108.974 Z-0.200 F400.000
G1 X-0.692 Y109.053 Z-0.200 F400.000
G1 X-0.823 Y109.155 Z-0.200 F400.000
G1 X-0.918 Y109.275 Z-0.200 F400.000
G1 X-0.979 Y109.414 Z-0.200 F400.000
G1 X-1.034 Y109.719 Z-0.200 F400.000
G1 X-0.998 Y110.032 Z-0.200 F400.000
G1 X-0.940 Y110.180 Z-0.200 F400.000
G1 X-0.848 Y110.311 Z-0.200 F400.000
G1 X-0.674 Y110.453 Z-0.200 F400.000
G1 X-0.558 Y110.511 Z-0.200 F400.000
G1 X-0.317 Y110.575 Z-0.200 F400.000
G1 X-0.109 Y110.588 Z-0.200 F400.000
G1 X0.970 Y110.588 Z-0.200 F400.000
G1 X-0.109 Y110.588 Z-0.200 F400.000
G1 X-0.353 Y110.569 Z-0.200 F400.000
G1 X-0.554 Y110.511 Z-0.200 F400.000
G1 X-0.717 Y110.422 Z-0.200 F400.000
G1 X-0.842 Y110.311 Z-0.200 F400.000
G1 X-0.935 Y110.180 Z-0.200 F400.000
G1 X-0.995 Y110.032 Z-0.200 F400.000
G1 X-1.034 Y109.719 Z-0.200 F400.000
G1 X-0.979 Y109.414 Z-0.200 F400.000
G1 X-0.917 Y109.275 Z-0.200 F400.000
G1 X-0.821 Y109.155 Z-0.200 F400.000
G1 X-0.642 Y109.028 Z-0.200 F400.000
G1 X-0.517 Y108.974 Z-0.200 F400.000
G1 X-0.248 Y108.917 Z-0.200 F400.000
G1 X-0.027 Y108.906 Z-0.200 F400.000
G1 X0.970 Y108.906 Z-0.200 F400.000
G1 X0.970 Y112.071 Z-0.200 F400.000
G0 Z4.000
G0 Z4.000
G0 X-4.743 Y110.999
G0 Z2.000
G1 X-4.743 Y110.999 Z-0.200 F150.000
G1 X-4.638 Y111.363 Z-0.200 F400.000
G1 X-4.488 Y111.630 Z-0.200 F400.000
G1 X-4.403 Y111.729 Z-0.200 F400.000
G1 X-4.308 Y111.814 Z-0.200 F400.000
G1 X-4.067 Y111.956 Z-0.200 F400.000
G1 X-3.774 Y112.043 Z-0.200 F400.000
G1 X-3.613 Y112.064 Z-0.200 F400.000
G1 X-3.441 Y112.071 Z-0.200 F400.000
G1 X-3.068 Y112.035 Z-0.200 F400.000
G1 X-2.770 Y111.935 Z-0.200 F400.000
G1 X-2.594 Y111.829 Z-0.200 F400.000
G1 X-2.440 Y111.692 Z-0.200 F400.000
G1 X-2.283 Y111.470 Z-0.200 F400.000
G1 X-2.169 Y111.178 Z-0.200 F400.000
G1 X-2.101 Y110.800 Z-0.200 F400.000
G1 X-2.087 Y110.489 Z-0.200 F400.000
G1 X-2.123 Y110.008 Z-0.200 F400.000
G1 X-2.221 Y109.647 Z-0.200 F400.000
G1 X-2.317 Y109.451 Z-0.200 F400.000
G1 X-2.440 Y109.288 Z-0.200 F400.000
G1 X-2.659 Y109.106 Z-0.200 F400.000
G1 X-2.922 Y108.982 Z-0.200 F400.000
G1 X-3.237 Y108.917 Z-0.200 F400.000
G1 X-3.441 Y108.906 Z-0.200 F400.000
G1 X-3.815 Y108.943 Z-0.200 F400.000
G1 X-4.218 Y109.100 Z-0.200 F400.000
G1 X-4.421 Y109.268 Z-0.200 F400.000
G1 X-4.582 Y109.496 Z-0.200 F400.000
G1 X-4.631 Y109.598 Z-0.200 F400.000
G1 X-4.674 Y109.709 Z-0.200 F400.000
G1 X-4.534 Y109.414 Z-0.200 F400.000
G1 X-4.354 Y109.201 Z-0.200 F400.000
G1 X-4.288 Y109.148 Z-0.200 F400.000
G1 X-4.218 Y109.100 Z-0.200 F400.000
G1 X-3.954 Y108.979 Z-0.200 F400.000
G1 X-3.636 Y108.915 Z-0.200 F400.000
G1 X-3.540 Y108.909 Z-0.200 F400.000
G1 X-3.441 Y108.906 Z-0.200 F400.000
G1 X-3.070 Y108.943 Z-0.200 F400.000
G1 X-2.772 Y109.043 Z-0.200 F400.000
G1 X-2.594 Y109.150 Z-0.200 F400.000
G1 X-2.440 Y109.288 Z-0.200 F400.000
G1 X-2.283 Y109.511 Z-0.200 F400.000
G1 X-2.168 Y109.804 Z-0.200 F400.000
G1 X-2.101 Y110.182 Z-0.200 F400.000
G1 X-2.087 Y110.489 Z-0.200 F400.000
G1 X-2.123 Y110.972 Z-0.200 F400.000
G1 X-2.221 Y111.334 Z-0.200 F400.000
G1 X-2.317 Y111.530 Z-0.200 F400.000
G1 X-2.440 Y111.692 Z-0.200 F400.000
G1 X-2.660 Y111.874 Z-0.200 F400.000
G1 X-2.923 Y111.996 Z-0.200 F400.000
G1 X-3.240 Y112.061 Z-0.200 F400.000
G1 X-3.441 Y112.071 Z-0.200 F400.000
G1 X-3.816 Y112.035 Z-0.200 F400.000
G1 X-4.113 Y111.935 Z-0.200 F400.000
G1 X-4.214 Y111.879 Z-0.200 F400.000
G1 X-4.308 Y111.814 Z-0.200 F400.000
G1 X-4.492 Y111.625 Z-0.200 F400.000
G1 X-4.634 Y111.372 Z-0.200 F400.000
G1 X-4.697 Y111.196 Z-0.200 F400.000
G1 X-4.743 Y110.999 Z-0.200 F400.000
G0 Z4.000
G0 Z4.000
G0 Z4.000
G0 X-2.531 Y123.418
G0 Z2.000
(autolevel)
M5
G4P0.5
G90G1F400Z1
G38.3Z-3F30.0
G10L20P1Z0
G90G1F400Z1
M3 S12000
G4P0.5
(autolevel)
G1 X-2.531 Y123.418 Z-0.200 F150.000
G1 X-2.617 Y123.540 Z-0.200 F400.000
G1 X-2.638 Y123.655 Z-0.200 F400.000
G1 X-2.717 Y124.453 Z-0.200 F400.000
G1 X-2.772 Y124.672 Z-0.200 F400.000
G1 X-2.921 Y124.871 Z-0.200 F400.000
G1 X-3.090 Y124.972 Z-0.200 F400.000
G1 X-3.468 Y125.032 Z-0.200 F400.000
G1 X-3.166 Y124.997 Z-0.200 F400.000
G1 X-2.921 Y124.871 Z-0.200 F400.000
G1 X-2.790 Y124.708 Z-0.200 F400.000
G1 X-2.717 Y124.453 Z-0.200 F400.000
G1 X-2.638 Y123.655 Z-0.200 F400.000
G1 X-2.617 Y123.540 Z-0.200 F400.000
G1 X-2.531 Y123.418 Z-0.200 F400.000
G0 Z4.000
G0 Z4.000
G0 X-4.756 Y123.418
G0 Z2.000
G1 X-4.756 Y123.418 Z-0.200 F150.000
G1 X-4.756 Y126.582 Z-0.200 F400.000
G1 X-3.616 Y126.582 Z-0.200 F400.000
G1 X-3.127 Y126.531 Z-0.200 F400.000
G1 X-2.958 Y126.471 Z-0.200 F400.000
G1 X-2.831 Y126.389 Z-0.200 F400.000
G1 X-2.738 Y126.287 Z-0.200 F400.000
G1 X-2.678 Y126.167 Z-0.200 F400.000
G1 X-2.626 Y125.880 Z-0.200 F400.000
G1 X-2.661 Y125.568 Z-0.200 F400.000
G1 X-2.716 Y125.423 Z-0.200 F400.000
G1 X-2.804 Y125.295 Z-0.200 F400.000
G1 X-2.973 Y125.160 Z-0.200 F400.000
G1 X-3.086 Y125.104 Z-0.200 F400.000
G1 X-3.333 Y125.044 Z-0.200 F400.000
G1 X-3.528 Y125.032 Z-0.200 F400.000
G1 X-4.756 Y125.032 Z-0.200 F400.000
G1 X-3.528 Y125.032 Z-0.200 F400.000
G1 X-3.290 Y125.050 Z-0.200 F400.000
G1 X-3.093 Y125.104 Z-0.200 F400.000
G1 X-2.934 Y125.189 Z-0.200 F400.000
G1 X-2.811 Y125.295 Z-0.200 F400.000
G1 X-2.720 Y125.423 Z-0.200 F400.000
G1 X-2.662 Y125.568 Z-0.200 F400.000
G1 X-2.626 Y125.880 Z-0.200 F400.000
G1 X-2.681 Y126.167 Z-0.200 F400.000
G1 X-2.742 Y126.287 Z-0.200 F400.000
G1 X-2.836 Y126.389 Z-0.200 F400.000
G1 X-3.015 Y126.492 Z-0.200 F400.000
G1 X-3.136 Y126.531 Z-0.200 F400.000
G1 X-3.350 Y126.570 Z-0.200 F400.000
G1 X-3.616 Y126.582 Z-0.200 F400.000
G1 X-4.756 Y126.582 Z-0.200 F400.000
G1 X-4.756 Y123.418 Z-0.200 F400.000
G0 Z4.000
G0 Z4.000
G0 X-0.958 Y123.418
G0 Z2.000
G1 X-0.958 Y123.418 Z-0.200 F150.000
G1 X-0.958 Y126.582 Z-0.200 F400.000
G1 X0.039 Y126.582 Z-0.200 F400.000
G1 X0.312 Y126.565 Z-0.200 F400.000
G1 X0.531 Y126.515 Z-0.200 F400.000
G1 X0.703 Y126.435 Z-0.200 F400.000
G1 X0.834 Y126.334 Z-0.200 F400.000
G1 X0.929 Y126.213 Z-0.200 F400.000
G1 X0.991 Y126.075 Z-0.200 F400.000
G1 X1.046 Y125.770 Z-0.200 F400.000
G1 X1.010 Y125.456 Z-0.200 F400.000
G1 X0.952 Y125.309 Z-0.200 F400.000
G1 X0.860 Y125.178 Z-0.200 F400.000
G1 X0.685 Y125.036 Z-0.200 F400.000
G1 X0.570 Y124.977 Z-0.200 F400.000
G1 X0.328 Y124.914 Z-0.200 F400.000
G1 X0.121 Y124.901 Z-0.200 F400.000
G1 X-0.958 Y124.901 Z-0.200 F400.000
G1 X0.121 Y124.901 Z-0.200 F400.000
G1 X0.365 Y124.920 Z-0.200 F400.000
G1 X0.566 Y124.977 Z-0.200 F400.000
G1 X0.728 Y125.066 Z-0.200 F400.000
G1 X0.854 Y125.178 Z-0.200 F400.000
G1 X0.947 Y125.309 Z-0.200 F400.000
G1 X1.007 Y125.456 Z-0.200 F400.000
G1 X1.046 Y125.770 Z-0.200 F400.000
G1 X0.991 Y126.075 Z-0.200 F400.000
G1 X0.929 Y126.213 Z-0.200 F400.000
G1 X0.833 Y126.334 Z-0.200 F400.000
G1 X0.654 Y126.461 Z-0.200 F400.000
G1 X0.529 Y126.515 Z-0.200 F400.000
G1 X0.260 Y126.572 Z-0.200 F400.000
G1 X0.039 Y126.582 Z-0.200 F400.000
G1 X-0.958 Y126.582 Z-0.200 F400.000
G1 X-0.958 Y123.418 Z-0.200 F400.000
G0 Z4.000
G0 Z4.000
G0 X4.755 Y124.490
G0 Z2.000
G1 X4.755 Y124.490 Z-0.200 F150.000
G1 X4.650 Y124.125 Z-0.200 F400.000
G1 X4.500 Y123.858 Z-0.200 F400.000
G1 X4.415 Y123.760 Z-0.200 F400.000
G1 X4.320 Y123.675 Z-0.200 F400.000
G1 X4.079 Y123.533 Z-0.200 F400.000
G1 X3.786 Y123.446 Z-0.200 F400.000
G1 X3.625 Y123.425 Z-0.200 F400.000
G1 X3.452 Y123.418 Z-0.200 F400.000
G1 X3.080 Y123.454 Z-0.200 F400.000
G1 X2.782 Y123.554 Z-0.200 F400.000
G1 X2.605 Y123.660 Z-0.200 F400.000
G1 X2.452 Y123.796 Z-0.200 F400.000
G1 X2.295 Y124.019 Z-0.200 F400.000
G1 X2.181 Y124.310 Z-0.200 F400.000
G1 X2.113 Y124.689 Z-0.200 F400.000
G1 X2.099 Y125.000 Z-0.200 F400.000
G1 X2.135 Y125.481 Z-0.200 F400.000
G1 X2.232 Y125.842 Z-0.200 F400.000
G1 X2.329 Y126.038 Z-0.200 F400.000
G1 X2.452 Y126.201 Z-0.200 F400.000
G1 X2.671 Y126.383 Z-0.200 F400.000
G1 X2.933 Y126.506 Z-0.200 F400.000
G1 X3.249 Y126.572 Z-0.200 F400.000
G1 X3.452 Y126.582 Z-0.200 F400.000
G1 X3.827 Y126.546 Z-0.200 F400.000
G1 X4.229 Y126.389 Z-0.200 F400.000
G1 X4.433 Y126.221 Z-0.200 F400.000
G1 X4.593 Y125.993 Z-0.200 F400.000
G1 X4.643 Y125.891 Z-0.200 F400.000
G1 X4.686 Y125.780 Z-0.200 F400.000
G1 X4.545 Y126.074 Z-0.200 F400.000
G1 X4.366 Y126.287 Z-0.200 F400.000
G1 X4.300 Y126.341 Z-0.200 F400.000
G1 X4.229 Y126.389 Z-0.200 F400.000
G1 X3.966 Y126.509 Z-0.200 F400.000
G1 X3.648 Y126.573 Z-0.200 F400.000
G1 X3.552 Y126.580 Z-0.200 F400.000
G1 X3.452 Y126.582 Z-0.200 F400.000
G1 X3.081 Y126.546 Z-0.200 F400.000
G1 X2.784 Y126.446 Z-0.200 F400.000
G1 X2.606 Y126.339 Z-0.200 F400.000
G1 X2.452 Y126.201 Z-0.200 F400.000
G1 X2.295 Y125.977 Z-0.200 F400.000
G1 X2.180 Y125.685 Z-0.200 F400.000
G1 X2.113 Y125.307 Z-0.200 F400.000
G1 X2.099 Y125.000 Z-0.200 F400.000
G1 X2.135 Y124.517 Z-0.200 F400.000
G1 X2.232 Y124.155 Z-0.200 F400.000
G1 X2.329 Y123.959 Z-0.200 F400.000
G1 X2.452 Y123.796 Z-0.200 F400.000
G1 X2.672 Y123.615 Z-0.200 F400.000
G1 X2.935 Y123.493 Z-0.200 F400.000
G1 X3.251 Y123.427 Z-0.200 F400.000
G1 X3.452 Y123.418 Z-0.200 F400.000
G1 X3.828 Y123.454 Z-0.200 F400.000
G1 X4.125 Y123.554 Z-0.200 F400.000
G1 X4.226 Y123.609 Z-0.200 F400.000
G1 X4.320 Y123.675 Z-0.200 F400.000
G1 X4.504 Y123.864 Z-0.200 F400.000
G1 X4.646 Y124.117 Z-0.200 F400.000
G1 X4.708 Y124.293 Z-0.200 F400.000
G1 X4.755 Y124.490 Z-0.200 F400.000
G0 Z4.000
G0 Z4.000
G0 Z4.000
G0 X2.543 Y137.071
G0 Z2.000
(autolevel)
M5
G4P0.5
G90G1F400Z1
G38.3Z-3F30.0
G10L20P1Z0
G90G1F400Z1
M3 S12000
G4P0.5
(autolevel)
G1 X2.543 Y137.071 Z-0.200 F150.000
G1 X2.629 Y136.948 Z-0.200 F400.000
G1 X2.650 Y136.834 Z-0.200 F400.000
G1 X2.729 Y136.035 Z-0.200 F400.000
G1 X2.784 Y135.817 Z-0.200 F400.000
G1 X2.933 Y135.617 Z-0.200 F400.000
G1 X3.102 Y135.516 Z-0.200 F400.000
G1 X3.480 Y135.456 Z-0.200 F400.000
G1 X3.178 Y135.491 Z-0.200 F400.000
G1 X2.933 Y135.617 Z-0.200 F400.000
G1 X2.802 Y135.780 Z-0.200 F400.000
G1 X2.729 Y136.035 Z-0.200 F400.000
G1 X2.650 Y136.834 Z-0.200 F400.000
G1 X2.629 Y136.948 Z-0.200 F400.000
G1 X2.543 Y137.071 Z-0.200 F400.000
G0 Z4.000
G0 Z4.000
G0 X4.768 Y137.071
G0 Z2.000
G1 X4.768 Y137.071 Z-0.200 F150.000
G1 X4.768 Y133.906 Z-0.200 F400.000
G1 X3.628 Y133.906 Z-0.200 F400.000
G1 X3.139 Y133.957 Z-0.200 F400.000
G1 X2.970 Y134.018 Z-0.200 F400.000
G1 X2.842 Y134.100 Z-0.200 F400.000
G1 X2.750 Y134.201 Z-0.200 F400.000
G1 X2.690 Y134.322 Z-0.200 F400.000
G1 X2.637 Y134.608 Z-0.200 F400.000
G1 X2.673 Y134.921 Z-0.200 F400.000
G1 X2.728 Y135.066 Z-0.200 F400.000
G1 X2.816 Y135.193 Z-0.200 F400.000
G1 X2.985 Y135.329 Z-0.200 F400.000
G1 X3.098 Y135.384 Z-0.200 F400.000
G1 X3.345 Y135.445 Z-0.200 F400.000
G1 X3.540 Y135.456 Z-0.200 F400.000
G1 X4.768 Y135.456 Z-0.200 F400.000
G1 X3.540 Y135.456 Z-0.200 F400.000
G1 X3.302 Y135.438 Z-0.200 F400.000
G1 X3.105 Y135.384 Z-0.200 F400.000
G1 X2.946 Y135.300 Z-0.200 F400.000
G1 X2.823 Y135.193 Z-0.200 F400.000
G1 X2.732 Y135.066 Z-0.200 F400.000
G1 X2.674 Y134.921 Z-0.200 F400.000
G1 X2.637 Y134.608 Z-0.200 F400.000
G1 X2.693 Y134.322 Z-0.200 F400.000
G1 X2.754 Y134.201 Z-0.200 F400.000
G1 X2.848 Y134.100 Z-0.200 F400.000
G1 X3.027 Y133.996 Z-0.200 F400.000
G1 X3.148 Y133.957 Z-0.200 F400.000
G1 X3.362 Y133.919 Z-0.200 F400.000
G1 X3.628 Y133.906 Z-0.200 F400.000
G1 X4.768 Y133.906 Z-0.200 F400.000
G1 X4.768 Y137.071 Z-0.200 F400.000
G0 Z4.000
G0 Z4.000
G0 X0.970 Y137.071
G0 Z2.000
G1 X0.970 Y137.071 Z-0.200 F150.000
G1 X0.970 Y133.906 Z-0.200 F400.000
G1 X-0.027 Y133.906 Z-0.200 F400.000
G1 X-0.300 Y133.923 Z-0.200 F400.000
G1 X-0.519 Y133.974 Z-0.200 F400.000
G1 X-0.692 Y134.053 Z-0.200 F400.000
G1 X-0.823 Y134.155 Z-0.200 F400.000
G1 X-0.918 Y134.275 Z-0.200 F400.000
G1 X-0.979 Y134.414 Z-0.200 F400.000
G1 X-1.034 Y134.719 Z-0.200 F400.000
G1 X-0.998 Y135.032 Z-0.200 F400.000
G1 X-0.940 Y135.180 Z-0.200 F400.000
G1 X-0.848 Y135.311 Z-0.200 F400.000
G1 X-0.674 Y135.453 Z-0.200 F400.000
G1 X-0.558 Y135.511 Z-0.200 F400.000
G1 X-0.317 Y135.575 Z-0.200 F400.000
G1 X-0.109 Y135.588 Z-0.200 F400.000
G1 X0.970 Y135.588 Z-0.200 F400.000
G1 X-0.109 Y135.588 Z-0.200 F400.000
G1 X-0.353 Y135.569 Z-0.200 F400.000
G1 X-0.554 Y135.511 Z-0.200 F400.000
G1 X-0.717 Y135.422 Z-0.200 F400.000
G1 X-0.842 Y135.311 Z-0.200 F400.000
G1 X-0.935 Y135.180 Z-0.200 F400.000
G1 X-0.995 Y135.032 Z-0.200 F400.000
G1 X-1.034 Y134.719 Z-0.200 F400.000
G1 X-0.979 Y134.414 Z-0.200 F400.000
G1 X-0.917 Y134.275 Z-0.200 F400.000
G1 X-0.821 Y134.155 Z-0.200 F400.000
G1 X-0.642 Y134.028 Z-0.200 F400.000
G1 X-0.517 Y133.974 Z-0.200 F400.000
G1 X-0.248 Y133.917 Z-0.200 F400.000
G1 X-0.027 Y133.906 Z-0.200 F400.000
G1 X0.970 Y133.906 Z-0.200 F400.000
G1 X0.970 Y137.071 Z-0.200 F400.000
G0 Z4.000
G0 Z4.000
G0 X-4.743 Y135.999
G0 Z2.000
G1 X-4.743 Y135.999 Z-0.200 F150.000
G1 X-4.638 Y136.363 Z-0.200 F400.000
G1 X-4.488 Y136.630 Z-0.200 F400.000
G1 X-4.403 Y136.729 Z-0.200 F400.000
G1 X-4.308 Y136.814 Z-0.200 F400.000
G1 X-4.067 Y136.956 Z-0.200 F400.000
G1 X-3.774 Y137.043 Z-0.200 F400.000
G1 X-3.613 Y137.064 Z-0.200 F400.000
G1 X-3.441 Y137.071 Z-0.200 F400.000
G1 X-3.068 Y137.035 Z-0.200 F400.000
G1 X-2.770 Y136.935 Z-0.200 F400.000
G1 X-2.594 Y136.829 Z-0.200 F400.000
G1 X-2.440 Y136.692 Z-0.200 F400.000
G1 X-2.283 Y136.470 Z-0.200 F400.000
G1 X-2.169 Y136.178 Z-0.200 F400.000
G1 X-2.101 Y135.800 Z-0.200 F400.000
G1 X-2.087 Y135.489 Z-0.200 F400.000
G1 X-2.123 Y135.008 Z-0.200 F400.000
G1 X-2.221 Y134.647 Z-0.200 F400.000
G1 X-2.317 Y134.451 Z-0.200 F400.000
G1 X-2.440 Y134.288 Z-0.200 F400.000
G1 X-2.659 Y134.106 Z-0.200 F400.000
G1 X-2.922 Y133.982 Z-0.200 F400.000
G1 X-3.237 Y133.917 Z-0.200 F400.000
G1 X-3.441 Y133.906 Z-0.200 F400.000
G1 X-3.815 Y133.943 Z-0.200 F400.000
G1 X-4.218 Y134.100 Z-0.200 F400.000
G1 X-4.421 Y134.268 Z-0.200 F400.000
G1 X-4.582 Y134.496 Z-0.200 F400.000
G1 X-4.631 Y134.598 Z-0.200 F400.000
G1 X-4.674 Y134.709 Z-0.200 F400.000
G1 X-4.534 Y134.414 Z-0.200 F400.000
G1 X-4.354 Y134.201 Z-0.200 F400.000
G1 X-4.288 Y134.148 Z-0.200 F400.000
G1 X-4.218 Y134.100 Z-0.200 F400.000
G1 X-3.954 Y133.979 Z-0.200 F400.000
G1 X-3.636 Y133.915 Z-0.200 F400.000
G1 X-3.540 Y133.909 Z-0.200 F400.000
G1 X-3.441 Y133.906 Z-0.200 F400.000
G1 X-3.070 Y133.943 Z-0.200 F400.000
G1 X-2.772 Y134.043 Z-0.200 F400.000
G1 X-2.594 Y134.150 Z-0.200 F400.000
G1 X-2.440 Y134.288 Z-0.200 F400.000
G1 X-2.283 Y134.511 Z-0.200 F400.000
G1 X-2.168 Y134.804 Z-0.200 F400.000
G1 X-2.101 Y135.182 Z-0.200 F400.000
G1 X-2.087 Y135.489 Z-0.200 F400.000
G1 X-2.123 Y135.972 Z-0.200 F400.000
G1 X-2.221 Y136.334 Z-0.200 F400.000
G1 X-2.317 Y136.530 Z-0.200 F400.000
G1 X-2.440 Y136.692 Z-0.200 F400.000
G1 X-2.660 Y136.874 Z-0.200 F400.000
G1 X-2.923 Y136.996 Z-0.200 F400.000
G1 X-3.240 Y137.061 Z-0.200 F400.000
G1 X-3.441 Y137.071 Z-0.200 F400.000
G1 X-3.816 Y137.035 Z-0.200 F400.000
G1 X-4.113 Y136.935 Z-0.200 F400.000
G1 X-4.214 Y136.879 Z-0.200 F400.000
G1 X-4.308 Y136.814 Z-0.200 F400.000
G1 X-4.492 Y136.625 Z-0.200 F400.000
G1 X-4.634 Y136.372 Z-0.200 F400.000
G1 X-4.697 Y136.196 Z-0.200 F400.000
G1 X-4.743 Y135.999 Z-0.200 F400.000
G0 Z4.000
G0 Z4.000
G0 Z4.000
G0 X44.543 Y137.071
G0 Z2.000
(autolevel)
M5
G4P0.5
G90G1F400Z1
G38.3Z-3F30.0
G10L20P1Z0
G90G1F400Z1
M3 S12000
G4P0.5
(autolevel)
G1 X44.543 Y137.071 Z-0.200 F150.000
G1 X44.629 Y136.948 Z-0.200 F400.000
G1 X44.650 Y136.834 Z-0.200 F400.000
G1 X44.729 Y136.035 Z-0.200 F400.000
G1 X44.784 Y135.817 Z-0.200 F400.000
G1 X44.933 Y135.617 Z-0.200 F400.000
G1 X45.102 Y135.516 Z-0.200 F400.000
G1 X45.480 Y135.456 Z-0.200 F400.000
G1 X45.178 Y135.491 Z-0.200 F400.000
G1 X44.933 Y135.617 Z-0.200 F400.000
G1 X44.802 Y135.780 Z-0.200 F400.000
G1 X44.729 Y136.035 Z-0.200 F400.000
G1 X44.650 Y136.834 Z-0.200 F400.000
G1 X44.629 Y136.948 Z-0.200 F400.000
G1 X44.543 Y137.071 Z-0.200 F400.000
G0 Z4.000
G0 Z4.000
G0 X46.768 Y137.071
G0 Z2.000
G1 X46.768 Y137.071 Z-0.200 F150.000
G1 X46.768 Y133.906 Z-0.200 F400.000
G1 X45.628 Y133.906 Z-0.200 F400.000
G1 X45.139 Y133.957 Z-0.200 F400.000
G1 X44.970 Y134.018 Z-0.200 F400.000
G1 X44.842 Y134.100 Z-0.200 F400.000
G1 X44.750 Y134.201 Z-0.200 F400.000
G1 X44.690 Y134.322 Z-0.200 F400.000
G1 X44.637 Y134.608 Z-0.200 F400.000
G1 X44.673 Y134.921 Z-0.200 F400.000
G1 X44.728 Y135.066 Z-0.200 F400.000
G1 X44.816 Y135.193 Z-0.200 F400.000
G1 X44.985 Y135.329 Z-0.200 F400.000
G1 X45.098 Y135.384 Z-0.200 F400.000
G1 X45.345 Y135.445 Z-0.200 F400.000
G1 X45.540 Y135.456 Z-0.200 F400.000
G1 X46.768 Y135.456 Z-0.200 F400.000
G1 X45.540 Y135.456 Z-0.200 F400.000
G1 X45.302 Y135.438 Z-0.200 F400.000
G1 X45.105 Y135.384 Z-0.200 F400.000
G1 X44.946 Y135.300 Z-0.200 F400.000
G1 X44.823 Y135.193 Z-0.200 F400.000
G1 X44.732 Y135.066 Z-0.200 F400.000
G1 X44.674 Y134.921 Z-0.200 F400.000
G1 X44.637 Y134.608 Z-0.200 F400.000
G1 X44.693 Y134.322 Z-0.200 F400.000
G1 X44.754 Y134.201 Z-0.200 F400.000
G1 X44.848 Y134.100 Z-0.200 F400.000
G1 X45.027 Y133.996 Z-0.200 F400.000
G1 X45.148 Y133.957 Z-0.200 F400.000
G1 X45.362 Y133.919 Z-0.200 F400.000
G1 X45.628 Y133.906 Z-0.200 F400.000
G1 X46.768 Y133.906 Z-0.200 F400.000
G1 X46.768 Y137.071 Z-0.200 F400.000
G0 Z4.000
G0 Z4.000
G0 X42.970 Y137.071
G0 Z2.000
G1 X42.970 Y137.071 Z-0.200 F150.000
G1 X42.970 Y133.906 Z-0.200 F400.000
G1 X41.973 Y133.906 Z-0.200 F400.000
G1 X41.700 Y133.923 Z-0.200 F400.000
G1 X41.481 Y133.974 Z-0.200 F400.000
G1 X41.308 Y134.053 Z-0.200 F400.000
G1 X41.177 Y134.155 Z-0.200 F400.000
G1 X41.082 Y134.275 Z-0.200 F400.000
G1 X41.021 Y134.414 Z-0.200 F400.000
G1 X40.966 Y134.719 Z-0.200 F400.000
G1 X41.002 Y135.032 Z-0.200 F400.000
G1 X41.060 Y135.180 Z-0.200 F400.000
G1 X41.152 Y135.311 Z-0.200 F400.000
G1 X41.326 Y135.453 Z-0.200 F400.000
G1 X41.442 Y135.511 Z-0.200 F400.000
G1 X41.683 Y135.575 Z-0.200 F400.000
G1 X41.891 Y135.588 Z-0.200 F400.000
G1 X42.970 Y135.588 Z-0.200 F400.000
G1 X41.891 Y135.588 Z-0.200 F400.000
G1 X41.647 Y135.569 Z-0.200 F400.000
G1 X41.446 Y135.511 Z-0.200 F400.000
G1 X41.283 Y135.422 Z-0.200 F400.000
G1 X41.158 Y135.311 Z-0.200 F400.000
G1 X41.065 Y135.180 Z-0.200 F400.000
G1 X41.005 Y135.032 Z-0.200 F400.000
G1 X40.966 Y134.719 Z-0.200 F400.000
G1 X41.021 Y134.414 Z-0.200 F400.000
G1 X41.083 Y134.275 Z-0.200 F400.000
G1 X41.179 Y134.155 Z-0.200 F400.000
G1 X41.358 Y134.028 Z-0.200 F400.000
G1 X41.483 Y133.974 Z-0.200 F400.000
G1 X41.752 Y133.917 Z-0.200 F400.000
G1 X41.973 Y133.906 Z-0.200 F400.000
G1 X42.970 Y133.906 Z-0.200 F400.000
G1 X42.970 Y137.071 Z-0.200 F400.000
G0 Z4.000
G0 Z4.000
G0 X37.257 Y135.999
G0 Z2.000
G1 X37.257 Y135.999 Z-0.200 F150.000
G1 X37.362 Y136.363 Z-0.200 F400.000
G1 X37.512 Y136.630 Z-0.200 F400.000
G1 X37.597 Y136.729 Z-0.200 F400.000
G1 X37.692 Y136.814 Z-0.200 F400.000
G1 X37.933 Y136.956 Z-0.200 F400.000
G1 X38.226 Y137.043 Z-0.200 F400.000
G1 X38.387 Y137.064 Z-0.200 F400.000
G1 X38.559 Y137.071 Z-0.200 F400.000
G1 X38.932 Y137.035 Z-0.200 F400.000
G1 X39.230 Y136.935 Z-0.200 F400.000
G1 X39.406 Y136.829 Z-0.200 F400.000
G1 X39.560 Y136.692 Z-0.200 F400.000
G1 X39.717 Y136.470 Z-0.200 F400.000
G1 X39.831 Y136.178 Z-0.200 F400.000
G1 X39.899 Y135.800 Z-0.200 F400.000
G1 X39.913 Y135.489 Z-0.200 F400.000
G1 X39.877 Y135.008 Z-0.200 F400.000
G1 X39.779 Y134.647 Z-0.200 F400.000
G1 X39.683 Y134.451 Z-0.200 F400.000
G1 X39.560 Y134.288 Z-0.200 F400.000
G1 X39.341 Y134.106 Z-0.200 F400.000
G1 X39.078 Y133.982 Z-0.200 F400.000
G1 X38.763 Y133.917 Z-0.200 F400.000
G1 X38.559 Y133.906 Z-0.200 F400.000
G1 X38.185 Y133.943 Z-0.200 F400.000
G1 X37.782 Y134.100 Z-0.200 F400.000
G1 X37.579 Y134.268 Z-0.200 F400.000
G1 X37.418 Y134.496 Z-0.200 F400.000
G1 X37.369 Y134.598 Z-0.200 F400.000
G1 X37.326 Y134.709 Z-0.200 F400.000
G1 X37.466 Y134.414 Z-0.200 F400.000
G1 X37.646 Y134.201 Z-0.200 F400.000
G1 X37.712 Y134.148 Z-0.200 F400.000
G1 X37.782 Y134.100 Z-0.200 F400.000
G1 X38.046 Y133.979 Z-0.200 F400.000
G1 X38.364 Y133.915 Z-0.200 F400.000
G1 X38.460 Y133.909 Z-0.200 F400.000
G1 X38.559 Y133.906 Z-0.200 F400.000
G1 X38.930 Y133.943 Z-0.200 F400.000
G1 X39.228 Y134.043 Z-0.200 F400.000
G1 X39.406 Y134.150 Z-0.200 F400.000
G1 X39.560 Y134.288 Z-0.200 F400.000
G1 X39.717 Y134.511 Z-0.200 F400.000
G1 X39.832 Y134.804 Z-0.200 F400.000
G1 X39.899 Y135.182 Z-0.200 F400.000
G1 X39.913 Y135.489 Z-0.200 F400.000
G1 X39.877 Y135.972 Z-0.200 F400.000
G1 X39.779 Y136.334 Z-0.200 F400.000
G1 X39.683 Y136.530 Z-0.200 F400.000
G1 X39.560 Y136.692 Z-0.200 F400.000
G1 X39.340 Y136.874 Z-0.200 F400.000
G1 X39.077 Y136.996 Z-0.200 F400.000
G1 X38.760 Y137.061 Z-0.200 F400.000
G1 X38.559 Y137.071 Z-0.200 F400.000
G1 X38.184 Y137.035 Z-0.200 F400.000
G1 X37.887 Y136.935 Z-0.200 F400.000
G1 X37.786 Y136.879 Z-0.200 F400.000
G1 X37.692 Y136.814 Z-0.200 F400.000
G1 X37.508 Y136.625 Z-0.200 F400.000
G1 X37.366 Y136.372 Z-0.200 F400.000
G1 X37.303 Y136.196 Z-0.200 F400.000
G1 X37.257 Y135.999 Z-0.200 F400.000
G0 Z4.000
G0 Z4.000
G0 Z4.000
G0 X39.469 Y123.418
G0 Z2.000
(autolevel)
M5
G4P0.5
G90G1F400Z1
G38.3Z-3F30.0
G10L20P1Z0
G90G1F400Z1
M3 S12000
G4P0.5
(autolevel)
G1 X39.469 Y123.418 Z-0.200 F150.000
G1 X39.383 Y123.540 Z-0.200 F400.000
G1 X39.362 Y123.655 Z-0.200 F400.000
G1 X39.283 Y124.453 Z-0.200 F400.000
G1 X39.228 Y124.672 Z-0.200 F400.000
G1 X39.079 Y124.871 Z-0.200 F400.000
G1 X38.910 Y124.972 Z-0.200 F400.000
G1 X38.532 Y125.032 Z-0.200 F400.000
G1 X38.834 Y124.997 Z-0.200 F400.000
G1 X39.079 Y124.871 Z-0.200 F400.000
G1 X39.210 Y124.708 Z-0.200 F400.000
G1 X39.283 Y124.453 Z-0.200 F400.000
G1 X39.362 Y123.655 Z-0.200 F400.000
G1 X39.383 Y123.540 Z-0.200 F400.000
G1 X39.469 Y123.418 Z-0.200 F400.000
G0 Z4.000
G0 Z4.000
G0 X37.244 Y123.418
G0 Z2.000
G1 X37.244 Y123.418 Z-0.200 F150.000
G1 X37.244 Y126.582 Z-0.200 F400.000
G1 X38.384 Y126.582 Z-0.200 F400.000
G1 X38.873 Y126.531 Z-0.200 F400.000
G1 X39.042 Y126.471 Z-0.200 F400.000
G1 X39.169 Y126.389 Z-0.200 F400.000
G1 X39.262 Y126.287 Z-0.200 F400.000
G1 X39.322 Y126.167 Z-0.200 F400.000
G1 X39.374 Y125.880 Z-0.200 F400.000
G1 X39.339 Y125.568 Z-0.200 F400.000
G1 X39.284 Y125.423 Z-0.200 F400.000
G1 X39.196 Y125.295 Z-0.200 F400.000
G1 X39.027 Y125.160 Z-0.200 F400.000
G1 X38.914 Y125.104 Z-0.200 F400.000
G1 X38.667 Y125.044 Z-0.200 F400.000
G1 X38.472 Y125.032 Z-0.200 F400.000
G1 X37.244 Y125.032 Z-0.200 F400.000
G1 X38.472 Y125.032 Z-0.200 F400.000
G1 X38.710 Y125.050 Z-0.200 F400.000
G1 X38.907 Y125.104 Z-0.200 F400.000
G1 X39.066 Y125.189 Z-0.200 F400.000
G1 X39.189 Y125.295 Z-0.200 F400.000
G1 X39.280 Y125.423 Z-0.200 F400.000
G1 X39.338 Y125.568 Z-0.200 F400.000
G1 X39.374 Y125.880 Z-0.200 F400.000
G1 X39.319 Y126.167 Z-0.200 F400.000
G1 X39.258 Y126.287 Z-0.200 F400.000
G1 X39.164 Y126.389 Z-0.200 F400.000
G1 X38.985 Y126.492 Z-0.200 F400.000
G1 X38.864 Y126.531 Z-0.200 F400.000
G1 X38.650 Y126.570 Z-0.200 F400.000
G1 X38.384 Y126.582 Z-0.200 F400.000
G1 X37.244 Y126.582 Z-0.200 F400.000
G1 X37.244 Y123.418 Z-0.200 F400.000
G0 Z4.000
G0 Z4.000
G0 X41.042 Y123.418
G0 Z2.000
G1 X41.042 Y123.418 Z-0.200 F150.000
G1 X41.042 Y126.582 Z-0.200 F400.000
G1 X42.039 Y126.582 Z-0.200 F400.000
G1 X42.312 Y126.565 Z-0.200 F400.000
G1 X42.531 Y126.515 Z-0.200 F400.000
G1 X42.703 Y126.435 Z-0.200 F400.000
G1 X42.834 Y126.334 Z-0.200 F400.000
G1 X42.929 Y126.213 Z-0.200 F400.000
G1 X42.991 Y126.075 Z-0.200 F400.000
G1 X43.046 Y125.770 Z-0.200 F400.000
G1 X43.010 Y125.456 Z-0.200 F400.000
G1 X42.952 Y125.309 Z-0.200 F400.000
G1 X42.860 Y125.178 Z-0.200 F400.000
G1 X42.685 Y125.036 Z-0.200 F400.000
G1 X42.570 Y124.977 Z-0.200 F400.000
G1 X42.328 Y124.914 Z-0.200 F400.000
G1 X42.121 Y124.901 Z-0.200 F400.000
G1 X41.042 Y124.901 Z-0.200 F400.000
G1 X42.121 Y124.901 Z-0.200 F400.000
G1 X42.365 Y124.920 Z-0.200 F400.000
G1 X42.566 Y124.977 Z-0.200 F400.000
G1 X42.728 Y125.066 Z-0.200 F400.000
G1 X42.854 Y125.178 Z-0.200 F400.000
G1 X42.947 Y125.309 Z-0.200 F400.000
G1 X43.007 Y125.456 Z-0.200 F400.000
G1 X43.046 Y125.770 Z-0.200 F400.000
G1 X42.991 Y126.075 Z-0.200 F400.000
G1 X42.929 Y126.213 Z-0.200 F400.000
G1 X42.833 Y126.334 Z-0.200 F400.000
G1 X42.654 Y126.461 Z-0.200 F400.000
G1 X42.529 Y126.515 Z-0.200 F400.000
G1 X42.260 Y126.572 Z-0.200 F400.000
G1 X42.039 Y126.582 Z-0.200 F400.000
G1 X41.042 Y126.582 Z-0.200 F400.000
G1 X41.042 Y123.418 Z-0.200 F400.000
G0 Z4.000
G0 Z4.000
G0 X46.755 Y124.490
G0 Z2.000
G1 X46.755 Y124.490 Z-0.200 F150.000
G1 X46.650 Y124.125 Z-0.200 F400.000
G1 X46.500 Y123.858 Z-0.200 F400.000
G1 X46.415 Y123.760 Z-0.200 F400.000
G1 X46.320 Y123.675 Z-0.200 F400.000
G1 X46.079 Y123.533 Z-0.200 F400.000
G1 X45.786 Y123.446 Z-0.200 F400.000
G1 X45.625 Y123.425 Z-0.200 F400.000
G1 X45.452 Y123.418 Z-0.200 F400.000
G1 X45.080 Y123.454 Z-0.200 F400.000
G1 X44.782 Y123.554 Z-0.200 F400.000
G1 X44.605 Y123.660 Z-0.200 F400.000
G1 X44.452 Y123.796 Z-0.200 F400.000
G1 X44.295 Y124.019 Z-0.200 F400.000
G1 X44.181 Y124.310 Z-0.200 F400.000
G1 X44.113 Y124.689 Z-0.200 F400.000
G1 X44.099 Y125.000 Z-0.200 F400.000
G1 X44.135 Y125.481 Z-0.200 F400.000
G1 X44.232 Y125.842 Z-0.200 F400.000
G1 X44.329 Y126.038 Z-0.200 F400.000
G1 X44.452 Y126.201 Z-0.200 F400.000
G1 X44.671 Y126.383 Z-0.200 F400.000
G1 X44.933 Y126.506 Z-0.200 F400.000
G1 X45.249 Y126.572 Z-0.200 F400.000
G1 X45.452 Y126.582 Z-0.200 F400.000
G1 X45.827 Y126.546 Z-0.200 F400.000
G1 X46.229 Y126.389 Z-0.200 F400.000
G1 X46.433 Y126.221 Z-0.200 F400.000
G1 X46.593 Y125.993 Z-0.200 F400.000
G1 X46.643 Y125.891 Z-0.200 F400.000
G1 X46.686 Y125.780 Z-0.200 F400.000
G1 X46.545 Y126.074 Z-0.200 F400.000
G1 X46.366 Y126.287 Z-0.200 F400.000
G1 X46.300 Y126.341 Z-0.200 F400.000
G1 X46.229 Y126.389 Z-0.200 F400.000
G1 X45.966 Y126.509 Z-0.200 F400.000
G1 X45.648 Y126.573 Z-0.200 F400.000
G1 X45.552 Y126.580 Z-0.200 F400.000
G1 X45.452 Y126.582 Z-0.200 F400.000
G1 X45.081 Y126.546 Z-0.200 F400.000
G1 X44.784 Y126.446 Z-0.200 F400.000
G1 X44.606 Y126.339 Z-0.200 F400.000
G1 X44.452 Y126.201 Z-0.200 F400.000
G1 X44.295 Y125.977 Z-0.200 F400.000
G1 X44.180 Y125.685 Z-0.200 F400.000
G1 X44.113 Y125.307 Z-0.200 F400.000
G1 X44.099 Y125.000 Z-0.200 F400.000
G1 X44.135 Y124.517 Z-0.200 F400.000
G1 X44.232 Y124.155 Z-0.200 F400.000
G1 X44.329 Y123.959 Z-0.200 F400.000
G1 X44.452 Y123.796 Z-0.200 F400.000
G1 X44.672 Y123.615 Z-0.200 F400.000
G1 X44.935 Y123.493 Z-0.200 F400.000
G1 X45.251 Y123.427 Z-0.200 F400.000
G1 X45.452 Y123.418 Z-0.200 F400.000
G1 X45.828 Y123.454 Z-0.200 F400.000
G1 X46.125 Y123.554 Z-0.200 F400.000
G1 X46.226 Y123.609 Z-0.200 F400.000
G1 X46.320 Y123.675 Z-0.200 F400.000
G1 X46.504 Y123.864 Z-0.200 F400.000
G1 X46.646 Y124.117 Z-0.200 F400.000
G1 X46.708 Y124.293 Z-0.200 F400.000
G1 X46.755 Y124.490 Z-0.200 F400.000
G0 Z4.000
G0 Z4.000
G0 Z4.000
G0 X44.543 Y112.071
G0 Z2.000
(autolevel)
M5
G4P0.5
G90G1F400Z1
G38.3Z-3F30.0
G10L20P1Z0
G90G1F400Z1
M3 S12000
G4P0.5
(autolevel)
G1 X44.543 Y112.071 Z-0.200 F150.000
G1 X44.629 Y111.948 Z-0.200 F400.000
G1 X44.650 Y111.834 Z-0.200 F400.000
G1 X44.729 Y111.035 Z-0.200 F400.000
G1 X44.784 Y110.817 Z-0.200 F400.000
G1 X44.933 Y110.617 Z-0.200 F400.000
G1 X45.102 Y110.516 Z-0.200 F400.000
G1 X45.480 Y110.456 Z-0.200 F400.000
G1 X45.178 Y110.491 Z-0.200 F400.000
G1 X44.933 Y110.617 Z-0.200 F400.000
G1 X44.802 Y110.780 Z-0.200 F400.000
G1 X44.729 Y111.035 Z-0.200 F400.000
G1 X44.650 Y111.834 Z-0.200 F400.000
G1 X44.629 Y111.948 Z-0.200 F400.000
G1 X44.543 Y112.071 Z-0.200 F400.000
G0 Z4.000
G0 Z4.000
G0 X46.768 Y112.071
G0 Z2.000
G1 X46.768 Y112.071 Z-0.200 F150.000
G1 X46.768 Y108.906 Z-0.200 F400.000
G1 X45.628 Y108.906 Z-0.200 F400.000
G1 X45.139 Y108.957 Z-0.200 F400.000
G1 X44.970 Y109.018 Z-0.200 F400.000
G1 X44.842 Y109.100 Z-0.200 F400.000
G1 X44.750 Y109.201 Z-0.200 F400.000
G1 X44.690 Y109.322 Z-0.200 F400.000
G1 X44.637 Y109.608 Z-0.200 F400.000
G1 X44.673 Y109.921 Z-0.200 F400.000
G1 X44.728 Y110.066 Z-0.200 F400.000
G1 X44.816 Y110.193 Z-0.200 F400.000
G1 X44.985 Y110.329 Z-0.200 F400.000
G1 X45.098 Y110.384 Z-0.200 F400.000
G1 X45.345 Y110.445 Z-0.200 F400.000
G1 X45.540 Y110.456 Z-0.200 F400.000
G1 X46.768 Y110.456 Z-0.200 F400.000
G1 X45.540 Y110.456 Z-0.200 F400.000
G1 X45.302 Y110.438 Z-0.200 F400.000
G1 X45.105 Y110.384 Z-0.200 F400.000
G1 X44.946 Y110.300 Z-0.200 F400.000
G1 X44.823 Y110.193 Z-0.200 F400.000
G1 X44.732 Y110.066 Z-0.200 F400.000
G1 X44.674 Y109.921 Z-0.200 F400.000
G1 X44.637 Y109.608 Z-0.200 F400.000
G1 X44.693 Y109.322 Z-0.200 F400.000
G1 X44.754 Y109.201 Z-0.200 F400.000
G1 X44.848 Y109.100 Z-0.200 F400.000
G1 X45.027 Y108.996 Z-0.200 F400.000
G1 X45.148 Y108.957 Z-0.200 F400.000
G1 X45.362 Y108.919 Z-0.200 F400.000
G1 X45.628 Y108.906 Z-0.200 F400.000
G1 X46.768 Y108.906 Z-0.200 F400.000
G1 X46.768 Y112.071 Z-0.200 F400.000
G0 Z4.000
G0 Z4.000
G0 X42.970 Y112.071
G0 Z2.000
G1 X42.970 Y112.071 Z-0.200 F150.000
G1 X42.970 Y108.906 Z-0.200 F400.000
G1 X41.973 Y108.906 Z-0.200 F400.000
G1 X41.700 Y108.923 Z-0.200 F400.000
G1 X41.481 Y108.974 Z-0.200 F400.000
G1 X41.308 Y109.053 Z-0.200 F400.000
G1 X41.177 Y109.155 Z-0.200 F400.000
G1 X41.082 Y109.275 Z-0.200 F400.000
G1 X41.021 Y109.414 Z-0.200 F400.000
G1 X40.966 Y109.719 Z-0.200 F400.000
G1 X41.002 Y110.032 Z-0.200 F400.000
G1 X41.060 Y110.180 Z-0.200 F400.000
G1 X41.152 Y110.311 Z-0.200 F400.000
G1 X41.326 Y110.453 Z-0.200 F400.000
G1 X41.442 Y110.511 Z-0.200 F400.000
G1 X41.683 Y110.575 Z-0.200 F400.000
G1 X41.891 Y110.588 Z-0.200 F400.000
G1 X42.970 Y110.588 Z-0.200 F400.000
G1 X41.891 Y110.588 Z-0.200 F400.000
G1 X41.647 Y110.569 Z-0.200 F400.000
G1 X41.446 Y110.511 Z-0.200 F400.000
G1 X41.283 Y110.422 Z-0.200 F400.000
G1 X41.158 Y110.311 Z-0.200 F400.000
G1 X41.065 Y110.180 Z-0.200 F400.000
G1 X41.005 Y110.032 Z-0.200 F400.000
G1 X40.966 Y109.719 Z-0.200 F400.000
G1 X41.021 Y109.414 Z-0.200 F400.000
G1 X41.083 Y109.275 Z-0.200 F400.000
G1 X41.179 Y109.155 Z-0.200 F400.000
G1 X41.358 Y109.028 Z-0.200 F400.000
G1 X41.483 Y108.974 Z-0.200 F400.000
G1 X41.752 Y108.917 Z-0.200 F400.000
G1 X41.973 Y108.906 Z-0.200 F400.000
G1 X42.970 Y108.906 Z-0.200 F400.000
G1 X42.970 Y112.071 Z-0.200 F400.000
G0 Z4.000
G0 Z4.000
G0 X37.257 Y110.999
G0 Z2.000
G1 X37.257 Y110.999 Z-0.200 F150.000
G1 X37.362 Y111.363 Z-0.200 F400.000
G1 X37.512 Y111.630 Z-0.200 F400.000
G1 X37.597 Y111.729 Z-0.200 F400.000
G1 X37.692 Y111.814 Z-0.200 F400.000
G1 X37.933 Y111.956 Z-0.200 F400.000
G1 X38.226 Y112.043 Z-0.200 F400.000
G1 X38.387 Y112.064 Z-0.200 F400.000
G1 X38.559 Y112.071 Z-0.200 F400.000
G1 X38.932 Y112.035 Z-0.200 F400.000
G1 X39.230 Y111.935 Z-0.200 F400.000
G1 X39.406 Y111.829 Z-0.200 F400.000
G1 X39.560 Y111.692 Z-0.200 F400.000
G1 X39.717 Y111.470 Z-0.200 F400.000
G1 X39.831 Y111.178 Z-0.200 F400.000
G1 X39.899 Y110.800 Z-0.200 F400.000
G1 X39.913 Y110.489 Z-0.200 F400.000
G1 X39.877 Y110.008 Z-0.200 F400.000
G1 X39.779 Y109.647 Z-0.200 F400.000
G1 X39.683 Y109.451 Z-0.200 F400.000
G1 X39.560 Y109.288 Z-0.200 F400.000
G1 X39.341 Y109.106 Z-0.200 F400.000
G1 X39.078 Y108.982 Z-0.200 F400.000
G1 X38.763 Y108.917 Z-0.200 F400.000
G1 X38.559 Y108.906 Z-0.200 F400.000
G1 X38.185 Y108.943 Z-0.200 F400.000
G1 X37.782 Y109.100 Z-0.200 F400.000
G1 X37.579 Y109.268 Z-0.200 F400.000
G1 X37.418 Y109.496 Z-0.200 F400.000
G1 X37.369 Y109.598 Z-0.200 F400.000
G1 X37.326 Y109.709 Z-0.200 F400.000
G1 X37.466 Y109.414 Z-0.200 F400.000
G1 X37.646 Y109.201 Z-0.200 F400.000
G1 X37.712 Y109.148 Z-0.200 F400.000
G1 X37.782 Y109.100 Z-0.200 F400.000
G1 X38.046 Y108.979 Z-0.200 F400.000
G1 X38.364 Y108.915 Z-0.200 F400.000
G1 X38.460 Y108.909 Z-0.200 F400.000
G1 X38.559 Y108.906 Z-0.200 F400.000
G1 X38.930 Y108.943 Z-0.200 F400.000
G1 X39.228 Y109.043 Z-0.200 F400.000
G1 X39.406 Y109.150 Z-0.200 F400.000
G1 X39.560 Y109.288 Z-0.200 F400.000
G1 X39.717 Y109.511 Z-0.200 F400.000
G1 X39.832 Y109.804 Z-0.200 F400.000
G1 X39.899 Y110.182 Z-0.200 F400.000
G1 X39.913 Y110.489 Z-0.200 F400.000
G1 X39.877 Y110.972 Z-0.200 F400.000
G1 X39.779 Y111.334 Z-0.200 F400.000
G1 X39.683 Y111.530 Z-0.200 F400.000
G1 X39.560 Y111.692 Z-0.200 F400.000
G1 X39.340 Y111.874 Z-0.200 F400.000
G1 X39.077 Y111.996 Z-0.200 F400.000
G1 X38.760 Y112.061 Z-0.200 F400.000
G1 X38.559 Y112.071 Z-0.200 F400.000
G1 X38.184 Y112.035 Z-0.200 F400.000
G1 X37.887 Y111.935 Z-0.200 F400.000
G1 X37.786 Y111.879 Z-0.200 F400.000
G1 X37.692 Y111.814 Z-0.200 F400.000
G1 X37.508 Y111.625 Z-0.200 F400.000
G1 X37.366 Y111.372 Z-0.200 F400.000
G1 X37.303 Y111.196 Z-0.200 F400.000
G1 X37.257 Y110.999 Z-0.200 F400.000
G0 Z4.000
G0 Z4.000
G0 Z4.000
G0 X39.469 Y98.418
G0 Z2.000
(autolevel)
M5
G4P0.5
G90G1F400Z1
G38.3Z-3F30.0
G10L20P1Z0
G90G1F400Z1
M3 S12000
G4P0.5
(autolevel)
G1 X39.469 Y98.418 Z-0.200 F150.000
G1 X39.383 Y98.540 Z-0.200 F400.000
G1 X39.362 Y98.655 Z-0.200 F400.000
G1 X39.283 Y99.453 Z-0.200 F400.000
G1 X39.228 Y99.672 Z-0.200 F400.000
G1 X39.079 Y99.871 Z-0.200 F400.000
G1 X38.910 Y99.972 Z-0.200 F400.000
G1 X38.532 Y100.032 Z-0.200 F400.000
G1 X38.834 Y99.997 Z-0.200 F400.000
G1 X39.079 Y99.871 Z-0.200 F400.000
G1 X39.210 Y99.708 Z-0.200 F400.000
G1 X39.283 Y99.453 Z-0.200 F400.000
G1 X39.362 Y98.655 Z-0.200 F400.000
G1 X39.383 Y98.540 Z-0.200 F400.000
G1 X39.469 Y98.418 Z-0.200 F400.000
G0 Z4.000
G0 Z4.000
G0 X37.244 Y98.418
G0 Z2.000
G1 X37.244 Y98.418 Z-0.200 F150.000
G1 X37.244 Y101.582 Z-0.200 F400.000
G1 X38.384 Y101.582 Z-0.200 F400.000
G1 X38.873 Y101.531 Z-0.200 F400.000
G1 X39.042 Y101.471 Z-0.200 F400.000
G1 X39.169 Y101.389 Z-0.200 F400.000
G1 X39.262 Y101.287 Z-0.200 F400.000
G1 X39.322 Y101.167 Z-0.200 F400.000
G1 X39.374 Y100.880 Z-0.200 F400.000
G1 X39.339 Y100.568 Z-0.200 F400.000
G1 X39.284 Y100.423 Z-0.200 F400.000
G1 X39.196 Y100.295 Z-0.200 F400.000
G1 X39.027 Y100.160 Z-0.200 F400.000
G1 X38.914 Y100.104 Z-0.200 F400.000
G1 X38.667 Y100.044 Z-0.200 F400.000
G1 X38.472 Y100.032 Z-0.200 F400.000
G1 X37.244 Y100.032 Z-0.200 F400.000
G1 X38.472 Y100.032 Z-0.200 F400.000
G1 X38.710 Y100.050 Z-0.200 F400.000
G1 X38.907 Y100.104 Z-0.200 F400.000
G1 X39.066 Y100.189 Z-0.200 F400.000
G1 X39.189 Y100.295 Z-0.200 F400.000
G1 X39.280 Y100.423 Z-0.200 F400.000
G1 X39.338 Y100.568 Z-0.200 F400.000
G1 X39.374 Y100.880 Z-0.200 F400.000
G1 X39.319 Y101.167 Z-0.200 F400.000
G1 X39.258 Y101.287 Z-0.200 F400.000
G1 X39.164 Y101.389 Z-0.200 F400.000
G1 X38.985 Y101.492 Z-0.200 F400.000
G1 X38.864 Y101.531 Z-0.200 F400.000
G1 X38.650 Y101.570 Z-0.200 F400.000
G1 X38.384 Y101.582 Z-0.200 F400.000
G1 X37.244 Y101.582 Z-0.200 F400.000
G1 X37.244 Y98.418 Z-0.200 F400.000
G0 Z4.000
G0 Z4.000
G0 X41.042 Y98.418
G0 Z2.000
G1 X41.042 Y98.418 Z-0.200 F150.000
G1 X41.042 Y101.582 Z-0.200 F400.000
G1 X42.039 Y101.582 Z-0.200 F400.000
G1 X42.312 Y101.565 Z-0.200 F400.000
G1 X42.531 Y101.515 Z-0.200 F400.000
G1 X42.703 Y101.435 Z-0.200 F400.000
G1 X42.834 Y101.334 Z-0.200 F400.000
G1 X42.929 Y101.213 Z-0.200 F400.000
G1 X42.991 Y101.075 Z-0.200 F400.000
G1 X43.046 Y100.770 Z-0.200 F400.000
G1 X43.010 Y100.456 Z-0.200 F400.000
G1 X42.952 Y100.309 Z-0.200 F400.000
G1 X42.860 Y100.178 Z-0.200 F400.000
G1 X42.685 Y100.036 Z-0.200 F400.000
G1 X42.570 Y99.977 Z-0.200 F400.000
G1 X42.328 Y99.914 Z-0.200 F400.000
G1 X42.121 Y99.901 Z-0.200 F400.000
G1 X41.042 Y99.901 Z-0.200 F400.000
G1 X42.121 Y99.901 Z-0.200 F400.000
G1 X42.365 Y99.920 Z-0.200 F400.000
G1 X42.566 Y99.977 Z-0.200 F400.000
G1 X42.728 Y100.066 Z-0.200 F400.000
G1 X42.854 Y100.178 Z-0.200 F400.000
G1 X42.947 Y100.309 Z-0.200 F400.000
G1 X43.007 Y100.456 Z-0.200 F400.000
G1 X43.046 Y100.770 Z-0.200 F400.000
G1 X42.991 Y101.075 Z-0.200 F400.000
G1 X42.929 Y101.213 Z-0.200 F400.000
G1 X42.833 Y101.334 Z-0.200 F400.000
G1 X42.654 Y101.461 Z-0.200 F400.000
G1 X42.529 Y101.515 Z-0.200 F400.000
G1 X42.260 Y101.572 Z-0.200 F400.000
G1 X42.039 Y101.582 Z-0.200 F400.000
G1 X41.042 Y101.582 Z-0.200 F400.000
G1 X41.042 Y98.418 Z-0.200 F400.000
G0 Z4.000
G0 Z4.000
G0 X46.755 Y99.490
G0 Z2.000
G1 X46.755 Y99.490 Z-0.200 F150.000
G1 X46.650 Y99.125 Z-0.200 F400.000
G1 X46.500 Y98.858 Z-0.200 F400.000
G1 X46.415 Y98.760 Z-0.200 F400.000
G1 X46.320 Y98.675 Z-0.200 F400.000
G1 X46.079 Y98.533 Z-0.200 F400.000
G1 X45.786 Y98.446 Z-0.200 F400.000
G1 X45.625 Y98.425 Z-0.200 F400.000
G1 X45.452 Y98.418 Z-0.200 F400.000
G1 X45.080 Y98.454 Z-0.200 F400.000
G1 X44.782 Y98.554 Z-0.200 F400.000
G1 X44.605 Y98.660 Z-0.200 F400.000
G1 X44.452 Y98.796 Z-0.200 F400.000
G1 X44.295 Y99.019 Z-0.200 F400.000
G1 X44.181 Y99.310 Z-0.200 F400.000
G1 X44.113 Y99.689 Z-0.200 F400.000
G1 X44.099 Y100.000 Z-0.200 F400.000
G1 X44.135 Y100.481 Z-0.200 F400.000
G1 X44.232 Y100.842 Z-0.200 F400.000
G1 X44.329 Y101.038 Z-0.200 F400.000
G1 X44.452 Y101.201 Z-0.200 F400.000
G1 X44.671 Y101.383 Z-0.200 F400.000
G1 X44.933 Y101.506 Z-0.200 F400.000
G1 X45.249 Y101.572 Z-0.200 F400.000
G1 X45.452 Y101.582 Z-0.200 F400.000
G1 X45.827 Y101.546 Z-0.200 F400.000
G1 X46.229 Y101.389 Z-0.200 F400.000
G1 X46.433 Y101.221 Z-0.200 F400.000
G1 X46.593 Y100.993 Z-0.200 F400.000
G1 X46.643 Y100.891 Z-0.200 F400.000
G1 X46.686 Y100.780 Z-0.200 F400.000
G1 X46.545 Y101.074 Z-0.200 F400.000
G1 X46.366 Y101.287 Z-0.200 F400.000
G1 X46.300 Y101.341 Z-0.200 F400.000
G1 X46.229 Y101.389 Z-0.200 F400.000
G1 X45.966 Y101.509 Z-0.200 F400.000
G1 X45.648 Y101.573 Z-0.200 F400.000
G1 X45.552 Y101.580 Z-0.200 F400.000
G1 X45.452 Y101.582 Z-0.200 F400.000
G1 X45.081 Y101.546 Z-0.200 F400.000
G1 X44.784 Y101.446 Z-0.200 F400.000
G1 X44.606 Y101.339 Z-0.200 F400.000
G1 X44.452 Y101.201 Z-0.200 F400.000
G1 X44.295 Y100.977 Z-0.200 F400.000
G1 X44.180 Y100.685 Z-0.200 F400.000
G1 X44.113 Y100.307 Z-0.200 F400.000
G1 X44.099 Y100.000 Z-0.200 F400.000
G1 X44.135 Y99.517 Z-0.200 F400.000
G1 X44.232 Y99.155 Z-0.200 F400.000
G1 X44.329 Y98.959 Z-0.200 F400.000
G1 X44.452 Y98.796 Z-0.200 F400.000
G1 X44.672 Y98.615 Z-0.200 F400.000
G1 X44.935 Y98.493 Z-0.200 F400.000
G1 X45.251 Y98.427 Z-0.200 F400.000
G1 X45.452 Y98.418 Z-0.200 F400.000
G1 X45.828 Y98.454 Z-0.200 F400.000
G1 X46.125 Y98.554 Z-0.200 F400.000
G1 X46.226 Y98.609 Z-0.200 F400.000
G1 X46.320 Y98.675 Z-0.200 F400.000
G1 X46.504 Y98.864 Z-0.200 F400.000
G1 X46.646 Y99.117 Z-0.200 F400.000
G1 X46.708 Y99.293 Z-0.200 F400.000
G1 X46.755 Y99.490 Z-0.200 F400.000
G0 Z4.000
G0 Z4.000
G0 Z4.000
G0 X44.543 Y87.071
G0 Z2.000
(autolevel)
M5
G4P0.5
G90G1F400Z1
G38.3Z-3F30.0
G10L20P1Z0
G90G1F400Z1
M3 S12000
G4P0.5
(autolevel)
G1 X44.543 Y87.071 Z-0.200 F150.000
G1 X44.629 Y86.948 Z-0.200 F400.000
G1 X44.650 Y86.834 Z-0.200 F400.000
G1 X44.729 Y86.035 Z-0.200 F400.000
G1 X44.784 Y85.817 Z-0.200 F400.000
G1 X44.933 Y85.617 Z-0.200 F400.000
G1 X45.102 Y85.516 Z-0.200 F400.000
G1 X45.480 Y85.456 Z-0.200 F400.000
G1 X45.178 Y85.491 Z-0.200 F400.000
G1 X44.933 Y85.617 Z-0.200 F400.000
G1 X44.802 Y85.780 Z-0.200 F400.000
G1 X44.729 Y86.035 Z-0.200 F400.000
G1 X44.650 Y86.834 Z-0.200 F400.000
G1 X44.629 Y86.948 Z-0.200 F400.000
G1 X44.543 Y87.071 Z-0.200 F400.000
G0 Z4.000
G0 Z4.000
G0 X46.768 Y87.071
G0 Z2.000
G1 X46.768 Y87.071 Z-0.200 F150.000
G1 X46.768 Y83.906 Z-0.200 F400.000
G1 X45.628 Y83.906 Z-0.200 F400.000
G1 X45.139 Y83.957 Z-0.200 F400.000
G1 X44.970 Y84.018 Z-0.200 F400.000
G1 X44.842 Y84.100 Z-0.200 F400.000
G1 X44.750 Y84.201 Z-0.200 F400.000
G1 X44.690 Y84.322 Z-0.200 F400.000
G1 X44.637 Y84.608 Z-0.200 F400.000
G1 X44.673 Y84.921 Z-0.200 F400.000
G1 X44.728 Y85.066 Z-0.200 F400.000
G1 X44.816 Y85.193 Z-0.200 F400.000
G1 X44.985 Y85.329 Z-0.200 F400.000
G1 X45.098 Y85.384 Z-0.200 F400.000
G1 X45.345 Y85.445 Z-0.200 F400.000
G1 X45.540 Y85.456 Z-0.200 F400.000
G1 X46.768 Y85.456 Z-0.200 F400.000
G1 X45.540 Y85.456 Z-0.200 F400.000
G1 X45.302 Y85.438 Z-0.200 F400.000
G1 X45.105 Y85.384 Z-0.200 F400.000
G1 X44.946 Y85.300 Z-0.200 F400.000
G1 X44.823 Y85.193 Z-0.200 F400.000
G1 X44.732 Y85.066 Z-0.200 F400.000
G1 X44.674 Y84.921 Z-0.200 F400.000
G1 X44.637 Y84.608 Z-0.200 F400.000
G1 X44.693 Y84.322 Z-0.200 F400.000
G1 X44.754 Y84.201 Z-0.200 F400.000
G1 X44.848 Y84.100 Z-0.200 F400.000
G1 X45.027 Y83.996 Z-0.200 F400.000
G1 X45.148 Y83.957 Z-0.200 F400.000
G1 X45.362 Y83.919 Z-0.200 F400.000
G1 X45.628 Y83.906 Z-0.200 F400.000
G1 X46.768 Y83.906 Z-0.200 F400.000
G1 X46.768 Y87.071 Z-0.200 F400.000
G0 Z4.000
G0 Z4.000
G0 X42.970 Y87.071
G0 Z2.000
G1 X42.970 Y87.071 Z-0.200 F150.000
G1 X42.970 Y83.906 Z-0.200 F400.000
G1 X41.973 Y83.906 Z-0.200 F400.000
G1 X41.700 Y83.923 Z-0.200 F400.000
G1 X41.481 Y83.974 Z-0.200 F400.000
G1 X41.308 Y84.053 Z-0.200 F400.000
G1 X41.177 Y84.155 Z-0.200 F400.000
G1 X41.082 Y84.275 Z-0.200 F400.000
G1 X41.021 Y84.414 Z-0.200 F400.000
G1 X40.966 Y84.719 Z-0.200 F400.000
G1 X41.002 Y85.032 Z-0.200 F400.000
G1 X41.060 Y85.180 Z-0.200 F400.000
G1 X41.152 Y85.311 Z-0.200 F400.000
G1 X41.326 Y85.453 Z-0.200 F400.000
G1 X41.442 Y85.511 Z-0.200 F400.000
G1 X41.683 Y85.575 Z-0.200 F400.000
G1 X41.891 Y85.588 Z-0.200 F400.000
G1 X42.970 Y85.588 Z-0.200 F400.000
G1 X41.891 Y85.588 Z-0.200 F400.000
G1 X41.647 Y85.569 Z-0.200 F400.000
G1 X41.446 Y85.511 Z-0.200 F400.000
G1 X41.283 Y85.422 Z-0.200 F400.000
G1 X41.158 Y85.311 Z-0.200 F400.000
G1 X41.065 Y85.180 Z-0.200 F400.000
G1 X41.005 Y85.032 Z-0.200 F400.000
G1 X40.966 Y84.719 Z-0.200 F400.000
G1 X41.021 Y84.414 Z-0.200 F400.000
G1 X41.083 Y84.275 Z-0.200 F400.000
G1 X41.179 Y84.155 Z-0.200 F400.000
G1 X41.358 Y84.028 Z-0.200 F400.000
G1 X41.483 Y83.974 Z-0.200 F400.000
G1 X41.752 Y83.917 Z-0.200 F400.000
G1 X41.973 Y83.906 Z-0.200 F400.000
G1 X42.970 Y83.906 Z-0.200 F400.000
G1 X42.970 Y87.071 Z-0.200 F400.000
G0 Z4.000
G0 Z4.000
G0 X37.257 Y85.999
G0 Z2.000
G1 X37.257 Y85.999 Z-0.200 F150.000
G1 X37.362 Y86.363 Z-0.200 F400.000
G1 X37.512 Y86.630 Z-0.200 F400.000
G1 X37.597 Y86.729 Z-0.200 F400.000
G1 X37.692 Y86.814 Z-0.200 F400.000
G1 X37.933 Y86.956 Z-0.200 F400.000
G1 X38.226 Y87.043 Z-0.200 F400.000
G1 X38.387 Y87.064 Z-0.200 F400.000
G1 X38.559 Y87.071 Z-0.200 F400.000
G1 X38.932 Y87.035 Z-0.200 F400.000
G1 X39.230 Y86.935 Z-0.200 F400.000
G1 X39.406 Y86.829 Z-0.200 F400.000
G1 X39.560 Y86.692 Z-0.200 F400.000
G1 X39.717 Y86.470 Z-0.200 F400.000
G1 X39.831 Y86.178 Z-0.200 F400.000
G1 X39.899 Y85.800 Z-0.200 F400.000
G1 X39.913 Y85.489 Z-0.200 F400.000
G1 X39.877 Y85.008 Z-0.200 F400.000
G1 X39.779 Y84.647 Z-0.200 F400.000
G1 X39.683 Y84.451 Z-0.200 F400.000
G1 X39.560 Y84.288 Z-0.200 F400.000
G1 X39.341 Y84.106 Z-0.200 F400.000
G1 X39.078 Y83.982 Z-0.200 F400.000
G1 X38.763 Y83.917 Z-0.200 F400.000
G1 X38.559 Y83.906 Z-0.200 F400.000
G1 X38.185 Y83.943 Z-0.200 F400.000
G1 X37.782 Y84.100 Z-0.200 F400.000
G1 X37.579 Y84.268 Z-0.200 F400.000
G1 X37.418 Y84.496 Z-0.200 F400.000
G1 X37.369 Y84.598 Z-0.200 F400.000
G1 X37.326 Y84.709 Z-0.200 F400.000
G1 X37.466 Y84.414 Z-0.200 F400.000
G1 X37.646 Y84.201 Z-0.200 F400.000
G1 X37.712 Y84.148 Z-0.200 F400.000
G1 X37.782 Y84.100 Z-0.200 F400.000
G1 X38.046 Y83.979 Z-0.200 F400.000
G1 X38.364 Y83.915 Z-0.200 F400.000
G1 X38.460 Y83.909 Z-0.200 F400.000
G1 X38.559 Y83.906 Z-0.200 F400.000
G1 X38.930 Y83.943 Z-0.200 F400.000
G1 X39.228 Y84.043 Z-0.200 F400.000
G1 X39.406 Y84.150 Z-0.200 F400.000
G1 X39.560 Y84.288 Z-0.200 F400.000
G1 X39.717 Y84.511 Z-0.200 F400.000
G1 X39.832 Y84.804 Z-0.200 F400.000
G1 X39.899 Y85.182 Z-0.200 F400.000
G1 X39.913 Y85.489 Z-0.200 F400.000
G1 X39.877 Y85.972 Z-0.200 F400.000
G1 X39.779 Y86.334 Z-0.200 F400.000
G1 X39.683 Y86.530 Z-0.200 F400.000
G1 X39.560 Y86.692 Z-0.200 F400.000
G1 X39.340 Y86.874 Z-0.200 F400.000
G1 X39.077 Y86.996 Z-0.200 F400.000
G1 X38.760 Y87.061 Z-0.200 F400.000
G1 X38.559 Y87.071 Z-0.200 F400.000
G1 X38.184 Y87.035 Z-0.200 F400.000
G1 X37.887 Y86.935 Z-0.200 F400.000
G1 X37.786 Y86.879 Z-0.200 F400.000
G1 X37.692 Y86.814 Z-0.200 F400.000
G1 X37.508 Y86.625 Z-0.200 F400.000
G1 X37.366 Y86.372 Z-0.200 F400.000
G1 X37.303 Y86.196 Z-0.200 F400.000
G1 X37.257 Y85.999 Z-0.200 F400.000
G0 Z4.000
G0 Z4.000
G0 Z4.000
G0 X39.469 Y73.418
G0 Z2.000
(autolevel)
M5
G4P0.5
G90G1F400Z1
G38.3Z-3F30.0
G10L20P1Z0
G90G1F400Z1
M3 S12000
G4P0.5
(autolevel)
G1 X39.469 Y73.418 Z-0.200 F150.000
G1 X39.383 Y73.540 Z-0.200 F400.000
G1 X39.362 Y73.655 Z-0.200 F400.000
G1 X39.283 Y74.453 Z-0.200 F400.000
G1 X39.228 Y74.672 Z-0.200 F400.000
G1 X39.079 Y74.871 Z-0.200 F400.000
G1 X38.910 Y74.972 Z-0.200 F400.000
G1 X38.532 Y75.032 Z-0.200 F400.000
G1 X38.834 Y74.997 Z-0.200 F400.000
G1 X39.079 Y74.871 Z-0.200 F400.000
G1 X39.210 Y74.708 Z-0.200 F400.000
G1 X39.283 Y74.453 Z-0.200 F400.000
G1 X39.362 Y73.655 Z-0.200 F400.000
G1 X39.383 Y73.540 Z-0.200 F400.000
G1 X39.469 Y73.418 Z-0.200 F400.000
G0 Z4.000
G0 Z4.000
G0 X37.244 Y73.418
G0 Z2.000
G1 X37.244 Y73.418 Z-0.200 F150.000
G1 X37.244 Y76.582 Z-0.200 F400.000
G1 X38.384 Y76.582 Z-0.200 F400.000
G1 X38.873 Y76.531 Z-0.200 F400.000
G1 X39.042 Y76.471 Z-0.200 F400.000
G1 X39.169 Y76.389 Z-0.200 F400.000
G1 X39.262 Y76.287 Z-0.200 F400.000
G1 X39.322 Y76.167 Z-0.200 F400.000
G1 X39.374 Y75.880 Z-0.200 F400.000
G1 X39.339 Y75.568 Z-0.200 F400.000
G1 X39.284 Y75.423 Z-0.200 F400.000
G1 X39.196 Y75.295 Z-0.200 F400.000
G1 X39.027 Y75.160 Z-0.200 F400.000
G1 X38.914 Y75.104 Z-0.200 F400.000
G1 X38.667 Y75.044 Z-0.200 F400.000
G1 X38.472 Y75.032 Z-0.200 F400.000
G1 X37.244 Y75.032 Z-0.200 F400.000
G1 X38.472 Y75.032 Z-0.200 F400.000
G1 X38.710 Y75.050 Z-0.200 F400.000
G1 X38.907 Y75.104 Z-0.200 F400.000
G1 X39.066 Y75.189 Z-0.200 F400.000
G1 X39.189 Y75.295 Z-0.200 F400.000
G1 X39.280 Y75.423 Z-0.200 F400.000
G1 X39.338 Y75.568 Z-0.200 F400.000
G1 X39.374 Y75.880 Z-0.200 F400.000
G1 X39.319 Y76.167 Z-0.200 F400.000
G1 X39.258 Y76.287 Z-0.200 F400.000
G1 X39.164 Y76.389 Z-0.200 F400.000
G1 X38.985 Y76.492 Z-0.200 F400.000
G1 X38.864 Y76.531 Z-0.200 F400.000
G1 X38.650 Y76.570 Z-0.200 F400.000
G1 X38.384 Y76.582 Z-0.200 F400.000
G1 X37.244 Y76.582 Z-0.200 F400.000
G1 X37.244 Y73.418 Z-0.200 F400.000
G0 Z4.000
G0 Z4.000
G0 X41.042 Y73.418
G0 Z2.000
G1 X41.042 Y73.418 Z-0.200 F150.000
G1 X41.042 Y76.582 Z-0.200 F400.000
G1 X42.039 Y76.582 Z-0.200 F400.000
G1 X42.312 Y76.565 Z-0.200 F400.000
G1 X42.531 Y76.515 Z-0.200 F400.000
G1 X42.703 Y76.435 Z-0.200 F400.000
G1 X42.834 Y76.334 Z-0.200 F400.000
G1 X42.929 Y76.213 Z-0.200 F400.000
G1 X42.991 Y76.075 Z-0.200 F400.000
G1 X43.046 Y75.770 Z-0.200 F400.000
G1 X43.010 Y75.456 Z-0.200 F400.000
G1 X42.952 Y75.309 Z-0.200 F400.000
G1 X42.860 Y75.178 Z-0.200 F400.000
G1 X42.685 Y75.036 Z-0.200 F400.000
G1 X42.570 Y74.977 Z-0.200 F400.000
G1 X42.328 Y74.914 Z-0.200 F400.000
G1 X42.121 Y74.901 Z-0.200 F400.000
G1 X41.042 Y74.901 Z-0.200 F400.000
G1 X42.121 Y74.901 Z-0.200 F400.000
G1 X42.365 Y74.920 Z-0.200 F400.000
G1 X42.566 Y74.977 Z-0.200 F400.000
G1 X42.728 Y75.066 Z-0.200 F400.000
G1 X42.854 Y75.178 Z-0.200 F400.000
G1 X42.947 Y75.309 Z-0.200 F400.000
G1 X43.007 Y75.456 Z-0.200 F400.000
G1 X43.046 Y75.770 Z-0.200 F400.000
G1 X42.991 Y76.075 Z-0.200 F400.000
G1 X42.929 Y76.213 Z-0.200 F400.000
G1 X42.833 Y76.334 Z-0.200 F400.000
G1 X42.654 Y76.461 Z-0.200 F400.000
G1 X42.529 Y76.515 Z-0.200 F400.000
G1 X42.260 Y76.572 Z-0.200 F400.000
G1 X42.039 Y76.582 Z-0.200 F400.000
G1 X41.042 Y76.582 Z-0.200 F400.000
G1 X41.042 Y73.418 Z-0.200 F400.000
G0 Z4.000
G0 Z4.000
G0 X46.755 Y74.490
G0 Z2.000
G1 X46.755 Y74.490 Z-0.200 F150.000
G1 X46.650 Y74.125 Z-0.200 F400.000
G1 X46.500 Y73.858 Z-0.200 F400.000
G1 X46.415 Y73.760 Z-0.200 F400.000
G1 X46.320 Y73.675 Z-0.200 F400.000
G1 X46.079 Y73.533 Z-0.200 F400.000
G1 X45.786 Y73.446 Z-0.200 F400.000
G1 X45.625 Y73.425 Z-0.200 F400.000
G1 X45.452 Y73.418 Z-0.200 F400.000
G1 X45.080 Y73.454 Z-0.200 F400.000
G1 X44.782 Y73.554 Z-0.200 F400.000
G1 X44.605 Y73.660 Z-0.200 F400.000
G1 X44.452 Y73.796 Z-0.200 F400.000
G1 X44.295 Y74.019 Z-0.200 F400.000
G1 X44.181 Y74.310 Z-0.200 F400.000
G1 X44.113 Y74.689 Z-0.200 F400.000
G1 X44.099 Y75.000 Z-0.200 F400.000
G1 X44.135 Y75.481 Z-0.200 F400.000
G1 X44.232 Y75.842 Z-0.200 F400.000
G1 X44.329 Y76.038 Z-0.200 F400.000
G1 X44.452 Y76.201 Z-0.200 F400.000
G1 X44.671 Y76.383 Z-0.200 F400.000
G1 X44.933 Y76.506 Z-0.200 F400.000
G1 X45.249 Y76.572 Z-0.200 F400.000
G1 X45.452 Y76.582 Z-0.200 F400.000
G1 X45.827 Y76.546 Z-0.200 F400.000
G1 X46.229 Y76.389 Z-0.200 F400.000
G1 X46.433 Y76.221 Z-0.200 F400.000
G1 X46.593 Y75.993 Z-0.200 F400.000
G1 X46.643 Y75.891 Z-0.200 F400.000
