G91G1F450X6.15Y16Z-12
G38.3Z-5F30.0
G91G1F30Z0.1
G10L20P1X0Y0Z0
(Exported by FreeCAD)
(Post Processor: grbl_post)
(Output Time:2021-08-12 11:59:27.524978)
(Begin preamble)
G17 G90
G21
(Begin operation: Fixture)
(Path: Fixture)
G54
(Finish operation: Fixture)
(Begin operation: 30degree_Vbit001)
(Path: 30degree_Vbit001)
(30degree_Vbit001)
(Begin toolchange)
( M6 T1.0 )
M3 S12000.0
(Finish operation: 30degree_Vbit001)
(Begin operation: Engrave)
(Path: Engrave)
(Engrave)
G0 Z4.000
G0 Z4.000
G0 X-2.531 Y-1.582
G0 Z2.000
G1 X-2.531 Y-1.582 Z-0.250 F150.000
G1 X-2.617 Y-1.460 Z-0.250 F400.000
G1 X-2.638 Y-1.345 Z-0.250 F400.000
G1 X-2.717 Y-0.547 Z-0.250 F400.000
G1 X-2.772 Y-0.328 Z-0.250 F400.000
G1 X-2.921 Y-0.129 Z-0.250 F400.000
G1 X-3.090 Y-0.028 Z-0.250 F400.000
G1 X-3.468 Y0.032 Z-0.250 F400.000
G1 X-3.166 Y-0.003 Z-0.250 F400.000
G1 X-2.921 Y-0.129 Z-0.250 F400.000
G1 X-2.790 Y-0.292 Z-0.250 F400.000
G1 X-2.717 Y-0.547 Z-0.250 F400.000
G1 X-2.638 Y-1.345 Z-0.250 F400.000
G1 X-2.617 Y-1.460 Z-0.250 F400.000
G1 X-2.531 Y-1.582 Z-0.250 F400.000
G0 Z4.000
G0 Z4.000
G0 X-4.756 Y-1.582
G0 Z2.000
G1 X-4.756 Y-1.582 Z-0.250 F150.000
G1 X-4.756 Y1.582 Z-0.250 F400.000
G1 X-3.616 Y1.582 Z-0.250 F400.000
G1 X-3.127 Y1.531 Z-0.250 F400.000
G1 X-2.958 Y1.471 Z-0.250 F400.000
G1 X-2.831 Y1.389 Z-0.250 F400.000
G1 X-2.738 Y1.287 Z-0.250 F400.000
G1 X-2.678 Y1.167 Z-0.250 F400.000
G1 X-2.626 Y0.880 Z-0.250 F400.000
G1 X-2.661 Y0.568 Z-0.250 F400.000
G1 X-2.716 Y0.423 Z-0.250 F400.000
G1 X-2.804 Y0.295 Z-0.250 F400.000
G1 X-2.973 Y0.160 Z-0.250 F400.000
G1 X-3.086 Y0.104 Z-0.250 F400.000
G1 X-3.333 Y0.044 Z-0.250 F400.000
G1 X-3.528 Y0.032 Z-0.250 F400.000
G1 X-4.756 Y0.032 Z-0.250 F400.000
G1 X-3.528 Y0.032 Z-0.250 F400.000
G1 X-3.290 Y0.050 Z-0.250 F400.000
G1 X-3.093 Y0.104 Z-0.250 F400.000
G1 X-2.934 Y0.189 Z-0.250 F400.000
G1 X-2.811 Y0.295 Z-0.250 F400.000
G1 X-2.720 Y0.423 Z-0.250 F400.000
G1 X-2.662 Y0.568 Z-0.250 F400.000
G1 X-2.626 Y0.880 Z-0.250 F400.000
G1 X-2.681 Y1.167 Z-0.250 F400.000
G1 X-2.742 Y1.287 Z-0.250 F400.000
G1 X-2.836 Y1.389 Z-0.250 F400.000
G1 X-3.015 Y1.492 Z-0.250 F400.000
G1 X-3.136 Y1.531 Z-0.250 F400.000
G1 X-3.350 Y1.570 Z-0.250 F400.000
G1 X-3.616 Y1.582 Z-0.250 F400.000
G1 X-4.756 Y1.582 Z-0.250 F400.000
G1 X-4.756 Y-1.582 Z-0.250 F400.000
G0 Z4.000
G0 Z4.000
G0 X-0.958 Y-1.582
G0 Z2.000
G1 X-0.958 Y-1.582 Z-0.250 F150.000
G1 X-0.958 Y1.582 Z-0.250 F400.000
G1 X0.039 Y1.582 Z-0.250 F400.000
G1 X0.312 Y1.565 Z-0.250 F400.000
G1 X0.531 Y1.515 Z-0.250 F400.000
G1 X0.703 Y1.435 Z-0.250 F400.000
G1 X0.834 Y1.334 Z-0.250 F400.000
G1 X0.929 Y1.213 Z-0.250 F400.000
G1 X0.991 Y1.075 Z-0.250 F400.000
G1 X1.046 Y0.770 Z-0.250 F400.000
G1 X1.010 Y0.456 Z-0.250 F400.000
G1 X0.952 Y0.309 Z-0.250 F400.000
G1 X0.860 Y0.178 Z-0.250 F400.000
G1 X0.685 Y0.036 Z-0.250 F400.000
G1 X0.570 Y-0.023 Z-0.250 F400.000
G1 X0.328 Y-0.086 Z-0.250 F400.000
G1 X0.121 Y-0.099 Z-0.250 F400.000
G1 X-0.958 Y-0.099 Z-0.250 F400.000
G1 X0.121 Y-0.099 Z-0.250 F400.000
G1 X0.365 Y-0.080 Z-0.250 F400.000
G1 X0.566 Y-0.023 Z-0.250 F400.000
G1 X0.728 Y0.066 Z-0.250 F400.000
G1 X0.854 Y0.178 Z-0.250 F400.000
G1 X0.947 Y0.309 Z-0.250 F400.000
G1 X1.007 Y0.456 Z-0.250 F400.000
G1 X1.046 Y0.770 Z-0.250 F400.000
G1 X0.991 Y1.075 Z-0.250 F400.000
G1 X0.929 Y1.213 Z-0.250 F400.000
G1 X0.833 Y1.334 Z-0.250 F400.000
G1 X0.654 Y1.461 Z-0.250 F400.000
G1 X0.529 Y1.515 Z-0.250 F400.000
G1 X0.260 Y1.572 Z-0.250 F400.000
G1 X0.039 Y1.582 Z-0.250 F400.000
G1 X-0.958 Y1.582 Z-0.250 F400.000
G1 X-0.958 Y-1.582 Z-0.250 F400.000
G0 Z4.000
G0 Z4.000
G0 X4.755 Y-0.510
G0 Z2.000
G1 X4.755 Y-0.510 Z-0.250 F150.000
G1 X4.650 Y-0.875 Z-0.250 F400.000
G1 X4.500 Y-1.142 Z-0.250 F400.000
G1 X4.415 Y-1.240 Z-0.250 F400.000
G1 X4.320 Y-1.325 Z-0.250 F400.000
G1 X4.079 Y-1.467 Z-0.250 F400.000
G1 X3.786 Y-1.554 Z-0.250 F400.000
G1 X3.625 Y-1.575 Z-0.250 F400.000
G1 X3.452 Y-1.582 Z-0.250 F400.000
G1 X3.080 Y-1.546 Z-0.250 F400.000
G1 X2.782 Y-1.446 Z-0.250 F400.000
G1 X2.605 Y-1.340 Z-0.250 F400.000
G1 X2.452 Y-1.204 Z-0.250 F400.000
G1 X2.295 Y-0.981 Z-0.250 F400.000
G1 X2.181 Y-0.690 Z-0.250 F400.000
G1 X2.113 Y-0.311 Z-0.250 F400.000
G1 X2.099 Y-0.000 Z-0.250 F400.000
G1 X2.135 Y0.481 Z-0.250 F400.000
G1 X2.232 Y0.842 Z-0.250 F400.000
G1 X2.329 Y1.038 Z-0.250 F400.000
G1 X2.452 Y1.201 Z-0.250 F400.000
G1 X2.671 Y1.383 Z-0.250 F400.000
G1 X2.933 Y1.506 Z-0.250 F400.000
G1 X3.249 Y1.572 Z-0.250 F400.000
G1 X3.452 Y1.582 Z-0.250 F400.000
G1 X3.827 Y1.546 Z-0.250 F400.000
G1 X4.229 Y1.389 Z-0.250 F400.000
G1 X4.433 Y1.221 Z-0.250 F400.000
G1 X4.593 Y0.993 Z-0.250 F400.000
G1 X4.643 Y0.891 Z-0.250 F400.000
G1 X4.686 Y0.780 Z-0.250 F400.000
G1 X4.545 Y1.074 Z-0.250 F400.000
G1 X4.366 Y1.287 Z-0.250 F400.000
G1 X4.300 Y1.341 Z-0.250 F400.000
G1 X4.229 Y1.389 Z-0.250 F400.000
G1 X3.966 Y1.509 Z-0.250 F400.000
G1 X3.648 Y1.573 Z-0.250 F400.000
G1 X3.552 Y1.580 Z-0.250 F400.000
G1 X3.452 Y1.582 Z-0.250 F400.000
G1 X3.081 Y1.546 Z-0.250 F400.000
G1 X2.784 Y1.446 Z-0.250 F400.000
G1 X2.606 Y1.339 Z-0.250 F400.000
G1 X2.452 Y1.201 Z-0.250 F400.000
G1 X2.295 Y0.977 Z-0.250 F400.000
G1 X2.180 Y0.685 Z-0.250 F400.000
G1 X2.113 Y0.307 Z-0.250 F400.000
G1 X2.099 Y-0.000 Z-0.250 F400.000
G1 X2.135 Y-0.483 Z-0.250 F400.000
G1 X2.232 Y-0.845 Z-0.250 F400.000
G1 X2.329 Y-1.041 Z-0.250 F400.000
G1 X2.452 Y-1.204 Z-0.250 F400.000
G1 X2.672 Y-1.385 Z-0.250 F400.000
G1 X2.935 Y-1.507 Z-0.250 F400.000
G1 X3.251 Y-1.573 Z-0.250 F400.000
G1 X3.452 Y-1.582 Z-0.250 F400.000
G1 X3.828 Y-1.546 Z-0.250 F400.000
G1 X4.125 Y-1.446 Z-0.250 F400.000
G1 X4.226 Y-1.391 Z-0.250 F400.000
G1 X4.320 Y-1.325 Z-0.250 F400.000
G1 X4.504 Y-1.136 Z-0.250 F400.000
G1 X4.646 Y-0.883 Z-0.250 F400.000
G1 X4.708 Y-0.707 Z-0.250 F400.000
G1 X4.755 Y-0.510 Z-0.250 F400.000
G0 Z4.000
G0 Z4.000
G0 Z4.000
G0 X2.543 Y11.071
G0 Z2.000
(autolevel)
M5
G4P0.5
G90G1F400Z1
G38.3Z-3F30.0
G10L20P1Z0
G90G1F400Z1
M3 S12000
G4P0.5
(autolevel)
G1 X2.543 Y11.071 Z-0.250 F150.000
G1 X2.629 Y10.948 Z-0.250 F400.000
G1 X2.650 Y10.834 Z-0.250 F400.000
G1 X2.729 Y10.035 Z-0.250 F400.000
G1 X2.784 Y9.817 Z-0.250 F400.000
G1 X2.933 Y9.617 Z-0.250 F400.000
G1 X3.102 Y9.516 Z-0.250 F400.000
G1 X3.480 Y9.456 Z-0.250 F400.000
G1 X3.178 Y9.491 Z-0.250 F400.000
G1 X2.933 Y9.617 Z-0.250 F400.000
G1 X2.802 Y9.780 Z-0.250 F400.000
G1 X2.729 Y10.035 Z-0.250 F400.000
G1 X2.650 Y10.834 Z-0.250 F400.000
G1 X2.629 Y10.948 Z-0.250 F400.000
G1 X2.543 Y11.071 Z-0.250 F400.000
G0 Z4.000
G0 Z4.000
G0 X4.768 Y11.071
G0 Z2.000
G1 X4.768 Y11.071 Z-0.250 F150.000
G1 X4.768 Y7.906 Z-0.250 F400.000
G1 X3.628 Y7.906 Z-0.250 F400.000
G1 X3.139 Y7.957 Z-0.250 F400.000
G1 X2.970 Y8.018 Z-0.250 F400.000
G1 X2.842 Y8.100 Z-0.250 F400.000
G1 X2.750 Y8.201 Z-0.250 F400.000
G1 X2.690 Y8.322 Z-0.250 F400.000
G1 X2.637 Y8.608 Z-0.250 F400.000
G1 X2.673 Y8.921 Z-0.250 F400.000
G1 X2.728 Y9.066 Z-0.250 F400.000
G1 X2.816 Y9.193 Z-0.250 F400.000
G1 X2.985 Y9.329 Z-0.250 F400.000
G1 X3.098 Y9.384 Z-0.250 F400.000
G1 X3.345 Y9.445 Z-0.250 F400.000
G1 X3.540 Y9.456 Z-0.250 F400.000
G1 X4.768 Y9.456 Z-0.250 F400.000
G1 X3.540 Y9.456 Z-0.250 F400.000
G1 X3.302 Y9.438 Z-0.250 F400.000
G1 X3.105 Y9.384 Z-0.250 F400.000
G1 X2.946 Y9.300 Z-0.250 F400.000
G1 X2.823 Y9.193 Z-0.250 F400.000
G1 X2.732 Y9.066 Z-0.250 F400.000
G1 X2.674 Y8.921 Z-0.250 F400.000
G1 X2.637 Y8.608 Z-0.250 F400.000
G1 X2.693 Y8.322 Z-0.250 F400.000
G1 X2.754 Y8.201 Z-0.250 F400.000
G1 X2.848 Y8.100 Z-0.250 F400.000
G1 X3.027 Y7.996 Z-0.250 F400.000
G1 X3.148 Y7.957 Z-0.250 F400.000
G1 X3.362 Y7.919 Z-0.250 F400.000
G1 X3.628 Y7.906 Z-0.250 F400.000
G1 X4.768 Y7.906 Z-0.250 F400.000
G1 X4.768 Y11.071 Z-0.250 F400.000
G0 Z4.000
G0 Z4.000
G0 X0.970 Y11.071
G0 Z2.000
G1 X0.970 Y11.071 Z-0.250 F150.000
G1 X0.970 Y7.906 Z-0.250 F400.000
G1 X-0.027 Y7.906 Z-0.250 F400.000
G1 X-0.300 Y7.923 Z-0.250 F400.000
G1 X-0.519 Y7.974 Z-0.250 F400.000
G1 X-0.692 Y8.053 Z-0.250 F400.000
G1 X-0.823 Y8.155 Z-0.250 F400.000
G1 X-0.918 Y8.275 Z-0.250 F400.000
G1 X-0.979 Y8.414 Z-0.250 F400.000
G1 X-1.034 Y8.719 Z-0.250 F400.000
G1 X-0.998 Y9.032 Z-0.250 F400.000
G1 X-0.940 Y9.180 Z-0.250 F400.000
G1 X-0.848 Y9.311 Z-0.250 F400.000
G1 X-0.674 Y9.453 Z-0.250 F400.000
G1 X-0.558 Y9.511 Z-0.250 F400.000
G1 X-0.317 Y9.575 Z-0.250 F400.000
G1 X-0.109 Y9.588 Z-0.250 F400.000
G1 X0.970 Y9.588 Z-0.250 F400.000
G1 X-0.109 Y9.588 Z-0.250 F400.000
G1 X-0.353 Y9.569 Z-0.250 F400.000
G1 X-0.554 Y9.511 Z-0.250 F400.000
G1 X-0.717 Y9.422 Z-0.250 F400.000
G1 X-0.842 Y9.311 Z-0.250 F400.000
G1 X-0.935 Y9.180 Z-0.250 F400.000
G1 X-0.995 Y9.032 Z-0.250 F400.000
G1 X-1.034 Y8.719 Z-0.250 F400.000
G1 X-0.979 Y8.414 Z-0.250 F400.000
G1 X-0.917 Y8.275 Z-0.250 F400.000
G1 X-0.821 Y8.155 Z-0.250 F400.000
G1 X-0.642 Y8.028 Z-0.250 F400.000
G1 X-0.517 Y7.974 Z-0.250 F400.000
G1 X-0.248 Y7.917 Z-0.250 F400.000
G1 X-0.027 Y7.906 Z-0.250 F400.000
G1 X0.970 Y7.906 Z-0.250 F400.000
G1 X0.970 Y11.071 Z-0.250 F400.000
G0 Z4.000
G0 Z4.000
G0 X-4.743 Y9.999
G0 Z2.000
G1 X-4.743 Y9.999 Z-0.250 F150.000
G1 X-4.638 Y10.363 Z-0.250 F400.000
G1 X-4.488 Y10.630 Z-0.250 F400.000
G1 X-4.403 Y10.729 Z-0.250 F400.000
G1 X-4.308 Y10.814 Z-0.250 F400.000
G1 X-4.067 Y10.956 Z-0.250 F400.000
G1 X-3.774 Y11.043 Z-0.250 F400.000
G1 X-3.613 Y11.064 Z-0.250 F400.000
G1 X-3.441 Y11.071 Z-0.250 F400.000
G1 X-3.068 Y11.035 Z-0.250 F400.000
G1 X-2.770 Y10.935 Z-0.250 F400.000
G1 X-2.594 Y10.829 Z-0.250 F400.000
G1 X-2.440 Y10.692 Z-0.250 F400.000
G1 X-2.283 Y10.470 Z-0.250 F400.000
G1 X-2.169 Y10.178 Z-0.250 F400.000
G1 X-2.101 Y9.800 Z-0.250 F400.000
G1 X-2.087 Y9.489 Z-0.250 F400.000
G1 X-2.123 Y9.008 Z-0.250 F400.000
G1 X-2.221 Y8.647 Z-0.250 F400.000
G1 X-2.317 Y8.451 Z-0.250 F400.000
G1 X-2.440 Y8.288 Z-0.250 F400.000
G1 X-2.659 Y8.106 Z-0.250 F400.000
G1 X-2.922 Y7.982 Z-0.250 F400.000
G1 X-3.237 Y7.917 Z-0.250 F400.000
G1 X-3.441 Y7.906 Z-0.250 F400.000
G1 X-3.815 Y7.943 Z-0.250 F400.000
G1 X-4.218 Y8.100 Z-0.250 F400.000
G1 X-4.421 Y8.268 Z-0.250 F400.000
G1 X-4.582 Y8.496 Z-0.250 F400.000
G1 X-4.631 Y8.598 Z-0.250 F400.000
G1 X-4.674 Y8.709 Z-0.250 F400.000
G1 X-4.534 Y8.414 Z-0.250 F400.000
G1 X-4.354 Y8.201 Z-0.250 F400.000
G1 X-4.288 Y8.148 Z-0.250 F400.000
G1 X-4.218 Y8.100 Z-0.250 F400.000
G1 X-3.954 Y7.979 Z-0.250 F400.000
G1 X-3.636 Y7.915 Z-0.250 F400.000
G1 X-3.540 Y7.909 Z-0.250 F400.000
G1 X-3.441 Y7.906 Z-0.250 F400.000
G1 X-3.070 Y7.943 Z-0.250 F400.000
G1 X-2.772 Y8.043 Z-0.250 F400.000
G1 X-2.594 Y8.150 Z-0.250 F400.000
G1 X-2.440 Y8.288 Z-0.250 F400.000
G1 X-2.283 Y8.511 Z-0.250 F400.000
G1 X-2.168 Y8.804 Z-0.250 F400.000
G1 X-2.101 Y9.182 Z-0.250 F400.000
G1 X-2.087 Y9.489 Z-0.250 F400.000
G1 X-2.123 Y9.972 Z-0.250 F400.000
G1 X-2.221 Y10.334 Z-0.250 F400.000
G1 X-2.317 Y10.530 Z-0.250 F400.000
G1 X-2.440 Y10.692 Z-0.250 F400.000
G1 X-2.660 Y10.874 Z-0.250 F400.000
G1 X-2.923 Y10.996 Z-0.250 F400.000
G1 X-3.240 Y11.061 Z-0.250 F400.000
G1 X-3.441 Y11.071 Z-0.250 F400.000
G1 X-3.816 Y11.035 Z-0.250 F400.000
G1 X-4.113 Y10.935 Z-0.250 F400.000
G1 X-4.214 Y10.879 Z-0.250 F400.000
G1 X-4.308 Y10.814 Z-0.250 F400.000
G1 X-4.492 Y10.625 Z-0.250 F400.000
G1 X-4.634 Y10.372 Z-0.250 F400.000
G1 X-4.697 Y10.196 Z-0.250 F400.000
G1 X-4.743 Y9.999 Z-0.250 F400.000
G0 Z4.000
G0 Z4.000
G0 Z4.000
G0 X-2.531 Y23.418
G0 Z2.000
(autolevel)
M5
G4P0.5
G90G1F400Z1
G38.3Z-3F30.0
G10L20P1Z0
G90G1F400Z1
M3 S12000
G4P0.5
(autolevel)
G1 X-2.531 Y23.418 Z-0.250 F150.000
G1 X-2.617 Y23.540 Z-0.250 F400.000
G1 X-2.638 Y23.655 Z-0.250 F400.000
G1 X-2.717 Y24.453 Z-0.250 F400.000
G1 X-2.772 Y24.672 Z-0.250 F400.000
G1 X-2.921 Y24.871 Z-0.250 F400.000
G1 X-3.090 Y24.972 Z-0.250 F400.000
G1 X-3.468 Y25.032 Z-0.250 F400.000
G1 X-3.166 Y24.997 Z-0.250 F400.000
G1 X-2.921 Y24.871 Z-0.250 F400.000
G1 X-2.790 Y24.708 Z-0.250 F400.000
G1 X-2.717 Y24.453 Z-0.250 F400.000
G1 X-2.638 Y23.655 Z-0.250 F400.000
G1 X-2.617 Y23.540 Z-0.250 F400.000
G1 X-2.531 Y23.418 Z-0.250 F400.000
G0 Z4.000
G0 Z4.000
G0 X-4.756 Y23.418
G0 Z2.000
G1 X-4.756 Y23.418 Z-0.250 F150.000
G1 X-4.756 Y26.582 Z-0.250 F400.000
G1 X-3.616 Y26.582 Z-0.250 F400.000
G1 X-3.127 Y26.531 Z-0.250 F400.000
G1 X-2.958 Y26.471 Z-0.250 F400.000
G1 X-2.831 Y26.389 Z-0.250 F400.000
G1 X-2.738 Y26.287 Z-0.250 F400.000
G1 X-2.678 Y26.167 Z-0.250 F400.000
G1 X-2.626 Y25.880 Z-0.250 F400.000
G1 X-2.661 Y25.568 Z-0.250 F400.000
G1 X-2.716 Y25.423 Z-0.250 F400.000
G1 X-2.804 Y25.295 Z-0.250 F400.000
G1 X-2.973 Y25.160 Z-0.250 F400.000
G1 X-3.086 Y25.104 Z-0.250 F400.000
G1 X-3.333 Y25.044 Z-0.250 F400.000
G1 X-3.528 Y25.032 Z-0.250 F400.000
G1 X-4.756 Y25.032 Z-0.250 F400.000
G1 X-3.528 Y25.032 Z-0.250 F400.000
G1 X-3.290 Y25.050 Z-0.250 F400.000
G1 X-3.093 Y25.104 Z-0.250 F400.000
G1 X-2.934 Y25.189 Z-0.250 F400.000
G1 X-2.811 Y25.295 Z-0.250 F400.000
G1 X-2.720 Y25.423 Z-0.250 F400.000
G1 X-2.662 Y25.568 Z-0.250 F400.000
G1 X-2.626 Y25.880 Z-0.250 F400.000
G1 X-2.681 Y26.167 Z-0.250 F400.000
G1 X-2.742 Y26.287 Z-0.250 F400.000
G1 X-2.836 Y26.389 Z-0.250 F400.000
G1 X-3.015 Y26.492 Z-0.250 F400.000
G1 X-3.136 Y26.531 Z-0.250 F400.000
G1 X-3.350 Y26.570 Z-0.250 F400.000
G1 X-3.616 Y26.582 Z-0.250 F400.000
G1 X-4.756 Y26.582 Z-0.250 F400.000
G1 X-4.756 Y23.418 Z-0.250 F400.000
G0 Z4.000
G0 Z4.000
G0 X-0.958 Y23.418
G0 Z2.000
G1 X-0.958 Y23.418 Z-0.250 F150.000
G1 X-0.958 Y26.582 Z-0.250 F400.000
G1 X0.039 Y26.582 Z-0.250 F400.000
G1 X0.312 Y26.565 Z-0.250 F400.000
G1 X0.531 Y26.515 Z-0.250 F400.000
G1 X0.703 Y26.435 Z-0.250 F400.000
G1 X0.834 Y26.334 Z-0.250 F400.000
G1 X0.929 Y26.213 Z-0.250 F400.000
G1 X0.991 Y26.075 Z-0.250 F400.000
G1 X1.046 Y25.770 Z-0.250 F400.000
G1 X1.010 Y25.456 Z-0.250 F400.000
G1 X0.952 Y25.309 Z-0.250 F400.000
G1 X0.860 Y25.178 Z-0.250 F400.000
G1 X0.685 Y25.036 Z-0.250 F400.000
G1 X0.570 Y24.977 Z-0.250 F400.000
G1 X0.328 Y24.914 Z-0.250 F400.000
G1 X0.121 Y24.901 Z-0.250 F400.000
G1 X-0.958 Y24.901 Z-0.250 F400.000
G1 X0.121 Y24.901 Z-0.250 F400.000
G1 X0.365 Y24.920 Z-0.250 F400.000
G1 X0.566 Y24.977 Z-0.250 F400.000
G1 X0.728 Y25.066 Z-0.250 F400.000
G1 X0.854 Y25.178 Z-0.250 F400.000
G1 X0.947 Y25.309 Z-0.250 F400.000
G1 X1.007 Y25.456 Z-0.250 F400.000
G1 X1.046 Y25.770 Z-0.250 F400.000
G1 X0.991 Y26.075 Z-0.250 F400.000
G1 X0.929 Y26.213 Z-0.250 F400.000
G1 X0.833 Y26.334 Z-0.250 F400.000
G1 X0.654 Y26.461 Z-0.250 F400.000
G1 X0.529 Y26.515 Z-0.250 F400.000
G1 X0.260 Y26.572 Z-0.250 F400.000
G1 X0.039 Y26.582 Z-0.250 F400.000
G1 X-0.958 Y26.582 Z-0.250 F400.000
G1 X-0.958 Y23.418 Z-0.250 F400.000
G0 Z4.000
G0 Z4.000
G0 X4.755 Y24.490
G0 Z2.000
G1 X4.755 Y24.490 Z-0.250 F150.000
G1 X4.650 Y24.125 Z-0.250 F400.000
G1 X4.500 Y23.858 Z-0.250 F400.000
G1 X4.415 Y23.760 Z-0.250 F400.000
G1 X4.320 Y23.675 Z-0.250 F400.000
G1 X4.079 Y23.533 Z-0.250 F400.000
G1 X3.786 Y23.446 Z-0.250 F400.000
G1 X3.625 Y23.425 Z-0.250 F400.000
G1 X3.452 Y23.418 Z-0.250 F400.000
G1 X3.080 Y23.454 Z-0.250 F400.000
G1 X2.782 Y23.554 Z-0.250 F400.000
G1 X2.605 Y23.660 Z-0.250 F400.000
G1 X2.452 Y23.796 Z-0.250 F400.000
G1 X2.295 Y24.019 Z-0.250 F400.000
G1 X2.181 Y24.310 Z-0.250 F400.000
G1 X2.113 Y24.689 Z-0.250 F400.000
G1 X2.099 Y25.000 Z-0.250 F400.000
G1 X2.135 Y25.481 Z-0.250 F400.000
G1 X2.232 Y25.842 Z-0.250 F400.000
G1 X2.329 Y26.038 Z-0.250 F400.000
G1 X2.452 Y26.201 Z-0.250 F400.000
G1 X2.671 Y26.383 Z-0.250 F400.000
G1 X2.933 Y26.506 Z-0.250 F400.000
G1 X3.249 Y26.572 Z-0.250 F400.000
G1 X3.452 Y26.582 Z-0.250 F400.000
G1 X3.827 Y26.546 Z-0.250 F400.000
G1 X4.229 Y26.389 Z-0.250 F400.000
G1 X4.433 Y26.221 Z-0.250 F400.000
G1 X4.593 Y25.993 Z-0.250 F400.000
G1 X4.643 Y25.891 Z-0.250 F400.000
G1 X4.686 Y25.780 Z-0.250 F400.000
G1 X4.545 Y26.074 Z-0.250 F400.000
G1 X4.366 Y26.287 Z-0.250 F400.000
G1 X4.300 Y26.341 Z-0.250 F400.000
G1 X4.229 Y26.389 Z-0.250 F400.000
G1 X3.966 Y26.509 Z-0.250 F400.000
G1 X3.648 Y26.573 Z-0.250 F400.000
G1 X3.552 Y26.580 Z-0.250 F400.000
G1 X3.452 Y26.582 Z-0.250 F400.000
G1 X3.081 Y26.546 Z-0.250 F400.000
G1 X2.784 Y26.446 Z-0.250 F400.000
G1 X2.606 Y26.339 Z-0.250 F400.000
G1 X2.452 Y26.201 Z-0.250 F400.000
G1 X2.295 Y25.977 Z-0.250 F400.000
G1 X2.180 Y25.685 Z-0.250 F400.000
G1 X2.113 Y25.307 Z-0.250 F400.000
G1 X2.099 Y25.000 Z-0.250 F400.000
G1 X2.135 Y24.517 Z-0.250 F400.000
G1 X2.232 Y24.155 Z-0.250 F400.000
G1 X2.329 Y23.959 Z-0.250 F400.000
G1 X2.452 Y23.796 Z-0.250 F400.000
G1 X2.672 Y23.615 Z-0.250 F400.000
G1 X2.935 Y23.493 Z-0.250 F400.000
G1 X3.251 Y23.427 Z-0.250 F400.000
G1 X3.452 Y23.418 Z-0.250 F400.000
G1 X3.828 Y23.454 Z-0.250 F400.000
G1 X4.125 Y23.554 Z-0.250 F400.000
G1 X4.226 Y23.609 Z-0.250 F400.000
G1 X4.320 Y23.675 Z-0.250 F400.000
G1 X4.504 Y23.864 Z-0.250 F400.000
G1 X4.646 Y24.117 Z-0.250 F400.000
G1 X4.708 Y24.293 Z-0.250 F400.000
G1 X4.755 Y24.490 Z-0.250 F400.000
G0 Z4.000
G0 Z4.000
G0 Z4.000
G0 X2.543 Y36.071
G0 Z2.000
(autolevel)
M5
G4P0.5
G90G1F400Z1
G38.3Z-3F30.0
G10L20P1Z0
G90G1F400Z1
M3 S12000
G4P0.5
(autolevel)
G1 X2.543 Y36.071 Z-0.250 F150.000
G1 X2.629 Y35.948 Z-0.250 F400.000
G1 X2.650 Y35.834 Z-0.250 F400.000
G1 X2.729 Y35.035 Z-0.250 F400.000
G1 X2.784 Y34.817 Z-0.250 F400.000
G1 X2.933 Y34.617 Z-0.250 F400.000
G1 X3.102 Y34.516 Z-0.250 F400.000
G1 X3.480 Y34.456 Z-0.250 F400.000
G1 X3.178 Y34.491 Z-0.250 F400.000
G1 X2.933 Y34.617 Z-0.250 F400.000
G1 X2.802 Y34.780 Z-0.250 F400.000
G1 X2.729 Y35.035 Z-0.250 F400.000
G1 X2.650 Y35.834 Z-0.250 F400.000
G1 X2.629 Y35.948 Z-0.250 F400.000
G1 X2.543 Y36.071 Z-0.250 F400.000
G0 Z4.000
G0 Z4.000
G0 X4.768 Y36.071
G0 Z2.000
G1 X4.768 Y36.071 Z-0.250 F150.000
G1 X4.768 Y32.906 Z-0.250 F400.000
G1 X3.628 Y32.906 Z-0.250 F400.000
G1 X3.139 Y32.957 Z-0.250 F400.000
G1 X2.970 Y33.018 Z-0.250 F400.000
G1 X2.842 Y33.100 Z-0.250 F400.000
G1 X2.750 Y33.201 Z-0.250 F400.000
G1 X2.690 Y33.322 Z-0.250 F400.000
G1 X2.637 Y33.608 Z-0.250 F400.000
G1 X2.673 Y33.921 Z-0.250 F400.000
G1 X2.728 Y34.066 Z-0.250 F400.000
G1 X2.816 Y34.193 Z-0.250 F400.000
G1 X2.985 Y34.329 Z-0.250 F400.000
G1 X3.098 Y34.384 Z-0.250 F400.000
G1 X3.345 Y34.445 Z-0.250 F400.000
G1 X3.540 Y34.456 Z-0.250 F400.000
G1 X4.768 Y34.456 Z-0.250 F400.000
G1 X3.540 Y34.456 Z-0.250 F400.000
G1 X3.302 Y34.438 Z-0.250 F400.000
G1 X3.105 Y34.384 Z-0.250 F400.000
G1 X2.946 Y34.300 Z-0.250 F400.000
G1 X2.823 Y34.193 Z-0.250 F400.000
G1 X2.732 Y34.066 Z-0.250 F400.000
G1 X2.674 Y33.921 Z-0.250 F400.000
G1 X2.637 Y33.608 Z-0.250 F400.000
G1 X2.693 Y33.322 Z-0.250 F400.000
G1 X2.754 Y33.201 Z-0.250 F400.000
G1 X2.848 Y33.100 Z-0.250 F400.000
G1 X3.027 Y32.996 Z-0.250 F400.000
G1 X3.148 Y32.957 Z-0.250 F400.000
G1 X3.362 Y32.919 Z-0.250 F400.000
G1 X3.628 Y32.906 Z-0.250 F400.000
G1 X4.768 Y32.906 Z-0.250 F400.000
G1 X4.768 Y36.071 Z-0.250 F400.000
G0 Z4.000
G0 Z4.000
G0 X0.970 Y36.071
G0 Z2.000
G1 X0.970 Y36.071 Z-0.250 F150.000
G1 X0.970 Y32.906 Z-0.250 F400.000
G1 X-0.027 Y32.906 Z-0.250 F400.000
G1 X-0.300 Y32.923 Z-0.250 F400.000
G1 X-0.519 Y32.974 Z-0.250 F400.000
G1 X-0.692 Y33.053 Z-0.250 F400.000
G1 X-0.823 Y33.155 Z-0.250 F400.000
G1 X-0.918 Y33.275 Z-0.250 F400.000
G1 X-0.979 Y33.414 Z-0.250 F400.000
G1 X-1.034 Y33.719 Z-0.250 F400.000
G1 X-0.998 Y34.032 Z-0.250 F400.000
G1 X-0.940 Y34.180 Z-0.250 F400.000
G1 X-0.848 Y34.311 Z-0.250 F400.000
G1 X-0.674 Y34.453 Z-0.250 F400.000
G1 X-0.558 Y34.511 Z-0.250 F400.000
G1 X-0.317 Y34.575 Z-0.250 F400.000
G1 X-0.109 Y34.588 Z-0.250 F400.000
G1 X0.970 Y34.588 Z-0.250 F400.000
G1 X-0.109 Y34.588 Z-0.250 F400.000
G1 X-0.353 Y34.569 Z-0.250 F400.000
G1 X-0.554 Y34.511 Z-0.250 F400.000
G1 X-0.717 Y34.422 Z-0.250 F400.000
G1 X-0.842 Y34.311 Z-0.250 F400.000
G1 X-0.935 Y34.180 Z-0.250 F400.000
G1 X-0.995 Y34.032 Z-0.250 F400.000
G1 X-1.034 Y33.719 Z-0.250 F400.000
G1 X-0.979 Y33.414 Z-0.250 F400.000
G1 X-0.917 Y33.275 Z-0.250 F400.000
G1 X-0.821 Y33.155 Z-0.250 F400.000
G1 X-0.642 Y33.028 Z-0.250 F400.000
G1 X-0.517 Y32.974 Z-0.250 F400.000
G1 X-0.248 Y32.917 Z-0.250 F400.000
G1 X-0.027 Y32.906 Z-0.250 F400.000
G1 X0.970 Y32.906 Z-0.250 F400.000
G1 X0.970 Y36.071 Z-0.250 F400.000
G0 Z4.000
G0 Z4.000
G0 X-4.743 Y34.999
G0 Z2.000
G1 X-4.743 Y34.999 Z-0.250 F150.000
G1 X-4.638 Y35.363 Z-0.250 F400.000
G1 X-4.488 Y35.630 Z-0.250 F400.000
G1 X-4.403 Y35.729 Z-0.250 F400.000
G1 X-4.308 Y35.814 Z-0.250 F400.000
G1 X-4.067 Y35.956 Z-0.250 F400.000
G1 X-3.774 Y36.043 Z-0.250 F400.000
G1 X-3.613 Y36.064 Z-0.250 F400.000
G1 X-3.441 Y36.071 Z-0.250 F400.000
G1 X-3.068 Y36.035 Z-0.250 F400.000
G1 X-2.770 Y35.935 Z-0.250 F400.000
G1 X-2.594 Y35.829 Z-0.250 F400.000
G1 X-2.440 Y35.692 Z-0.250 F400.000
G1 X-2.283 Y35.470 Z-0.250 F400.000
G1 X-2.169 Y35.178 Z-0.250 F400.000
G1 X-2.101 Y34.800 Z-0.250 F400.000
G1 X-2.087 Y34.489 Z-0.250 F400.000
G1 X-2.123 Y34.008 Z-0.250 F400.000
G1 X-2.221 Y33.647 Z-0.250 F400.000
G1 X-2.317 Y33.451 Z-0.250 F400.000
G1 X-2.440 Y33.288 Z-0.250 F400.000
G1 X-2.659 Y33.106 Z-0.250 F400.000
G1 X-2.922 Y32.982 Z-0.250 F400.000
G1 X-3.237 Y32.917 Z-0.250 F400.000
G1 X-3.441 Y32.906 Z-0.250 F400.000
G1 X-3.815 Y32.943 Z-0.250 F400.000
G1 X-4.218 Y33.100 Z-0.250 F400.000
G1 X-4.421 Y33.268 Z-0.250 F400.000
G1 X-4.582 Y33.496 Z-0.250 F400.000
G1 X-4.631 Y33.598 Z-0.250 F400.000
G1 X-4.674 Y33.709 Z-0.250 F400.000
G1 X-4.534 Y33.414 Z-0.250 F400.000
G1 X-4.354 Y33.201 Z-0.250 F400.000
G1 X-4.288 Y33.148 Z-0.250 F400.000
G1 X-4.218 Y33.100 Z-0.250 F400.000
G1 X-3.954 Y32.979 Z-0.250 F400.000
G1 X-3.636 Y32.915 Z-0.250 F400.000
G1 X-3.540 Y32.909 Z-0.250 F400.000
G1 X-3.441 Y32.906 Z-0.250 F400.000
G1 X-3.070 Y32.943 Z-0.250 F400.000
G1 X-2.772 Y33.043 Z-0.250 F400.000
G1 X-2.594 Y33.150 Z-0.250 F400.000
G1 X-2.440 Y33.288 Z-0.250 F400.000
G1 X-2.283 Y33.511 Z-0.250 F400.000
G1 X-2.168 Y33.804 Z-0.250 F400.000
G1 X-2.101 Y34.182 Z-0.250 F400.000
G1 X-2.087 Y34.489 Z-0.250 F400.000
G1 X-2.123 Y34.972 Z-0.250 F400.000
G1 X-2.221 Y35.334 Z-0.250 F400.000
G1 X-2.317 Y35.530 Z-0.250 F400.000
G1 X-2.440 Y35.692 Z-0.250 F400.000
G1 X-2.660 Y35.874 Z-0.250 F400.000
G1 X-2.923 Y35.996 Z-0.250 F400.000
G1 X-3.240 Y36.061 Z-0.250 F400.000
G1 X-3.441 Y36.071 Z-0.250 F400.000
G1 X-3.816 Y36.035 Z-0.250 F400.000
G1 X-4.113 Y35.935 Z-0.250 F400.000
G1 X-4.214 Y35.879 Z-0.250 F400.000
G1 X-4.308 Y35.814 Z-0.250 F400.000
G1 X-4.492 Y35.625 Z-0.250 F400.000
G1 X-4.634 Y35.372 Z-0.250 F400.000
G1 X-4.697 Y35.196 Z-0.250 F400.000
G1 X-4.743 Y34.999 Z-0.250 F400.000
G0 Z4.000
G0 Z4.000
G0 Z4.000
G0 X-2.531 Y48.418
G0 Z2.000
(autolevel)
M5
G4P0.5
G90G1F400Z1
G38.3Z-3F30.0
G10L20P1Z0
G90G1F400Z1
M3 S12000
G4P0.5
(autolevel)
G1 X-2.531 Y48.418 Z-0.250 F150.000
G1 X-2.617 Y48.540 Z-0.250 F400.000
G1 X-2.638 Y48.655 Z-0.250 F400.000
G1 X-2.717 Y49.453 Z-0.250 F400.000
G1 X-2.772 Y49.672 Z-0.250 F400.000
G1 X-2.921 Y49.871 Z-0.250 F400.000
G1 X-3.090 Y49.972 Z-0.250 F400.000
G1 X-3.468 Y50.032 Z-0.250 F400.000
G1 X-3.166 Y49.997 Z-0.250 F400.000
G1 X-2.921 Y49.871 Z-0.250 F400.000
G1 X-2.790 Y49.708 Z-0.250 F400.000
G1 X-2.717 Y49.453 Z-0.250 F400.000
G1 X-2.638 Y48.655 Z-0.250 F400.000
G1 X-2.617 Y48.540 Z-0.250 F400.000
G1 X-2.531 Y48.418 Z-0.250 F400.000
G0 Z4.000
G0 Z4.000
G0 X-4.756 Y48.418
G0 Z2.000
G1 X-4.756 Y48.418 Z-0.250 F150.000
G1 X-4.756 Y51.582 Z-0.250 F400.000
G1 X-3.616 Y51.582 Z-0.250 F400.000
G1 X-3.127 Y51.531 Z-0.250 F400.000
G1 X-2.958 Y51.471 Z-0.250 F400.000
G1 X-2.831 Y51.389 Z-0.250 F400.000
G1 X-2.738 Y51.287 Z-0.250 F400.000
G1 X-2.678 Y51.167 Z-0.250 F400.000
G1 X-2.626 Y50.880 Z-0.250 F400.000
G1 X-2.661 Y50.568 Z-0.250 F400.000
G1 X-2.716 Y50.423 Z-0.250 F400.000
G1 X-2.804 Y50.295 Z-0.250 F400.000
G1 X-2.973 Y50.160 Z-0.250 F400.000
G1 X-3.086 Y50.104 Z-0.250 F400.000
G1 X-3.333 Y50.044 Z-0.250 F400.000
G1 X-3.528 Y50.032 Z-0.250 F400.000
G1 X-4.756 Y50.032 Z-0.250 F400.000
G1 X-3.528 Y50.032 Z-0.250 F400.000
G1 X-3.290 Y50.050 Z-0.250 F400.000
G1 X-3.093 Y50.104 Z-0.250 F400.000
G1 X-2.934 Y50.189 Z-0.250 F400.000
G1 X-2.811 Y50.295 Z-0.250 F400.000
G1 X-2.720 Y50.423 Z-0.250 F400.000
G1 X-2.662 Y50.568 Z-0.250 F400.000
G1 X-2.626 Y50.880 Z-0.250 F400.000
G1 X-2.681 Y51.167 Z-0.250 F400.000
G1 X-2.742 Y51.287 Z-0.250 F400.000
G1 X-2.836 Y51.389 Z-0.250 F400.000
G1 X-3.015 Y51.492 Z-0.250 F400.000
G1 X-3.136 Y51.531 Z-0.250 F400.000
G1 X-3.350 Y51.570 Z-0.250 F400.000
G1 X-3.616 Y51.582 Z-0.250 F400.000
G1 X-4.756 Y51.582 Z-0.250 F400.000
G1 X-4.756 Y48.418 Z-0.250 F400.000
G0 Z4.000
G0 Z4.000
G0 X-0.958 Y48.418
G0 Z2.000
G1 X-0.958 Y48.418 Z-0.250 F150.000
G1 X-0.958 Y51.582 Z-0.250 F400.000
G1 X0.039 Y51.582 Z-0.250 F400.000
G1 X0.312 Y51.565 Z-0.250 F400.000
G1 X0.531 Y51.515 Z-0.250 F400.000
G1 X0.703 Y51.435 Z-0.250 F400.000
G1 X0.834 Y51.334 Z-0.250 F400.000
G1 X0.929 Y51.213 Z-0.250 F400.000
G1 X0.991 Y51.075 Z-0.250 F400.000
G1 X1.046 Y50.770 Z-0.250 F400.000
G1 X1.010 Y50.456 Z-0.250 F400.000
G1 X0.952 Y50.309 Z-0.250 F400.000
G1 X0.860 Y50.178 Z-0.250 F400.000
G1 X0.685 Y50.036 Z-0.250 F400.000
G1 X0.570 Y49.977 Z-0.250 F400.000
G1 X0.328 Y49.914 Z-0.250 F400.000
G1 X0.121 Y49.901 Z-0.250 F400.000
G1 X-0.958 Y49.901 Z-0.250 F400.000
G1 X0.121 Y49.901 Z-0.250 F400.000
G1 X0.365 Y49.920 Z-0.250 F400.000
G1 X0.566 Y49.977 Z-0.250 F400.000
G1 X0.728 Y50.066 Z-0.250 F400.000
G1 X0.854 Y50.178 Z-0.250 F400.000
G1 X0.947 Y50.309 Z-0.250 F400.000
G1 X1.007 Y50.456 Z-0.250 F400.000
G1 X1.046 Y50.770 Z-0.250 F400.000
G1 X0.991 Y51.075 Z-0.250 F400.000
G1 X0.929 Y51.213 Z-0.250 F400.000
G1 X0.833 Y51.334 Z-0.250 F400.000
G1 X0.654 Y51.461 Z-0.250 F400.000
G1 X0.529 Y51.515 Z-0.250 F400.000
G1 X0.260 Y51.572 Z-0.250 F400.000
G1 X0.039 Y51.582 Z-0.250 F400.000
G1 X-0.958 Y51.582 Z-0.250 F400.000
G1 X-0.958 Y48.418 Z-0.250 F400.000
G0 Z4.000
G0 Z4.000
G0 X4.755 Y49.490
G0 Z2.000
G1 X4.755 Y49.490 Z-0.250 F150.000
G1 X4.650 Y49.125 Z-0.250 F400.000
G1 X4.500 Y48.858 Z-0.250 F400.000
G1 X4.415 Y48.760 Z-0.250 F400.000
G1 X4.320 Y48.675 Z-0.250 F400.000
G1 X4.079 Y48.533 Z-0.250 F400.000
G1 X3.786 Y48.446 Z-0.250 F400.000
G1 X3.625 Y48.425 Z-0.250 F400.000
G1 X3.452 Y48.418 Z-0.250 F400.000
G1 X3.080 Y48.454 Z-0.250 F400.000
G1 X2.782 Y48.554 Z-0.250 F400.000
G1 X2.605 Y48.660 Z-0.250 F400.000
G1 X2.452 Y48.796 Z-0.250 F400.000
G1 X2.295 Y49.019 Z-0.250 F400.000
G1 X2.181 Y49.310 Z-0.250 F400.000
G1 X2.113 Y49.689 Z-0.250 F400.000
G1 X2.099 Y50.000 Z-0.250 F400.000
G1 X2.135 Y50.481 Z-0.250 F400.000
G1 X2.232 Y50.842 Z-0.250 F400.000
G1 X2.329 Y51.038 Z-0.250 F400.000
G1 X2.452 Y51.201 Z-0.250 F400.000
G1 X2.671 Y51.383 Z-0.250 F400.000
G1 X2.933 Y51.506 Z-0.250 F400.000
G1 X3.249 Y51.572 Z-0.250 F400.000
G1 X3.452 Y51.582 Z-0.250 F400.000
G1 X3.827 Y51.546 Z-0.250 F400.000
G1 X4.229 Y51.389 Z-0.250 F400.000
G1 X4.433 Y51.221 Z-0.250 F400.000
G1 X4.593 Y50.993 Z-0.250 F400.000
G1 X4.643 Y50.891 Z-0.250 F400.000
G1 X4.686 Y50.780 Z-0.250 F400.000
G1 X4.545 Y51.074 Z-0.250 F400.000
G1 X4.366 Y51.287 Z-0.250 F400.000
G1 X4.300 Y51.341 Z-0.250 F400.000
G1 X4.229 Y51.389 Z-0.250 F400.000
G1 X3.966 Y51.509 Z-0.250 F400.000
G1 X3.648 Y51.573 Z-0.250 F400.000
G1 X3.552 Y51.580 Z-0.250 F400.000
G1 X3.452 Y51.582 Z-0.250 F400.000
G1 X3.081 Y51.546 Z-0.250 F400.000
G1 X2.784 Y51.446 Z-0.250 F400.000
G1 X2.606 Y51.339 Z-0.250 F400.000
G1 X2.452 Y51.201 Z-0.250 F400.000
G1 X2.295 Y50.977 Z-0.250 F400.000
G1 X2.180 Y50.685 Z-0.250 F400.000
G1 X2.113 Y50.307 Z-0.250 F400.000
G1 X2.099 Y50.000 Z-0.250 F400.000
G1 X2.135 Y49.517 Z-0.250 F400.000
G1 X2.232 Y49.155 Z-0.250 F400.000
G1 X2.329 Y48.959 Z-0.250 F400.000
G1 X2.452 Y48.796 Z-0.250 F400.000
G1 X2.672 Y48.615 Z-0.250 F400.000
G1 X2.935 Y48.493 Z-0.250 F400.000
G1 X3.251 Y48.427 Z-0.250 F400.000
G1 X3.452 Y48.418 Z-0.250 F400.000
G1 X3.828 Y48.454 Z-0.250 F400.000
G1 X4.125 Y48.554 Z-0.250 F400.000
G1 X4.226 Y48.609 Z-0.250 F400.000
G1 X4.320 Y48.675 Z-0.250 F400.000
G1 X4.504 Y48.864 Z-0.250 F400.000
G1 X4.646 Y49.117 Z-0.250 F400.000
G1 X4.708 Y49.293 Z-0.250 F400.000
G1 X4.755 Y49.490 Z-0.250 F400.000
G0 Z4.000
G0 Z4.000
G0 Z4.000
G0 X2.543 Y61.071
G0 Z2.000
(autolevel)
M5
G4P0.5
G90G1F400Z1
G38.3Z-3F30.0
G10L20P1Z0
G90G1F400Z1
M3 S12000
G4P0.5
(autolevel)
G1 X2.543 Y61.071 Z-0.250 F150.000
G1 X2.629 Y60.948 Z-0.250 F400.000
G1 X2.650 Y60.834 Z-0.250 F400.000
G1 X2.729 Y60.035 Z-0.250 F400.000
G1 X2.784 Y59.817 Z-0.250 F400.000
G1 X2.933 Y59.617 Z-0.250 F400.000
G1 X3.102 Y59.516 Z-0.250 F400.000
G1 X3.480 Y59.456 Z-0.250 F400.000
G1 X3.178 Y59.491 Z-0.250 F400.000
G1 X2.933 Y59.617 Z-0.250 F400.000
G1 X2.802 Y59.780 Z-0.250 F400.000
G1 X2.729 Y60.035 Z-0.250 F400.000
G1 X2.650 Y60.834 Z-0.250 F400.000
G1 X2.629 Y60.948 Z-0.250 F400.000
G1 X2.543 Y61.071 Z-0.250 F400.000
G0 Z4.000
G0 Z4.000
G0 X4.768 Y61.071
G0 Z2.000
G1 X4.768 Y61.071 Z-0.250 F150.000
G1 X4.768 Y57.906 Z-0.250 F400.000
G1 X3.628 Y57.906 Z-0.250 F400.000
G1 X3.139 Y57.957 Z-0.250 F400.000
G1 X2.970 Y58.018 Z-0.250 F400.000
G1 X2.842 Y58.100 Z-0.250 F400.000
G1 X2.750 Y58.201 Z-0.250 F400.000
G1 X2.690 Y58.322 Z-0.250 F400.000
G1 X2.637 Y58.608 Z-0.250 F400.000
G1 X2.673 Y58.921 Z-0.250 F400.000
G1 X2.728 Y59.066 Z-0.250 F400.000
G1 X2.816 Y59.193 Z-0.250 F400.000
G1 X2.985 Y59.329 Z-0.250 F400.000
G1 X3.098 Y59.384 Z-0.250 F400.000
G1 X3.345 Y59.445 Z-0.250 F400.000
G1 X3.540 Y59.456 Z-0.250 F400.000
G1 X4.768 Y59.456 Z-0.250 F400.000
G1 X3.540 Y59.456 Z-0.250 F400.000
G1 X3.302 Y59.438 Z-0.250 F400.000
G1 X3.105 Y59.384 Z-0.250 F400.000
G1 X2.946 Y59.300 Z-0.250 F400.000
G1 X2.823 Y59.193 Z-0.250 F400.000
G1 X2.732 Y59.066 Z-0.250 F400.000
G1 X2.674 Y58.921 Z-0.250 F400.000
G1 X2.637 Y58.608 Z-0.250 F400.000
G1 X2.693 Y58.322 Z-0.250 F400.000
G1 X2.754 Y58.201 Z-0.250 F400.000
G1 X2.848 Y58.100 Z-0.250 F400.000
G1 X3.027 Y57.996 Z-0.250 F400.000
G1 X3.148 Y57.957 Z-0.250 F400.000
G1 X3.362 Y57.919 Z-0.250 F400.000
G1 X3.628 Y57.906 Z-0.250 F400.000
G1 X4.768 Y57.906 Z-0.250 F400.000
G1 X4.768 Y61.071 Z-0.250 F400.000
G0 Z4.000
G0 Z4.000
G0 X0.970 Y61.071
G0 Z2.000
G1 X0.970 Y61.071 Z-0.250 F150.000
G1 X0.970 Y57.906 Z-0.250 F400.000
G1 X-0.027 Y57.906 Z-0.250 F400.000
G1 X-0.300 Y57.923 Z-0.250 F400.000
G1 X-0.519 Y57.974 Z-0.250 F400.000
G1 X-0.692 Y58.053 Z-0.250 F400.000
G1 X-0.823 Y58.155 Z-0.250 F400.000
G1 X-0.918 Y58.275 Z-0.250 F400.000
G1 X-0.979 Y58.414 Z-0.250 F400.000
G1 X-1.034 Y58.719 Z-0.250 F400.000
G1 X-0.998 Y59.032 Z-0.250 F400.000
G1 X-0.940 Y59.180 Z-0.250 F400.000
G1 X-0.848 Y59.311 Z-0.250 F400.000
G1 X-0.674 Y59.453 Z-0.250 F400.000
G1 X-0.558 Y59.511 Z-0.250 F400.000
G1 X-0.317 Y59.575 Z-0.250 F400.000
G1 X-0.109 Y59.588 Z-0.250 F400.000
G1 X0.970 Y59.588 Z-0.250 F400.000
G1 X-0.109 Y59.588 Z-0.250 F400.000
G1 X-0.353 Y59.569 Z-0.250 F400.000
G1 X-0.554 Y59.511 Z-0.250 F400.000
G1 X-0.717 Y59.422 Z-0.250 F400.000
G1 X-0.842 Y59.311 Z-0.250 F400.000
G1 X-0.935 Y59.180 Z-0.250 F400.000
G1 X-0.995 Y59.032 Z-0.250 F400.000
G1 X-1.034 Y58.719 Z-0.250 F400.000
G1 X-0.979 Y58.414 Z-0.250 F400.000
G1 X-0.917 Y58.275 Z-0.250 F400.000
G1 X-0.821 Y58.155 Z-0.250 F400.000
G1 X-0.642 Y58.028 Z-0.250 F400.000
G1 X-0.517 Y57.974 Z-0.250 F400.000
G1 X-0.248 Y57.917 Z-0.250 F400.000
G1 X-0.027 Y57.906 Z-0.250 F400.000
G1 X0.970 Y57.906 Z-0.250 F400.000
G1 X0.970 Y61.071 Z-0.250 F400.000
G0 Z4.000
G0 Z4.000
G0 X-4.743 Y59.999
G0 Z2.000
G1 X-4.743 Y59.999 Z-0.250 F150.000
G1 X-4.638 Y60.363 Z-0.250 F400.000
G1 X-4.488 Y60.630 Z-0.250 F400.000
G1 X-4.403 Y60.729 Z-0.250 F400.000
G1 X-4.308 Y60.814 Z-0.250 F400.000
G1 X-4.067 Y60.956 Z-0.250 F400.000
G1 X-3.774 Y61.043 Z-0.250 F400.000
G1 X-3.613 Y61.064 Z-0.250 F400.000
G1 X-3.441 Y61.071 Z-0.250 F400.000
G1 X-3.068 Y61.035 Z-0.250 F400.000
G1 X-2.770 Y60.935 Z-0.250 F400.000
G1 X-2.594 Y60.829 Z-0.250 F400.000
G1 X-2.440 Y60.692 Z-0.250 F400.000
G1 X-2.283 Y60.470 Z-0.250 F400.000
G1 X-2.169 Y60.178 Z-0.250 F400.000
G1 X-2.101 Y59.800 Z-0.250 F400.000
G1 X-2.087 Y59.489 Z-0.250 F400.000
G1 X-2.123 Y59.008 Z-0.250 F400.000
G1 X-2.221 Y58.647 Z-0.250 F400.000
G1 X-2.317 Y58.451 Z-0.250 F400.000
G1 X-2.440 Y58.288 Z-0.250 F400.000
G1 X-2.659 Y58.106 Z-0.250 F400.000
G1 X-2.922 Y57.982 Z-0.250 F400.000
G1 X-3.237 Y57.917 Z-0.250 F400.000
G1 X-3.441 Y57.906 Z-0.250 F400.000
G1 X-3.815 Y57.943 Z-0.250 F400.000
G1 X-4.218 Y58.100 Z-0.250 F400.000
G1 X-4.421 Y58.268 Z-0.250 F400.000
G1 X-4.582 Y58.496 Z-0.250 F400.000
G1 X-4.631 Y58.598 Z-0.250 F400.000
G1 X-4.674 Y58.709 Z-0.250 F400.000
G1 X-4.534 Y58.414 Z-0.250 F400.000
G1 X-4.354 Y58.201 Z-0.250 F400.000
G1 X-4.288 Y58.148 Z-0.250 F400.000
G1 X-4.218 Y58.100 Z-0.250 F400.000
G1 X-3.954 Y57.979 Z-0.250 F400.000
G1 X-3.636 Y57.915 Z-0.250 F400.000
G1 X-3.540 Y57.909 Z-0.250 F400.000
G1 X-3.441 Y57.906 Z-0.250 F400.000
G1 X-3.070 Y57.943 Z-0.250 F400.000
G1 X-2.772 Y58.043 Z-0.250 F400.000
G1 X-2.594 Y58.150 Z-0.250 F400.000
G1 X-2.440 Y58.288 Z-0.250 F400.000
G1 X-2.283 Y58.511 Z-0.250 F400.000
G1 X-2.168 Y58.804 Z-0.250 F400.000
G1 X-2.101 Y59.182 Z-0.250 F400.000
G1 X-2.087 Y59.489 Z-0.250 F400.000
G1 X-2.123 Y59.972 Z-0.250 F400.000
G1 X-2.221 Y60.334 Z-0.250 F400.000
G1 X-2.317 Y60.530 Z-0.250 F400.000
G1 X-2.440 Y60.692 Z-0.250 F400.000
G1 X-2.660 Y60.874 Z-0.250 F400.000
G1 X-2.923 Y60.996 Z-0.250 F400.000
G1 X-3.240 Y61.061 Z-0.250 F400.000
G1 X-3.441 Y61.071 Z-0.250 F400.000
G1 X-3.816 Y61.035 Z-0.250 F400.000
G1 X-4.113 Y60.935 Z-0.250 F400.000
G1 X-4.214 Y60.879 Z-0.250 F400.000
G1 X-4.308 Y60.814 Z-0.250 F400.000
G1 X-4.492 Y60.625 Z-0.250 F400.000
G1 X-4.634 Y60.372 Z-0.250 F400.000
G1 X-4.697 Y60.196 Z-0.250 F400.000
G1 X-4.743 Y59.999 Z-0.250 F400.000
G0 Z4.000
G0 Z4.000
G0 Z4.000
G0 X-2.531 Y73.418
G0 Z2.000
(autolevel)
M5
G4P0.5
G90G1F400Z1
G38.3Z-3F30.0
G10L20P1Z0
G90G1F400Z1
M3 S12000
G4P0.5
(autolevel)
G1 X-2.531 Y73.418 Z-0.250 F150.000
G1 X-2.617 Y73.540 Z-0.250 F400.000
G1 X-2.638 Y73.655 Z-0.250 F400.000
G1 X-2.717 Y74.453 Z-0.250 F400.000
G1 X-2.772 Y74.672 Z-0.250 F400.000
G1 X-2.921 Y74.871 Z-0.250 F400.000
G1 X-3.090 Y74.972 Z-0.250 F400.000
G1 X-3.468 Y75.032 Z-0.250 F400.000
G1 X-3.166 Y74.997 Z-0.250 F400.000
G1 X-2.921 Y74.871 Z-0.250 F400.000
G1 X-2.790 Y74.708 Z-0.250 F400.000
G1 X-2.717 Y74.453 Z-0.250 F400.000
G1 X-2.638 Y73.655 Z-0.250 F400.000
G1 X-2.617 Y73.540 Z-0.250 F400.000
G1 X-2.531 Y73.418 Z-0.250 F400.000
G0 Z4.000
G0 Z4.000
G0 X-4.756 Y73.418
G0 Z2.000
G1 X-4.756 Y73.418 Z-0.250 F150.000
G1 X-4.756 Y76.582 Z-0.250 F400.000
G1 X-3.616 Y76.582 Z-0.250 F400.000
G1 X-3.127 Y76.531 Z-0.250 F400.000
G1 X-2.958 Y76.471 Z-0.250 F400.000
G1 X-2.831 Y76.389 Z-0.250 F400.000
G1 X-2.738 Y76.287 Z-0.250 F400.000
G1 X-2.678 Y76.167 Z-0.250 F400.000
G1 X-2.626 Y75.880 Z-0.250 F400.000
G1 X-2.661 Y75.568 Z-0.250 F400.000
G1 X-2.716 Y75.423 Z-0.250 F400.000
G1 X-2.804 Y75.295 Z-0.250 F400.000
G1 X-2.973 Y75.160 Z-0.250 F400.000
G1 X-3.086 Y75.104 Z-0.250 F400.000
G1 X-3.333 Y75.044 Z-0.250 F400.000
G1 X-3.528 Y75.032 Z-0.250 F400.000
G1 X-4.756 Y75.032 Z-0.250 F400.000
G1 X-3.528 Y75.032 Z-0.250 F400.000
G1 X-3.290 Y75.050 Z-0.250 F400.000
G1 X-3.093 Y75.104 Z-0.250 F400.000
G1 X-2.934 Y75.189 Z-0.250 F400.000
G1 X-2.811 Y75.295 Z-0.250 F400.000
G1 X-2.720 Y75.423 Z-0.250 F400.000
G1 X-2.662 Y75.568 Z-0.250 F400.000
G1 X-2.626 Y75.880 Z-0.250 F400.000
G1 X-2.681 Y76.167 Z-0.250 F400.000
G1 X-2.742 Y76.287 Z-0.250 F400.000
G1 X-2.836 Y76.389 Z-0.250 F400.000
G1 X-3.015 Y76.492 Z-0.250 F400.000
G1 X-3.136 Y76.531 Z-0.250 F400.000
G1 X-3.350 Y76.570 Z-0.250 F400.000
G1 X-3.616 Y76.582 Z-0.250 F400.000
G1 X-4.756 Y76.582 Z-0.250 F400.000
G1 X-4.756 Y73.418 Z-0.250 F400.000
G0 Z4.000
G0 Z4.000
G0 X-0.958 Y73.418
G0 Z2.000
G1 X-0.958 Y73.418 Z-0.250 F150.000
G1 X-0.958 Y76.582 Z-0.250 F400.000
G1 X0.039 Y76.582 Z-0.250 F400.000
G1 X0.312 Y76.565 Z-0.250 F400.000
G1 X0.531 Y76.515 Z-0.250 F400.000
G1 X0.703 Y76.435 Z-0.250 F400.000
G1 X0.834 Y76.334 Z-0.250 F400.000
G1 X0.929 Y76.213 Z-0.250 F400.000
G1 X0.991 Y76.075 Z-0.250 F400.000
G1 X1.046 Y75.770 Z-0.250 F400.000
G1 X1.010 Y75.456 Z-0.250 F400.000
G1 X0.952 Y75.309 Z-0.250 F400.000
G1 X0.860 Y75.178 Z-0.250 F400.000
G1 X0.685 Y75.036 Z-0.250 F400.000
G1 X0.570 Y74.977 Z-0.250 F400.000
G1 X0.328 Y74.914 Z-0.250 F400.000
G1 X0.121 Y74.901 Z-0.250 F400.000
G1 X-0.958 Y74.901 Z-0.250 F400.000
G1 X0.121 Y74.901 Z-0.250 F400.000
G1 X0.365 Y74.920 Z-0.250 F400.000
G1 X0.566 Y74.977 Z-0.250 F400.000
G1 X0.728 Y75.066 Z-0.250 F400.000
G1 X0.854 Y75.178 Z-0.250 F400.000
G1 X0.947 Y75.309 Z-0.250 F400.000
G1 X1.007 Y75.456 Z-0.250 F400.000
G1 X1.046 Y75.770 Z-0.250 F400.000
G1 X0.991 Y76.075 Z-0.250 F400.000
G1 X0.929 Y76.213 Z-0.250 F400.000
G1 X0.833 Y76.334 Z-0.250 F400.000
G1 X0.654 Y76.461 Z-0.250 F400.000
G1 X0.529 Y76.515 Z-0.250 F400.000
G1 X0.260 Y76.572 Z-0.250 F400.000
G1 X0.039 Y76.582 Z-0.250 F400.000
G1 X-0.958 Y76.582 Z-0.250 F400.000
G1 X-0.958 Y73.418 Z-0.250 F400.000
G0 Z4.000
G0 Z4.000
G0 X4.755 Y74.490
G0 Z2.000
G1 X4.755 Y74.490 Z-0.250 F150.000
G1 X4.650 Y74.125 Z-0.250 F400.000
G1 X4.500 Y73.858 Z-0.250 F400.000
G1 X4.415 Y73.760 Z-0.250 F400.000
G1 X4.320 Y73.675 Z-0.250 F400.000
G1 X4.079 Y73.533 Z-0.250 F400.000
G1 X3.786 Y73.446 Z-0.250 F400.000
G1 X3.625 Y73.425 Z-0.250 F400.000
G1 X3.452 Y73.418 Z-0.250 F400.000
G1 X3.080 Y73.454 Z-0.250 F400.000
G1 X2.782 Y73.554 Z-0.250 F400.000
G1 X2.605 Y73.660 Z-0.250 F400.000
G1 X2.452 Y73.796 Z-0.250 F400.000
G1 X2.295 Y74.019 Z-0.250 F400.000
G1 X2.181 Y74.310 Z-0.250 F400.000
G1 X2.113 Y74.689 Z-0.250 F400.000
G1 X2.099 Y75.000 Z-0.250 F400.000
G1 X2.135 Y75.481 Z-0.250 F400.000
G1 X2.232 Y75.842 Z-0.250 F400.000
G1 X2.329 Y76.038 Z-0.250 F400.000
G1 X2.452 Y76.201 Z-0.250 F400.000
G1 X2.671 Y76.383 Z-0.250 F400.000
G1 X2.933 Y76.506 Z-0.250 F400.000
G1 X3.249 Y76.572 Z-0.250 F400.000
G1 X3.452 Y76.582 Z-0.250 F400.000
G1 X3.827 Y76.546 Z-0.250 F400.000
G1 X4.229 Y76.389 Z-0.250 F400.000
G1 X4.433 Y76.221 Z-0.250 F400.000
G1 X4.593 Y75.993 Z-0.250 F400.000
G1 X4.643 Y75.891 Z-0.250 F400.000
G1 X4.686 Y75.780 Z-0.250 F400.000
G1 X4.545 Y76.074 Z-0.250 F400.000
G1 X4.366 Y76.287 Z-0.250 F400.000
G1 X4.300 Y76.341 Z-0.250 F400.000
G1 X4.229 Y76.389 Z-0.250 F400.000
G1 X3.966 Y76.509 Z-0.250 F400.000
G1 X3.648 Y76.573 Z-0.250 F400.000
G1 X3.552 Y76.580 Z-0.250 F400.000
G1 X3.452 Y76.582 Z-0.250 F400.000
G1 X3.081 Y76.546 Z-0.250 F400.000
G1 X2.784 Y76.446 Z-0.250 F400.000
G1 X2.606 Y76.339 Z-0.250 F400.000
G1 X2.452 Y76.201 Z-0.250 F400.000
G1 X2.295 Y75.977 Z-0.250 F400.000
G1 X2.180 Y75.685 Z-0.250 F400.000
G1 X2.113 Y75.307 Z-0.250 F400.000
G1 X2.099 Y75.000 Z-0.250 F400.000
G1 X2.135 Y74.517 Z-0.250 F400.000
G1 X2.232 Y74.155 Z-0.250 F400.000
G1 X2.329 Y73.959 Z-0.250 F400.000
G1 X2.452 Y73.796 Z-0.250 F400.000
G1 X2.672 Y73.615 Z-0.250 F400.000
G1 X2.935 Y73.493 Z-0.250 F400.000
G1 X3.251 Y73.427 Z-0.250 F400.000
G1 X3.452 Y73.418 Z-0.250 F400.000
G1 X3.828 Y73.454 Z-0.250 F400.000
G1 X4.125 Y73.554 Z-0.250 F400.000
G1 X4.226 Y73.609 Z-0.250 F400.000
G1 X4.320 Y73.675 Z-0.250 F400.000
G1 X4.504 Y73.864 Z-0.250 F400.000
G1 X4.646 Y74.117 Z-0.250 F400.000
G1 X4.708 Y74.293 Z-0.250 F400.000
G1 X4.755 Y74.490 Z-0.250 F400.000
G0 Z4.000
G0 Z4.000
G0 Z4.000
G0 X2.543 Y86.071
G0 Z2.000
(autolevel)
M5
G4P0.5
G90G1F400Z1
G38.3Z-3F30.0
G10L20P1Z0
G90G1F400Z1
M3 S12000
G4P0.5
(autolevel)
G1 X2.543 Y86.071 Z-0.250 F150.000
G1 X2.629 Y85.948 Z-0.250 F400.000
G1 X2.650 Y85.834 Z-0.250 F400.000
G1 X2.729 Y85.035 Z-0.250 F400.000
G1 X2.784 Y84.817 Z-0.250 F400.000
G1 X2.933 Y84.617 Z-0.250 F400.000
G1 X3.102 Y84.516 Z-0.250 F400.000
G1 X3.480 Y84.456 Z-0.250 F400.000
G1 X3.178 Y84.491 Z-0.250 F400.000
G1 X2.933 Y84.617 Z-0.250 F400.000
G1 X2.802 Y84.780 Z-0.250 F400.000
G1 X2.729 Y85.035 Z-0.250 F400.000
G1 X2.650 Y85.834 Z-0.250 F400.000
G1 X2.629 Y85.948 Z-0.250 F400.000
G1 X2.543 Y86.071 Z-0.250 F400.000
G0 Z4.000
G0 Z4.000
G0 X4.768 Y86.071
G0 Z2.000
G1 X4.768 Y86.071 Z-0.250 F150.000
G1 X4.768 Y82.906 Z-0.250 F400.000
G1 X3.628 Y82.906 Z-0.250 F400.000
G1 X3.139 Y82.957 Z-0.250 F400.000
G1 X2.970 Y83.018 Z-0.250 F400.000
G1 X2.842 Y83.100 Z-0.250 F400.000
G1 X2.750 Y83.201 Z-0.250 F400.000
G1 X2.690 Y83.322 Z-0.250 F400.000
G1 X2.637 Y83.608 Z-0.250 F400.000
G1 X2.673 Y83.921 Z-0.250 F400.000
G1 X2.728 Y84.066 Z-0.250 F400.000
G1 X2.816 Y84.193 Z-0.250 F400.000
G1 X2.985 Y84.329 Z-0.250 F400.000
G1 X3.098 Y84.384 Z-0.250 F400.000
G1 X3.345 Y84.445 Z-0.250 F400.000
G1 X3.540 Y84.456 Z-0.250 F400.000
G1 X4.768 Y84.456 Z-0.250 F400.000
G1 X3.540 Y84.456 Z-0.250 F400.000
G1 X3.302 Y84.438 Z-0.250 F400.000
G1 X3.105 Y84.384 Z-0.250 F400.000
G1 X2.946 Y84.300 Z-0.250 F400.000
G1 X2.823 Y84.193 Z-0.250 F400.000
G1 X2.732 Y84.066 Z-0.250 F400.000
G1 X2.674 Y83.921 Z-0.250 F400.000
G1 X2.637 Y83.608 Z-0.250 F400.000
G1 X2.693 Y83.322 Z-0.250 F400.000
G1 X2.754 Y83.201 Z-0.250 F400.000
G1 X2.848 Y83.100 Z-0.250 F400.000
G1 X3.027 Y82.996 Z-0.250 F400.000
G1 X3.148 Y82.957 Z-0.250 F400.000
G1 X3.362 Y82.919 Z-0.250 F400.000
G1 X3.628 Y82.906 Z-0.250 F400.000
G1 X4.768 Y82.906 Z-0.250 F400.000
G1 X4.768 Y86.071 Z-0.250 F400.000
G0 Z4.000
G0 Z4.000
G0 X0.970 Y86.071
G0 Z2.000
G1 X0.970 Y86.071 Z-0.250 F150.000
G1 X0.970 Y82.906 Z-0.250 F400.000
G1 X-0.027 Y82.906 Z-0.250 F400.000
G1 X-0.300 Y82.923 Z-0.250 F400.000
G1 X-0.519 Y82.974 Z-0.250 F400.000
G1 X-0.692 Y83.053 Z-0.250 F400.000
G1 X-0.823 Y83.155 Z-0.250 F400.000
G1 X-0.918 Y83.275 Z-0.250 F400.000
G1 X-0.979 Y83.414 Z-0.250 F400.000
G1 X-1.034 Y83.719 Z-0.250 F400.000
G1 X-0.998 Y84.032 Z-0.250 F400.000
G1 X-0.940 Y84.180 Z-0.250 F400.000
G1 X-0.848 Y84.311 Z-0.250 F400.000
G1 X-0.674 Y84.453 Z-0.250 F400.000
G1 X-0.558 Y84.511 Z-0.250 F400.000
G1 X-0.317 Y84.575 Z-0.250 F400.000
G1 X-0.109 Y84.588 Z-0.250 F400.000
G1 X0.970 Y84.588 Z-0.250 F400.000
G1 X-0.109 Y84.588 Z-0.250 F400.000
G1 X-0.353 Y84.569 Z-0.250 F400.000
G1 X-0.554 Y84.511 Z-0.250 F400.000
G1 X-0.717 Y84.422 Z-0.250 F400.000
G1 X-0.842 Y84.311 Z-0.250 F400.000
G1 X-0.935 Y84.180 Z-0.250 F400.000
G1 X-0.995 Y84.032 Z-0.250 F400.000
G1 X-1.034 Y83.719 Z-0.250 F400.000
G1 X-0.979 Y83.414 Z-0.250 F400.000
G1 X-0.917 Y83.275 Z-0.250 F400.000
G1 X-0.821 Y83.155 Z-0.250 F400.000
G1 X-0.642 Y83.028 Z-0.250 F400.000
G1 X-0.517 Y82.974 Z-0.250 F400.000
G1 X-0.248 Y82.917 Z-0.250 F400.000
G1 X-0.027 Y82.906 Z-0.250 F400.000
G1 X0.970 Y82.906 Z-0.250 F400.000
G1 X0.970 Y86.071 Z-0.250 F400.000
G0 Z4.000
G0 Z4.000
G0 X-4.743 Y84.999
G0 Z2.000
G1 X-4.743 Y84.999 Z-0.250 F150.000
G1 X-4.638 Y85.363 Z-0.250 F400.000
G1 X-4.488 Y85.630 Z-0.250 F400.000
G1 X-4.403 Y85.729 Z-0.250 F400.000
G1 X-4.308 Y85.814 Z-0.250 F400.000
G1 X-4.067 Y85.956 Z-0.250 F400.000
G1 X-3.774 Y86.043 Z-0.250 F400.000
G1 X-3.613 Y86.064 Z-0.250 F400.000
G1 X-3.441 Y86.071 Z-0.250 F400.000
G1 X-3.068 Y86.035 Z-0.250 F400.000
G1 X-2.770 Y85.935 Z-0.250 F400.000
G1 X-2.594 Y85.829 Z-0.250 F400.000
G1 X-2.440 Y85.692 Z-0.250 F400.000
G1 X-2.283 Y85.470 Z-0.250 F400.000
G1 X-2.169 Y85.178 Z-0.250 F400.000
G1 X-2.101 Y84.800 Z-0.250 F400.000
G1 X-2.087 Y84.489 Z-0.250 F400.000
G1 X-2.123 Y84.008 Z-0.250 F400.000
G1 X-2.221 Y83.647 Z-0.250 F400.000
G1 X-2.317 Y83.451 Z-0.250 F400.000
G1 X-2.440 Y83.288 Z-0.250 F400.000
G1 X-2.659 Y83.106 Z-0.250 F400.000
G1 X-2.922 Y82.982 Z-0.250 F400.000
G1 X-3.237 Y82.917 Z-0.250 F400.000
G1 X-3.441 Y82.906 Z-0.250 F400.000
G1 X-3.815 Y82.943 Z-0.250 F400.000
G1 X-4.218 Y83.100 Z-0.250 F400.000
G1 X-4.421 Y83.268 Z-0.250 F400.000
G1 X-4.582 Y83.496 Z-0.250 F400.000
G1 X-4.631 Y83.598 Z-0.250 F400.000
G1 X-4.674 Y83.709 Z-0.250 F400.000
G1 X-4.534 Y83.414 Z-0.250 F400.000
G1 X-4.354 Y83.201 Z-0.250 F400.000
G1 X-4.288 Y83.148 Z-0.250 F400.000
G1 X-4.218 Y83.100 Z-0.250 F400.000
G1 X-3.954 Y82.979 Z-0.250 F400.000
G1 X-3.636 Y82.915 Z-0.250 F400.000
G1 X-3.540 Y82.909 Z-0.250 F400.000
G1 X-3.441 Y82.906 Z-0.250 F400.000
G1 X-3.070 Y82.943 Z-0.250 F400.000
G1 X-2.772 Y83.043 Z-0.250 F400.000
G1 X-2.594 Y83.150 Z-0.250 F400.000
G1 X-2.440 Y83.288 Z-0.250 F400.000
G1 X-2.283 Y83.511 Z-0.250 F400.000
G1 X-2.168 Y83.804 Z-0.250 F400.000
G1 X-2.101 Y84.182 Z-0.250 F400.000
G1 X-2.087 Y84.489 Z-0.250 F400.000
G1 X-2.123 Y84.972 Z-0.250 F400.000
G1 X-2.221 Y85.334 Z-0.250 F400.000
G1 X-2.317 Y85.530 Z-0.250 F400.000
G1 X-2.440 Y85.692 Z-0.250 F400.000
G1 X-2.660 Y85.874 Z-0.250 F400.000
G1 X-2.923 Y85.996 Z-0.250 F400.000
G1 X-3.240 Y86.061 Z-0.250 F400.000
G1 X-3.441 Y86.071 Z-0.250 F400.000
G1 X-3.816 Y86.035 Z-0.250 F400.000
G1 X-4.113 Y85.935 Z-0.250 F400.000
G1 X-4.214 Y85.879 Z-0.250 F400.000
G1 X-4.308 Y85.814 Z-0.250 F400.000
G1 X-4.492 Y85.625 Z-0.250 F400.000
G1 X-4.634 Y85.372 Z-0.250 F400.000
G1 X-4.697 Y85.196 Z-0.250 F400.000
G1 X-4.743 Y84.999 Z-0.250 F400.000
G0 Z4.000
G0 Z4.000
G0 Z4.000
G0 X-2.531 Y98.418
G0 Z2.000
(autolevel)
M5
G4P0.5
G90G1F400Z1
G38.3Z-3F30.0
G10L20P1Z0
G90G1F400Z1
M3 S12000
G4P0.5
(autolevel)
G1 X-2.531 Y98.418 Z-0.250 F150.000
G1 X-2.617 Y98.540 Z-0.250 F400.000
G1 X-2.638 Y98.655 Z-0.250 F400.000
G1 X-2.717 Y99.453 Z-0.250 F400.000
G1 X-2.772 Y99.672 Z-0.250 F400.000
G1 X-2.921 Y99.871 Z-0.250 F400.000
G1 X-3.090 Y99.972 Z-0.250 F400.000
G1 X-3.468 Y100.032 Z-0.250 F400.000
G1 X-3.166 Y99.997 Z-0.250 F400.000
G1 X-2.921 Y99.871 Z-0.250 F400.000
G1 X-2.790 Y99.708 Z-0.250 F400.000
G1 X-2.717 Y99.453 Z-0.250 F400.000
G1 X-2.638 Y98.655 Z-0.250 F400.000
G1 X-2.617 Y98.540 Z-0.250 F400.000
G1 X-2.531 Y98.418 Z-0.250 F400.000
G0 Z4.000
G0 Z4.000
G0 X-4.756 Y98.418
G0 Z2.000
G1 X-4.756 Y98.418 Z-0.250 F150.000
G1 X-4.756 Y101.582 Z-0.250 F400.000
G1 X-3.616 Y101.582 Z-0.250 F400.000
G1 X-3.127 Y101.531 Z-0.250 F400.000
G1 X-2.958 Y101.471 Z-0.250 F400.000
G1 X-2.831 Y101.389 Z-0.250 F400.000
G1 X-2.738 Y101.287 Z-0.250 F400.000
G1 X-2.678 Y101.167 Z-0.250 F400.000
G1 X-2.626 Y100.880 Z-0.250 F400.000
G1 X-2.661 Y100.568 Z-0.250 F400.000
G1 X-2.716 Y100.423 Z-0.250 F400.000
G1 X-2.804 Y100.295 Z-0.250 F400.000
G1 X-2.973 Y100.160 Z-0.250 F400.000
G1 X-3.086 Y100.104 Z-0.250 F400.000
G1 X-3.333 Y100.044 Z-0.250 F400.000
G1 X-3.528 Y100.032 Z-0.250 F400.000
G1 X-4.756 Y100.032 Z-0.250 F400.000
G1 X-3.528 Y100.032 Z-0.250 F400.000
G1 X-3.290 Y100.050 Z-0.250 F400.000
G1 X-3.093 Y100.104 Z-0.250 F400.000
G1 X-2.934 Y100.189 Z-0.250 F400.000
G1 X-2.811 Y100.295 Z-0.250 F400.000
G1 X-2.720 Y100.423 Z-0.250 F400.000
G1 X-2.662 Y100.568 Z-0.250 F400.000
G1 X-2.626 Y100.880 Z-0.250 F400.000
G1 X-2.681 Y101.167 Z-0.250 F400.000
G1 X-2.742 Y101.287 Z-0.250 F400.000
G1 X-2.836 Y101.389 Z-0.250 F400.000
G1 X-3.015 Y101.492 Z-0.250 F400.000
G1 X-3.136 Y101.531 Z-0.250 F400.000
G1 X-3.350 Y101.570 Z-0.250 F400.000
G1 X-3.616 Y101.582 Z-0.250 F400.000
G1 X-4.756 Y101.582 Z-0.250 F400.000
G1 X-4.756 Y98.418 Z-0.250 F400.000
G0 Z4.000
G0 Z4.000
G0 X-0.958 Y98.418
G0 Z2.000
G1 X-0.958 Y98.418 Z-0.250 F150.000
G1 X-0.958 Y101.582 Z-0.250 F400.000
G1 X0.039 Y101.582 Z-0.250 F400.000
G1 X0.312 Y101.565 Z-0.250 F400.000
G1 X0.531 Y101.515 Z-0.250 F400.000
G1 X0.703 Y101.435 Z-0.250 F400.000
G1 X0.834 Y101.334 Z-0.250 F400.000
G1 X0.929 Y101.213 Z-0.250 F400.000
G1 X0.991 Y101.075 Z-0.250 F400.000
G1 X1.046 Y100.770 Z-0.250 F400.000
G1 X1.010 Y100.456 Z-0.250 F400.000
G1 X0.952 Y100.309 Z-0.250 F400.000
G1 X0.860 Y100.178 Z-0.250 F400.000
G1 X0.685 Y100.036 Z-0.250 F400.000
G1 X0.570 Y99.977 Z-0.250 F400.000
G1 X0.328 Y99.914 Z-0.250 F400.000
G1 X0.121 Y99.901 Z-0.250 F400.000
G1 X-0.958 Y99.901 Z-0.250 F400.000
G1 X0.121 Y99.901 Z-0.250 F400.000
G1 X0.365 Y99.920 Z-0.250 F400.000
G1 X0.566 Y99.977 Z-0.250 F400.000
G1 X0.728 Y100.066 Z-0.250 F400.000
G1 X0.854 Y100.178 Z-0.250 F400.000
G1 X0.947 Y100.309 Z-0.250 F400.000
G1 X1.007 Y100.456 Z-0.250 F400.000
G1 X1.046 Y100.770 Z-0.250 F400.000
G1 X0.991 Y101.075 Z-0.250 F400.000
G1 X0.929 Y101.213 Z-0.250 F400.000
G1 X0.833 Y101.334 Z-0.250 F400.000
G1 X0.654 Y101.461 Z-0.250 F400.000
G1 X0.529 Y101.515 Z-0.250 F400.000
G1 X0.260 Y101.572 Z-0.250 F400.000
G1 X0.039 Y101.582 Z-0.250 F400.000
G1 X-0.958 Y101.582 Z-0.250 F400.000
G1 X-0.958 Y98.418 Z-0.250 F400.000
G0 Z4.000
G0 Z4.000
G0 X4.755 Y99.490
G0 Z2.000
G1 X4.755 Y99.490 Z-0.250 F150.000
G1 X4.650 Y99.125 Z-0.250 F400.000
G1 X4.500 Y98.858 Z-0.250 F400.000
G1 X4.415 Y98.760 Z-0.250 F400.000
G1 X4.320 Y98.675 Z-0.250 F400.000
G1 X4.079 Y98.533 Z-0.250 F400.000
G1 X3.786 Y98.446 Z-0.250 F400.000
G1 X3.625 Y98.425 Z-0.250 F400.000
G1 X3.452 Y98.418 Z-0.250 F400.000
G1 X3.080 Y98.454 Z-0.250 F400.000
G1 X2.782 Y98.554 Z-0.250 F400.000
G1 X2.605 Y98.660 Z-0.250 F400.000
G1 X2.452 Y98.796 Z-0.250 F400.000
G1 X2.295 Y99.019 Z-0.250 F400.000
G1 X2.181 Y99.310 Z-0.250 F400.000
G1 X2.113 Y99.689 Z-0.250 F400.000
G1 X2.099 Y100.000 Z-0.250 F400.000
G1 X2.135 Y100.481 Z-0.250 F400.000
G1 X2.232 Y100.842 Z-0.250 F400.000
G1 X2.329 Y101.038 Z-0.250 F400.000
G1 X2.452 Y101.201 Z-0.250 F400.000
G1 X2.671 Y101.383 Z-0.250 F400.000
G1 X2.933 Y101.506 Z-0.250 F400.000
G1 X3.249 Y101.572 Z-0.250 F400.000
G1 X3.452 Y101.582 Z-0.250 F400.000
G1 X3.827 Y101.546 Z-0.250 F400.000
G1 X4.229 Y101.389 Z-0.250 F400.000
G1 X4.433 Y101.221 Z-0.250 F400.000
G1 X4.593 Y100.993 Z-0.250 F400.000
G1 X4.643 Y100.891 Z-0.250 F400.000
G1 X4.686 Y100.780 Z-0.250 F400.000
G1 X4.545 Y101.074 Z-0.250 F400.000
G1 X4.366 Y101.287 Z-0.250 F400.000
G1 X4.300 Y101.341 Z-0.250 F400.000
G1 X4.229 Y101.389 Z-0.250 F400.000
G1 X3.966 Y101.509 Z-0.250 F400.000
G1 X3.648 Y101.573 Z-0.250 F400.000
G1 X3.552 Y101.580 Z-0.250 F400.000
G1 X3.452 Y101.582 Z-0.250 F400.000
G1 X3.081 Y101.546 Z-0.250 F400.000
G1 X2.784 Y101.446 Z-0.250 F400.000
G1 X2.606 Y101.339 Z-0.250 F400.000
G1 X2.452 Y101.201 Z-0.250 F400.000
G1 X2.295 Y100.977 Z-0.250 F400.000
G1 X2.180 Y100.685 Z-0.250 F400.000
G1 X2.113 Y100.307 Z-0.250 F400.000
G1 X2.099 Y100.000 Z-0.250 F400.000
G1 X2.135 Y99.517 Z-0.250 F400.000
G1 X2.232 Y99.155 Z-0.250 F400.000
G1 X2.329 Y98.959 Z-0.250 F400.000
G1 X2.452 Y98.796 Z-0.250 F400.000
G1 X2.672 Y98.615 Z-0.250 F400.000
G1 X2.935 Y98.493 Z-0.250 F400.000
G1 X3.251 Y98.427 Z-0.250 F400.000
G1 X3.452 Y98.418 Z-0.250 F400.000
G1 X3.828 Y98.454 Z-0.250 F400.000
G1 X4.125 Y98.554 Z-0.250 F400.000
G1 X4.226 Y98.609 Z-0.250 F400.000
G1 X4.320 Y98.675 Z-0.250 F400.000
G1 X4.504 Y98.864 Z-0.250 F400.000
G1 X4.646 Y99.117 Z-0.250 F400.000
G1 X4.708 Y99.293 Z-0.250 F400.000
G1 X4.755 Y99.490 Z-0.250 F400.000
G0 Z4.000
G0 Z4.000
G0 Z4.000
G0 X2.543 Y111.071
G0 Z2.000
(autolevel)
M5
G4P0.5
G90G1F400Z1
G38.3Z-3F30.0
G10L20P1Z0
G90G1F400Z1
M3 S12000
G4P0.5
(autolevel)
G1 X2.543 Y111.071 Z-0.250 F150.000
G1 X2.629 Y110.948 Z-0.250 F400.000
G1 X2.650 Y110.834 Z-0.250 F400.000
G1 X2.729 Y110.035 Z-0.250 F400.000
G1 X2.784 Y109.817 Z-0.250 F400.000
G1 X2.933 Y109.617 Z-0.250 F400.000
G1 X3.102 Y109.516 Z-0.250 F400.000
G1 X3.480 Y109.456 Z-0.250 F400.000
G1 X3.178 Y109.491 Z-0.250 F400.000
G1 X2.933 Y109.617 Z-0.250 F400.000
G1 X2.802 Y109.780 Z-0.250 F400.000
G1 X2.729 Y110.035 Z-0.250 F400.000
G1 X2.650 Y110.834 Z-0.250 F400.000
G1 X2.629 Y110.948 Z-0.250 F400.000
G1 X2.543 Y111.071 Z-0.250 F400.000
G0 Z4.000
G0 Z4.000
G0 X4.768 Y111.071
G0 Z2.000
G1 X4.768 Y111.071 Z-0.250 F150.000
G1 X4.768 Y107.906 Z-0.250 F400.000
G1 X3.628 Y107.906 Z-0.250 F400.000
G1 X3.139 Y107.957 Z-0.250 F400.000
G1 X2.970 Y108.018 Z-0.250 F400.000
G1 X2.842 Y108.100 Z-0.250 F400.000
G1 X2.750 Y108.201 Z-0.250 F400.000
G1 X2.690 Y108.322 Z-0.250 F400.000
G1 X2.637 Y108.608 Z-0.250 F400.000
G1 X2.673 Y108.921 Z-0.250 F400.000
G1 X2.728 Y109.066 Z-0.250 F400.000
G1 X2.816 Y109.193 Z-0.250 F400.000
G1 X2.985 Y109.329 Z-0.250 F400.000
G1 X3.098 Y109.384 Z-0.250 F400.000
G1 X3.345 Y109.445 Z-0.250 F400.000
G1 X3.540 Y109.456 Z-0.250 F400.000
G1 X4.768 Y109.456 Z-0.250 F400.000
G1 X3.540 Y109.456 Z-0.250 F400.000
G1 X3.302 Y109.438 Z-0.250 F400.000
G1 X3.105 Y109.384 Z-0.250 F400.000
G1 X2.946 Y109.300 Z-0.250 F400.000
G1 X2.823 Y109.193 Z-0.250 F400.000
G1 X2.732 Y109.066 Z-0.250 F400.000
G1 X2.674 Y108.921 Z-0.250 F400.000
G1 X2.637 Y108.608 Z-0.250 F400.000
G1 X2.693 Y108.322 Z-0.250 F400.000
G1 X2.754 Y108.201 Z-0.250 F400.000
G1 X2.848 Y108.100 Z-0.250 F400.000
G1 X3.027 Y107.996 Z-0.250 F400.000
G1 X3.148 Y107.957 Z-0.250 F400.000
G1 X3.362 Y107.919 Z-0.250 F400.000
G1 X3.628 Y107.906 Z-0.250 F400.000
G1 X4.768 Y107.906 Z-0.250 F400.000
G1 X4.768 Y111.071 Z-0.250 F400.000
G0 Z4.000
G0 Z4.000
G0 X0.970 Y111.071
G0 Z2.000
G1 X0.970 Y111.071 Z-0.250 F150.000
G1 X0.970 Y107.906 Z-0.250 F400.000
G1 X-0.027 Y107.906 Z-0.250 F400.000
G1 X-0.300 Y107.923 Z-0.250 F400.000
G1 X-0.519 Y107.974 Z-0.250 F400.000
G1 X-0.692 Y108.053 Z-0.250 F400.000
G1 X-0.823 Y108.155 Z-0.250 F400.000
G1 X-0.918 Y108.275 Z-0.250 F400.000
G1 X-0.979 Y108.414 Z-0.250 F400.000
G1 X-1.034 Y108.719 Z-0.250 F400.000
G1 X-0.998 Y109.032 Z-0.250 F400.000
G1 X-0.940 Y109.180 Z-0.250 F400.000
G1 X-0.848 Y109.311 Z-0.250 F400.000
G1 X-0.674 Y109.453 Z-0.250 F400.000
G1 X-0.558 Y109.511 Z-0.250 F400.000
G1 X-0.317 Y109.575 Z-0.250 F400.000
G1 X-0.109 Y109.588 Z-0.250 F400.000
G1 X0.970 Y109.588 Z-0.250 F400.000
G1 X-0.109 Y109.588 Z-0.250 F400.000
G1 X-0.353 Y109.569 Z-0.250 F400.000
G1 X-0.554 Y109.511 Z-0.250 F400.000
G1 X-0.717 Y109.422 Z-0.250 F400.000
G1 X-0.842 Y109.311 Z-0.250 F400.000
G1 X-0.935 Y109.180 Z-0.250 F400.000
G1 X-0.995 Y109.032 Z-0.250 F400.000
G1 X-1.034 Y108.719 Z-0.250 F400.000
G1 X-0.979 Y108.414 Z-0.250 F400.000
G1 X-0.917 Y108.275 Z-0.250 F400.000
G1 X-0.821 Y108.155 Z-0.250 F400.000
G1 X-0.642 Y108.028 Z-0.250 F400.000
G1 X-0.517 Y107.974 Z-0.250 F400.000
G1 X-0.248 Y107.917 Z-0.250 F400.000
G1 X-0.027 Y107.906 Z-0.250 F400.000
G1 X0.970 Y107.906 Z-0.250 F400.000
G1 X0.970 Y111.071 Z-0.250 F400.000
G0 Z4.000
G0 Z4.000
G0 X-4.743 Y109.999
G0 Z2.000
G1 X-4.743 Y109.999 Z-0.250 F150.000
G1 X-4.638 Y110.363 Z-0.250 F400.000
G1 X-4.488 Y110.630 Z-0.250 F400.000
G1 X-4.403 Y110.729 Z-0.250 F400.000
G1 X-4.308 Y110.814 Z-0.250 F400.000
G1 X-4.067 Y110.956 Z-0.250 F400.000
G1 X-3.774 Y111.043 Z-0.250 F400.000
G1 X-3.613 Y111.064 Z-0.250 F400.000
G1 X-3.441 Y111.071 Z-0.250 F400.000
G1 X-3.068 Y111.035 Z-0.250 F400.000
G1 X-2.770 Y110.935 Z-0.250 F400.000
G1 X-2.594 Y110.829 Z-0.250 F400.000
G1 X-2.440 Y110.692 Z-0.250 F400.000
G1 X-2.283 Y110.470 Z-0.250 F400.000
G1 X-2.169 Y110.178 Z-0.250 F400.000
G1 X-2.101 Y109.800 Z-0.250 F400.000
G1 X-2.087 Y109.489 Z-0.250 F400.000
G1 X-2.123 Y109.008 Z-0.250 F400.000
G1 X-2.221 Y108.647 Z-0.250 F400.000
G1 X-2.317 Y108.451 Z-0.250 F400.000
G1 X-2.440 Y108.288 Z-0.250 F400.000
G1 X-2.659 Y108.106 Z-0.250 F400.000
G1 X-2.922 Y107.982 Z-0.250 F400.000
G1 X-3.237 Y107.917 Z-0.250 F400.000
G1 X-3.441 Y107.906 Z-0.250 F400.000
G1 X-3.815 Y107.943 Z-0.250 F400.000
G1 X-4.218 Y108.100 Z-0.250 F400.000
G1 X-4.421 Y108.268 Z-0.250 F400.000
G1 X-4.582 Y108.496 Z-0.250 F400.000
G1 X-4.631 Y108.598 Z-0.250 F400.000
G1 X-4.674 Y108.709 Z-0.250 F400.000
G1 X-4.534 Y108.414 Z-0.250 F400.000
G1 X-4.354 Y108.201 Z-0.250 F400.000
G1 X-4.288 Y108.148 Z-0.250 F400.000
G1 X-4.218 Y108.100 Z-0.250 F400.000
G1 X-3.954 Y107.979 Z-0.250 F400.000
G1 X-3.636 Y107.915 Z-0.250 F400.000
G1 X-3.540 Y107.909 Z-0.250 F400.000
G1 X-3.441 Y107.906 Z-0.250 F400.000
G1 X-3.070 Y107.943 Z-0.250 F400.000
G1 X-2.772 Y108.043 Z-0.250 F400.000
G1 X-2.594 Y108.150 Z-0.250 F400.000
G1 X-2.440 Y108.288 Z-0.250 F400.000
G1 X-2.283 Y108.511 Z-0.250 F400.000
G1 X-2.168 Y108.804 Z-0.250 F400.000
G1 X-2.101 Y109.182 Z-0.250 F400.000
G1 X-2.087 Y109.489 Z-0.250 F400.000
G1 X-2.123 Y109.972 Z-0.250 F400.000
G1 X-2.221 Y110.334 Z-0.250 F400.000
G1 X-2.317 Y110.530 Z-0.250 F400.000
G1 X-2.440 Y110.692 Z-0.250 F400.000
G1 X-2.660 Y110.874 Z-0.250 F400.000
G1 X-2.923 Y110.996 Z-0.250 F400.000
G1 X-3.240 Y111.061 Z-0.250 F400.000
G1 X-3.441 Y111.071 Z-0.250 F400.000
G1 X-3.816 Y111.035 Z-0.250 F400.000
G1 X-4.113 Y110.935 Z-0.250 F400.000
G1 X-4.214 Y110.879 Z-0.250 F400.000
G1 X-4.308 Y110.814 Z-0.250 F400.000
G1 X-4.492 Y110.625 Z-0.250 F400.000
G1 X-4.634 Y110.372 Z-0.250 F400.000
G1 X-4.697 Y110.196 Z-0.250 F400.000
G1 X-4.743 Y109.999 Z-0.250 F400.000
G0 Z4.000
G0 Z4.000
G0 Z4.000
G0 X-2.531 Y123.418
G0 Z2.000
(autolevel)
M5
G4P0.5
G90G1F400Z1
G38.3Z-3F30.0
G10L20P1Z0
G90G1F400Z1
M3 S12000
G4P0.5
(autolevel)
G1 X-2.531 Y123.418 Z-0.250 F150.000
G1 X-2.617 Y123.540 Z-0.250 F400.000
G1 X-2.638 Y123.655 Z-0.250 F400.000
G1 X-2.717 Y124.453 Z-0.250 F400.000
G1 X-2.772 Y124.672 Z-0.250 F400.000
G1 X-2.921 Y124.871 Z-0.250 F400.000
G1 X-3.090 Y124.972 Z-0.250 F400.000
G1 X-3.468 Y125.032 Z-0.250 F400.000
G1 X-3.166 Y124.997 Z-0.250 F400.000
G1 X-2.921 Y124.871 Z-0.250 F400.000
G1 X-2.790 Y124.708 Z-0.250 F400.000
G1 X-2.717 Y124.453 Z-0.250 F400.000
G1 X-2.638 Y123.655 Z-0.250 F400.000
G1 X-2.617 Y123.540 Z-0.250 F400.000
G1 X-2.531 Y123.418 Z-0.250 F400.000
G0 Z4.000
G0 Z4.000
G0 X-4.756 Y123.418
G0 Z2.000
G1 X-4.756 Y123.418 Z-0.250 F150.000
G1 X-4.756 Y126.582 Z-0.250 F400.000
G1 X-3.616 Y126.582 Z-0.250 F400.000
G1 X-3.127 Y126.531 Z-0.250 F400.000
G1 X-2.958 Y126.471 Z-0.250 F400.000
G1 X-2.831 Y126.389 Z-0.250 F400.000
G1 X-2.738 Y126.287 Z-0.250 F400.000
G1 X-2.678 Y126.167 Z-0.250 F400.000
G1 X-2.626 Y125.880 Z-0.250 F400.000
G1 X-2.661 Y125.568 Z-0.250 F400.000
G1 X-2.716 Y125.423 Z-0.250 F400.000
G1 X-2.804 Y125.295 Z-0.250 F400.000
G1 X-2.973 Y125.160 Z-0.250 F400.000
G1 X-3.086 Y125.104 Z-0.250 F400.000
G1 X-3.333 Y125.044 Z-0.250 F400.000
G1 X-3.528 Y125.032 Z-0.250 F400.000
G1 X-4.756 Y125.032 Z-0.250 F400.000
G1 X-3.528 Y125.032 Z-0.250 F400.000
G1 X-3.290 Y125.050 Z-0.250 F400.000
G1 X-3.093 Y125.104 Z-0.250 F400.000
G1 X-2.934 Y125.189 Z-0.250 F400.000
G1 X-2.811 Y125.295 Z-0.250 F400.000
G1 X-2.720 Y125.423 Z-0.250 F400.000
G1 X-2.662 Y125.568 Z-0.250 F400.000
G1 X-2.626 Y125.880 Z-0.250 F400.000
G1 X-2.681 Y126.167 Z-0.250 F400.000
G1 X-2.742 Y126.287 Z-0.250 F400.000
G1 X-2.836 Y126.389 Z-0.250 F400.000
G1 X-3.015 Y126.492 Z-0.250 F400.000
G1 X-3.136 Y126.531 Z-0.250 F400.000
G1 X-3.350 Y126.570 Z-0.250 F400.000
G1 X-3.616 Y126.582 Z-0.250 F400.000
G1 X-4.756 Y126.582 Z-0.250 F400.000
G1 X-4.756 Y123.418 Z-0.250 F400.000
G0 Z4.000
G0 Z4.000
G0 X-0.958 Y123.418
G0 Z2.000
G1 X-0.958 Y123.418 Z-0.250 F150.000
G1 X-0.958 Y126.582 Z-0.250 F400.000
G1 X0.039 Y126.582 Z-0.250 F400.000
G1 X0.312 Y126.565 Z-0.250 F400.000
G1 X0.531 Y126.515 Z-0.250 F400.000
G1 X0.703 Y126.435 Z-0.250 F400.000
G1 X0.834 Y126.334 Z-0.250 F400.000
G1 X0.929 Y126.213 Z-0.250 F400.000
G1 X0.991 Y126.075 Z-0.250 F400.000
G1 X1.046 Y125.770 Z-0.250 F400.000
G1 X1.010 Y125.456 Z-0.250 F400.000
G1 X0.952 Y125.309 Z-0.250 F400.000
G1 X0.860 Y125.178 Z-0.250 F400.000
G1 X0.685 Y125.036 Z-0.250 F400.000
G1 X0.570 Y124.977 Z-0.250 F400.000
G1 X0.328 Y124.914 Z-0.250 F400.000
G1 X0.121 Y124.901 Z-0.250 F400.000
G1 X-0.958 Y124.901 Z-0.250 F400.000
G1 X0.121 Y124.901 Z-0.250 F400.000
G1 X0.365 Y124.920 Z-0.250 F400.000
G1 X0.566 Y124.977 Z-0.250 F400.000
G1 X0.728 Y125.066 Z-0.250 F400.000
G1 X0.854 Y125.178 Z-0.250 F400.000
G1 X0.947 Y125.309 Z-0.250 F400.000
G1 X1.007 Y125.456 Z-0.250 F400.000
G1 X1.046 Y125.770 Z-0.250 F400.000
G1 X0.991 Y126.075 Z-0.250 F400.000
G1 X0.929 Y126.213 Z-0.250 F400.000
G1 X0.833 Y126.334 Z-0.250 F400.000
G1 X0.654 Y126.461 Z-0.250 F400.000
G1 X0.529 Y126.515 Z-0.250 F400.000
G1 X0.260 Y126.572 Z-0.250 F400.000
G1 X0.039 Y126.582 Z-0.250 F400.000
G1 X-0.958 Y126.582 Z-0.250 F400.000
G1 X-0.958 Y123.418 Z-0.250 F400.000
G0 Z4.000
G0 Z4.000
G0 X4.755 Y124.490
G0 Z2.000
G1 X4.755 Y124.490 Z-0.250 F150.000
G1 X4.650 Y124.125 Z-0.250 F400.000
G1 X4.500 Y123.858 Z-0.250 F400.000
G1 X4.415 Y123.760 Z-0.250 F400.000
G1 X4.320 Y123.675 Z-0.250 F400.000
G1 X4.079 Y123.533 Z-0.250 F400.000
G1 X3.786 Y123.446 Z-0.250 F400.000
G1 X3.625 Y123.425 Z-0.250 F400.000
G1 X3.452 Y123.418 Z-0.250 F400.000
G1 X3.080 Y123.454 Z-0.250 F400.000
G1 X2.782 Y123.554 Z-0.250 F400.000
G1 X2.605 Y123.660 Z-0.250 F400.000
G1 X2.452 Y123.796 Z-0.250 F400.000
G1 X2.295 Y124.019 Z-0.250 F400.000
G1 X2.181 Y124.310 Z-0.250 F400.000
G1 X2.113 Y124.689 Z-0.250 F400.000
G1 X2.099 Y125.000 Z-0.250 F400.000
G1 X2.135 Y125.481 Z-0.250 F400.000
G1 X2.232 Y125.842 Z-0.250 F400.000
G1 X2.329 Y126.038 Z-0.250 F400.000
G1 X2.452 Y126.201 Z-0.250 F400.000
G1 X2.671 Y126.383 Z-0.250 F400.000
G1 X2.933 Y126.506 Z-0.250 F400.000
G1 X3.249 Y126.572 Z-0.250 F400.000
G1 X3.452 Y126.582 Z-0.250 F400.000
G1 X3.827 Y126.546 Z-0.250 F400.000
G1 X4.229 Y126.389 Z-0.250 F400.000
G1 X4.433 Y126.221 Z-0.250 F400.000
G1 X4.593 Y125.993 Z-0.250 F400.000
G1 X4.643 Y125.891 Z-0.250 F400.000
G1 X4.686 Y125.780 Z-0.250 F400.000
G1 X4.545 Y126.074 Z-0.250 F400.000
G1 X4.366 Y126.287 Z-0.250 F400.000
G1 X4.300 Y126.341 Z-0.250 F400.000
G1 X4.229 Y126.389 Z-0.250 F400.000
G1 X3.966 Y126.509 Z-0.250 F400.000
G1 X3.648 Y126.573 Z-0.250 F400.000
G1 X3.552 Y126.580 Z-0.250 F400.000
G1 X3.452 Y126.582 Z-0.250 F400.000
G1 X3.081 Y126.546 Z-0.250 F400.000
G1 X2.784 Y126.446 Z-0.250 F400.000
G1 X2.606 Y126.339 Z-0.250 F400.000
G1 X2.452 Y126.201 Z-0.250 F400.000
G1 X2.295 Y125.977 Z-0.250 F400.000
G1 X2.180 Y125.685 Z-0.250 F400.000
G1 X2.113 Y125.307 Z-0.250 F400.000
G1 X2.099 Y125.000 Z-0.250 F400.000
G1 X2.135 Y124.517 Z-0.250 F400.000
G1 X2.232 Y124.155 Z-0.250 F400.000
G1 X2.329 Y123.959 Z-0.250 F400.000
G1 X2.452 Y123.796 Z-0.250 F400.000
G1 X2.672 Y123.615 Z-0.250 F400.000
G1 X2.935 Y123.493 Z-0.250 F400.000
G1 X3.251 Y123.427 Z-0.250 F400.000
G1 X3.452 Y123.418 Z-0.250 F400.000
G1 X3.828 Y123.454 Z-0.250 F400.000
G1 X4.125 Y123.554 Z-0.250 F400.000
G1 X4.226 Y123.609 Z-0.250 F400.000
G1 X4.320 Y123.675 Z-0.250 F400.000
G1 X4.504 Y123.864 Z-0.250 F400.000
G1 X4.646 Y124.117 Z-0.250 F400.000
G1 X4.708 Y124.293 Z-0.250 F400.000
G1 X4.755 Y124.490 Z-0.250 F400.000
G0 Z4.000
G0 Z4.000
G0 Z4.000
G0 X2.543 Y136.071
G0 Z2.000
(autolevel)
M5
G4P0.5
G90G1F400Z1
G38.3Z-3F30.0
G10L20P1Z0
G90G1F400Z1
M3 S12000
G4P0.5
(autolevel)
G1 X2.543 Y136.071 Z-0.250 F150.000
G1 X2.629 Y135.948 Z-0.250 F400.000
G1 X2.650 Y135.834 Z-0.250 F400.000
G1 X2.729 Y135.035 Z-0.250 F400.000
G1 X2.784 Y134.817 Z-0.250 F400.000
G1 X2.933 Y134.617 Z-0.250 F400.000
G1 X3.102 Y134.516 Z-0.250 F400.000
G1 X3.480 Y134.456 Z-0.250 F400.000
G1 X3.178 Y134.491 Z-0.250 F400.000
G1 X2.933 Y134.617 Z-0.250 F400.000
G1 X2.802 Y134.780 Z-0.250 F400.000
G1 X2.729 Y135.035 Z-0.250 F400.000
G1 X2.650 Y135.834 Z-0.250 F400.000
G1 X2.629 Y135.948 Z-0.250 F400.000
G1 X2.543 Y136.071 Z-0.250 F400.000
G0 Z4.000
G0 Z4.000
G0 X4.768 Y136.071
G0 Z2.000
G1 X4.768 Y136.071 Z-0.250 F150.000
G1 X4.768 Y132.906 Z-0.250 F400.000
G1 X3.628 Y132.906 Z-0.250 F400.000
G1 X3.139 Y132.957 Z-0.250 F400.000
G1 X2.970 Y133.018 Z-0.250 F400.000
G1 X2.842 Y133.100 Z-0.250 F400.000
G1 X2.750 Y133.201 Z-0.250 F400.000
G1 X2.690 Y133.322 Z-0.250 F400.000
G1 X2.637 Y133.608 Z-0.250 F400.000
G1 X2.673 Y133.921 Z-0.250 F400.000
G1 X2.728 Y134.066 Z-0.250 F400.000
G1 X2.816 Y134.193 Z-0.250 F400.000
G1 X2.985 Y134.329 Z-0.250 F400.000
G1 X3.098 Y134.384 Z-0.250 F400.000
G1 X3.345 Y134.445 Z-0.250 F400.000
G1 X3.540 Y134.456 Z-0.250 F400.000
G1 X4.768 Y134.456 Z-0.250 F400.000
G1 X3.540 Y134.456 Z-0.250 F400.000
G1 X3.302 Y134.438 Z-0.250 F400.000
G1 X3.105 Y134.384 Z-0.250 F400.000
G1 X2.946 Y134.300 Z-0.250 F400.000
G1 X2.823 Y134.193 Z-0.250 F400.000
G1 X2.732 Y134.066 Z-0.250 F400.000
G1 X2.674 Y133.921 Z-0.250 F400.000
G1 X2.637 Y133.608 Z-0.250 F400.000
G1 X2.693 Y133.322 Z-0.250 F400.000
G1 X2.754 Y133.201 Z-0.250 F400.000
G1 X2.848 Y133.100 Z-0.250 F400.000
G1 X3.027 Y132.996 Z-0.250 F400.000
G1 X3.148 Y132.957 Z-0.250 F400.000
G1 X3.362 Y132.919 Z-0.250 F400.000
G1 X3.628 Y132.906 Z-0.250 F400.000
G1 X4.768 Y132.906 Z-0.250 F400.000
G1 X4.768 Y136.071 Z-0.250 F400.000
G0 Z4.000
G0 Z4.000
G0 X0.970 Y136.071
G0 Z2.000
G1 X0.970 Y136.071 Z-0.250 F150.000
G1 X0.970 Y132.906 Z-0.250 F400.000
G1 X-0.027 Y132.906 Z-0.250 F400.000
G1 X-0.300 Y132.923 Z-0.250 F400.000
G1 X-0.519 Y132.974 Z-0.250 F400.000
G1 X-0.692 Y133.053 Z-0.250 F400.000
G1 X-0.823 Y133.155 Z-0.250 F400.000
G1 X-0.918 Y133.275 Z-0.250 F400.000
G1 X-0.979 Y133.414 Z-0.250 F400.000
G1 X-1.034 Y133.719 Z-0.250 F400.000
G1 X-0.998 Y134.032 Z-0.250 F400.000
G1 X-0.940 Y134.180 Z-0.250 F400.000
G1 X-0.848 Y134.311 Z-0.250 F400.000
G1 X-0.674 Y134.453 Z-0.250 F400.000
G1 X-0.558 Y134.511 Z-0.250 F400.000
G1 X-0.317 Y134.575 Z-0.250 F400.000
G1 X-0.109 Y134.588 Z-0.250 F400.000
G1 X0.970 Y134.588 Z-0.250 F400.000
G1 X-0.109 Y134.588 Z-0.250 F400.000
G1 X-0.353 Y134.569 Z-0.250 F400.000
G1 X-0.554 Y134.511 Z-0.250 F400.000
G1 X-0.717 Y134.422 Z-0.250 F400.000
G1 X-0.842 Y134.311 Z-0.250 F400.000
G1 X-0.935 Y134.180 Z-0.250 F400.000
G1 X-0.995 Y134.032 Z-0.250 F400.000
G1 X-1.034 Y133.719 Z-0.250 F400.000
G1 X-0.979 Y133.414 Z-0.250 F400.000
G1 X-0.917 Y133.275 Z-0.250 F400.000
G1 X-0.821 Y133.155 Z-0.250 F400.000
G1 X-0.642 Y133.028 Z-0.250 F400.000
G1 X-0.517 Y132.974 Z-0.250 F400.000
G1 X-0.248 Y132.917 Z-0.250 F400.000
G1 X-0.027 Y132.906 Z-0.250 F400.000
G1 X0.970 Y132.906 Z-0.250 F400.000
G1 X0.970 Y136.071 Z-0.250 F400.000
G0 Z4.000
G0 Z4.000
G0 X-4.743 Y134.999
G0 Z2.000
G1 X-4.743 Y134.999 Z-0.250 F150.000
G1 X-4.638 Y135.363 Z-0.250 F400.000
G1 X-4.488 Y135.630 Z-0.250 F400.000
G1 X-4.403 Y135.729 Z-0.250 F400.000
G1 X-4.308 Y135.814 Z-0.250 F400.000
G1 X-4.067 Y135.956 Z-0.250 F400.000
G1 X-3.774 Y136.043 Z-0.250 F400.000
G1 X-3.613 Y136.064 Z-0.250 F400.000
G1 X-3.441 Y136.071 Z-0.250 F400.000
G1 X-3.068 Y136.035 Z-0.250 F400.000
G1 X-2.770 Y135.935 Z-0.250 F400.000
G1 X-2.594 Y135.829 Z-0.250 F400.000
G1 X-2.440 Y135.692 Z-0.250 F400.000
G1 X-2.283 Y135.470 Z-0.250 F400.000
G1 X-2.169 Y135.178 Z-0.250 F400.000
G1 X-2.101 Y134.800 Z-0.250 F400.000
G1 X-2.087 Y134.489 Z-0.250 F400.000
G1 X-2.123 Y134.008 Z-0.250 F400.000
G1 X-2.221 Y133.647 Z-0.250 F400.000
G1 X-2.317 Y133.451 Z-0.250 F400.000
G1 X-2.440 Y133.288 Z-0.250 F400.000
G1 X-2.659 Y133.106 Z-0.250 F400.000
G1 X-2.922 Y132.982 Z-0.250 F400.000
G1 X-3.237 Y132.917 Z-0.250 F400.000
G1 X-3.441 Y132.906 Z-0.250 F400.000
G1 X-3.815 Y132.943 Z-0.250 F400.000
G1 X-4.218 Y133.100 Z-0.250 F400.000
G1 X-4.421 Y133.268 Z-0.250 F400.000
G1 X-4.582 Y133.496 Z-0.250 F400.000
G1 X-4.631 Y133.598 Z-0.250 F400.000
G1 X-4.674 Y133.709 Z-0.250 F400.000
G1 X-4.534 Y133.414 Z-0.250 F400.000
G1 X-4.354 Y133.201 Z-0.250 F400.000
G1 X-4.288 Y133.148 Z-0.250 F400.000
G1 X-4.218 Y133.100 Z-0.250 F400.000
G1 X-3.954 Y132.979 Z-0.250 F400.000
G1 X-3.636 Y132.915 Z-0.250 F400.000
G1 X-3.540 Y132.909 Z-0.250 F400.000
G1 X-3.441 Y132.906 Z-0.250 F400.000
G1 X-3.070 Y132.943 Z-0.250 F400.000
G1 X-2.772 Y133.043 Z-0.250 F400.000
G1 X-2.594 Y133.150 Z-0.250 F400.000
G1 X-2.440 Y133.288 Z-0.250 F400.000
G1 X-2.283 Y133.511 Z-0.250 F400.000
G1 X-2.168 Y133.804 Z-0.250 F400.000
G1 X-2.101 Y134.182 Z-0.250 F400.000
G1 X-2.087 Y134.489 Z-0.250 F400.000
G1 X-2.123 Y134.972 Z-0.250 F400.000
G1 X-2.221 Y135.334 Z-0.250 F400.000
G1 X-2.317 Y135.530 Z-0.250 F400.000
G1 X-2.440 Y135.692 Z-0.250 F400.000
G1 X-2.660 Y135.874 Z-0.250 F400.000
G1 X-2.923 Y135.996 Z-0.250 F400.000
G1 X-3.240 Y136.061 Z-0.250 F400.000
G1 X-3.441 Y136.071 Z-0.250 F400.000
G1 X-3.816 Y136.035 Z-0.250 F400.000
G1 X-4.113 Y135.935 Z-0.250 F400.000
G1 X-4.214 Y135.879 Z-0.250 F400.000
G1 X-4.308 Y135.814 Z-0.250 F400.000
G1 X-4.492 Y135.625 Z-0.250 F400.000
G1 X-4.634 Y135.372 Z-0.250 F400.000
G1 X-4.697 Y135.196 Z-0.250 F400.000
G1 X-4.743 Y134.999 Z-0.250 F400.000
G0 Z4.000
G0 Z4.000
G0 Z4.000
G0 X44.543 Y136.071
G0 Z2.000
(autolevel)
M5
G4P0.5
G90G1F400Z1
G38.3Z-3F30.0
G10L20P1Z0
G90G1F400Z1
M3 S12000
G4P0.5
(autolevel)
G1 X44.543 Y136.071 Z-0.250 F150.000
G1 X44.629 Y135.948 Z-0.250 F400.000
G1 X44.650 Y135.834 Z-0.250 F400.000
G1 X44.729 Y135.035 Z-0.250 F400.000
G1 X44.784 Y134.817 Z-0.250 F400.000
G1 X44.933 Y134.617 Z-0.250 F400.000
G1 X45.102 Y134.516 Z-0.250 F400.000
G1 X45.480 Y134.456 Z-0.250 F400.000
G1 X45.178 Y134.491 Z-0.250 F400.000
G1 X44.933 Y134.617 Z-0.250 F400.000
G1 X44.802 Y134.780 Z-0.250 F400.000
G1 X44.729 Y135.035 Z-0.250 F400.000
G1 X44.650 Y135.834 Z-0.250 F400.000
G1 X44.629 Y135.948 Z-0.250 F400.000
G1 X44.543 Y136.071 Z-0.250 F400.000
G0 Z4.000
G0 Z4.000
G0 X46.768 Y136.071
G0 Z2.000
G1 X46.768 Y136.071 Z-0.250 F150.000
G1 X46.768 Y132.906 Z-0.250 F400.000
G1 X45.628 Y132.906 Z-0.250 F400.000
G1 X45.139 Y132.957 Z-0.250 F400.000
G1 X44.970 Y133.018 Z-0.250 F400.000
G1 X44.842 Y133.100 Z-0.250 F400.000
G1 X44.750 Y133.201 Z-0.250 F400.000
G1 X44.690 Y133.322 Z-0.250 F400.000
G1 X44.637 Y133.608 Z-0.250 F400.000
G1 X44.673 Y133.921 Z-0.250 F400.000
G1 X44.728 Y134.066 Z-0.250 F400.000
G1 X44.816 Y134.193 Z-0.250 F400.000
G1 X44.985 Y134.329 Z-0.250 F400.000
G1 X45.098 Y134.384 Z-0.250 F400.000
G1 X45.345 Y134.445 Z-0.250 F400.000
G1 X45.540 Y134.456 Z-0.250 F400.000
G1 X46.768 Y134.456 Z-0.250 F400.000
G1 X45.540 Y134.456 Z-0.250 F400.000
G1 X45.302 Y134.438 Z-0.250 F400.000
G1 X45.105 Y134.384 Z-0.250 F400.000
G1 X44.946 Y134.300 Z-0.250 F400.000
G1 X44.823 Y134.193 Z-0.250 F400.000
G1 X44.732 Y134.066 Z-0.250 F400.000
G1 X44.674 Y133.921 Z-0.250 F400.000
G1 X44.637 Y133.608 Z-0.250 F400.000
G1 X44.693 Y133.322 Z-0.250 F400.000
G1 X44.754 Y133.201 Z-0.250 F400.000
G1 X44.848 Y133.100 Z-0.250 F400.000
G1 X45.027 Y132.996 Z-0.250 F400.000
G1 X45.148 Y132.957 Z-0.250 F400.000
G1 X45.362 Y132.919 Z-0.250 F400.000
G1 X45.628 Y132.906 Z-0.250 F400.000
G1 X46.768 Y132.906 Z-0.250 F400.000
G1 X46.768 Y136.071 Z-0.250 F400.000
G0 Z4.000
G0 Z4.000
G0 X42.970 Y136.071
G0 Z2.000
G1 X42.970 Y136.071 Z-0.250 F150.000
G1 X42.970 Y132.906 Z-0.250 F400.000
G1 X41.973 Y132.906 Z-0.250 F400.000
G1 X41.700 Y132.923 Z-0.250 F400.000
G1 X41.481 Y132.974 Z-0.250 F400.000
G1 X41.308 Y133.053 Z-0.250 F400.000
G1 X41.177 Y133.155 Z-0.250 F400.000
G1 X41.082 Y133.275 Z-0.250 F400.000
G1 X41.021 Y133.414 Z-0.250 F400.000
G1 X40.966 Y133.719 Z-0.250 F400.000
G1 X41.002 Y134.032 Z-0.250 F400.000
G1 X41.060 Y134.180 Z-0.250 F400.000
G1 X41.152 Y134.311 Z-0.250 F400.000
G1 X41.326 Y134.453 Z-0.250 F400.000
G1 X41.442 Y134.511 Z-0.250 F400.000
G1 X41.683 Y134.575 Z-0.250 F400.000
G1 X41.891 Y134.588 Z-0.250 F400.000
G1 X42.970 Y134.588 Z-0.250 F400.000
G1 X41.891 Y134.588 Z-0.250 F400.000
G1 X41.647 Y134.569 Z-0.250 F400.000
G1 X41.446 Y134.511 Z-0.250 F400.000
G1 X41.283 Y134.422 Z-0.250 F400.000
G1 X41.158 Y134.311 Z-0.250 F400.000
G1 X41.065 Y134.180 Z-0.250 F400.000
G1 X41.005 Y134.032 Z-0.250 F400.000
G1 X40.966 Y133.719 Z-0.250 F400.000
G1 X41.021 Y133.414 Z-0.250 F400.000
G1 X41.083 Y133.275 Z-0.250 F400.000
G1 X41.179 Y133.155 Z-0.250 F400.000
G1 X41.358 Y133.028 Z-0.250 F400.000
G1 X41.483 Y132.974 Z-0.250 F400.000
G1 X41.752 Y132.917 Z-0.250 F400.000
G1 X41.973 Y132.906 Z-0.250 F400.000
G1 X42.970 Y132.906 Z-0.250 F400.000
G1 X42.970 Y136.071 Z-0.250 F400.000
G0 Z4.000
G0 Z4.000
G0 X37.257 Y134.999
G0 Z2.000
G1 X37.257 Y134.999 Z-0.250 F150.000
G1 X37.362 Y135.363 Z-0.250 F400.000
G1 X37.512 Y135.630 Z-0.250 F400.000
G1 X37.597 Y135.729 Z-0.250 F400.000
G1 X37.692 Y135.814 Z-0.250 F400.000
G1 X37.933 Y135.956 Z-0.250 F400.000
G1 X38.226 Y136.043 Z-0.250 F400.000
G1 X38.387 Y136.064 Z-0.250 F400.000
G1 X38.559 Y136.071 Z-0.250 F400.000
G1 X38.932 Y136.035 Z-0.250 F400.000
G1 X39.230 Y135.935 Z-0.250 F400.000
G1 X39.406 Y135.829 Z-0.250 F400.000
G1 X39.560 Y135.692 Z-0.250 F400.000
G1 X39.717 Y135.470 Z-0.250 F400.000
G1 X39.831 Y135.178 Z-0.250 F400.000
G1 X39.899 Y134.800 Z-0.250 F400.000
G1 X39.913 Y134.489 Z-0.250 F400.000
G1 X39.877 Y134.008 Z-0.250 F400.000
G1 X39.779 Y133.647 Z-0.250 F400.000
G1 X39.683 Y133.451 Z-0.250 F400.000
G1 X39.560 Y133.288 Z-0.250 F400.000
G1 X39.341 Y133.106 Z-0.250 F400.000
G1 X39.078 Y132.982 Z-0.250 F400.000
G1 X38.763 Y132.917 Z-0.250 F400.000
G1 X38.559 Y132.906 Z-0.250 F400.000
G1 X38.185 Y132.943 Z-0.250 F400.000
G1 X37.782 Y133.100 Z-0.250 F400.000
G1 X37.579 Y133.268 Z-0.250 F400.000
G1 X37.418 Y133.496 Z-0.250 F400.000
G1 X37.369 Y133.598 Z-0.250 F400.000
G1 X37.326 Y133.709 Z-0.250 F400.000
G1 X37.466 Y133.414 Z-0.250 F400.000
G1 X37.646 Y133.201 Z-0.250 F400.000
G1 X37.712 Y133.148 Z-0.250 F400.000
G1 X37.782 Y133.100 Z-0.250 F400.000
G1 X38.046 Y132.979 Z-0.250 F400.000
G1 X38.364 Y132.915 Z-0.250 F400.000
G1 X38.460 Y132.909 Z-0.250 F400.000
G1 X38.559 Y132.906 Z-0.250 F400.000
G1 X38.930 Y132.943 Z-0.250 F400.000
G1 X39.228 Y133.043 Z-0.250 F400.000
G1 X39.406 Y133.150 Z-0.250 F400.000
G1 X39.560 Y133.288 Z-0.250 F400.000
G1 X39.717 Y133.511 Z-0.250 F400.000
G1 X39.832 Y133.804 Z-0.250 F400.000
G1 X39.899 Y134.182 Z-0.250 F400.000
G1 X39.913 Y134.489 Z-0.250 F400.000
G1 X39.877 Y134.972 Z-0.250 F400.000
G1 X39.779 Y135.334 Z-0.250 F400.000
G1 X39.683 Y135.530 Z-0.250 F400.000
G1 X39.560 Y135.692 Z-0.250 F400.000
G1 X39.340 Y135.874 Z-0.250 F400.000
G1 X39.077 Y135.996 Z-0.250 F400.000
G1 X38.760 Y136.061 Z-0.250 F400.000
G1 X38.559 Y136.071 Z-0.250 F400.000
G1 X38.184 Y136.035 Z-0.250 F400.000
G1 X37.887 Y135.935 Z-0.250 F400.000
G1 X37.786 Y135.879 Z-0.250 F400.000
G1 X37.692 Y135.814 Z-0.250 F400.000
G1 X37.508 Y135.625 Z-0.250 F400.000
G1 X37.366 Y135.372 Z-0.250 F400.000
G1 X37.303 Y135.196 Z-0.250 F400.000
G1 X37.257 Y134.999 Z-0.250 F400.000
G0 Z4.000
G0 Z4.000
G0 Z4.000
G0 X39.469 Y123.418
G0 Z2.000
(autolevel)
M5
G4P0.5
G90G1F400Z1
G38.3Z-3F30.0
G10L20P1Z0
G90G1F400Z1
M3 S12000
G4P0.5
(autolevel)
G1 X39.469 Y123.418 Z-0.250 F150.000
G1 X39.383 Y123.540 Z-0.250 F400.000
G1 X39.362 Y123.655 Z-0.250 F400.000
G1 X39.283 Y124.453 Z-0.250 F400.000
G1 X39.228 Y124.672 Z-0.250 F400.000
G1 X39.079 Y124.871 Z-0.250 F400.000
G1 X38.910 Y124.972 Z-0.250 F400.000
G1 X38.532 Y125.032 Z-0.250 F400.000
G1 X38.834 Y124.997 Z-0.250 F400.000
G1 X39.079 Y124.871 Z-0.250 F400.000
G1 X39.210 Y124.708 Z-0.250 F400.000
G1 X39.283 Y124.453 Z-0.250 F400.000
G1 X39.362 Y123.655 Z-0.250 F400.000
G1 X39.383 Y123.540 Z-0.250 F400.000
G1 X39.469 Y123.418 Z-0.250 F400.000
G0 Z4.000
G0 Z4.000
G0 X37.244 Y123.418
G0 Z2.000
G1 X37.244 Y123.418 Z-0.250 F150.000
G1 X37.244 Y126.582 Z-0.250 F400.000
G1 X38.384 Y126.582 Z-0.250 F400.000
G1 X38.873 Y126.531 Z-0.250 F400.000
G1 X39.042 Y126.471 Z-0.250 F400.000
G1 X39.169 Y126.389 Z-0.250 F400.000
G1 X39.262 Y126.287 Z-0.250 F400.000
G1 X39.322 Y126.167 Z-0.250 F400.000
G1 X39.374 Y125.880 Z-0.250 F400.000
G1 X39.339 Y125.568 Z-0.250 F400.000
G1 X39.284 Y125.423 Z-0.250 F400.000
G1 X39.196 Y125.295 Z-0.250 F400.000
G1 X39.027 Y125.160 Z-0.250 F400.000
G1 X38.914 Y125.104 Z-0.250 F400.000
G1 X38.667 Y125.044 Z-0.250 F400.000
G1 X38.472 Y125.032 Z-0.250 F400.000
G1 X37.244 Y125.032 Z-0.250 F400.000
G1 X38.472 Y125.032 Z-0.250 F400.000
G1 X38.710 Y125.050 Z-0.250 F400.000
G1 X38.907 Y125.104 Z-0.250 F400.000
G1 X39.066 Y125.189 Z-0.250 F400.000
G1 X39.189 Y125.295 Z-0.250 F400.000
G1 X39.280 Y125.423 Z-0.250 F400.000
G1 X39.338 Y125.568 Z-0.250 F400.000
G1 X39.374 Y125.880 Z-0.250 F400.000
G1 X39.319 Y126.167 Z-0.250 F400.000
G1 X39.258 Y126.287 Z-0.250 F400.000
G1 X39.164 Y126.389 Z-0.250 F400.000
G1 X38.985 Y126.492 Z-0.250 F400.000
G1 X38.864 Y126.531 Z-0.250 F400.000
G1 X38.650 Y126.570 Z-0.250 F400.000
G1 X38.384 Y126.582 Z-0.250 F400.000
G1 X37.244 Y126.582 Z-0.250 F400.000
G1 X37.244 Y123.418 Z-0.250 F400.000
G0 Z4.000
G0 Z4.000
G0 X41.042 Y123.418
G0 Z2.000
G1 X41.042 Y123.418 Z-0.250 F150.000
G1 X41.042 Y126.582 Z-0.250 F400.000
G1 X42.039 Y126.582 Z-0.250 F400.000
G1 X42.312 Y126.565 Z-0.250 F400.000
G1 X42.531 Y126.515 Z-0.250 F400.000
G1 X42.703 Y126.435 Z-0.250 F400.000
G1 X42.834 Y126.334 Z-0.250 F400.000
G1 X42.929 Y126.213 Z-0.250 F400.000
G1 X42.991 Y126.075 Z-0.250 F400.000
G1 X43.046 Y125.770 Z-0.250 F400.000
G1 X43.010 Y125.456 Z-0.250 F400.000
G1 X42.952 Y125.309 Z-0.250 F400.000
G1 X42.860 Y125.178 Z-0.250 F400.000
G1 X42.685 Y125.036 Z-0.250 F400.000
G1 X42.570 Y124.977 Z-0.250 F400.000
G1 X42.328 Y124.914 Z-0.250 F400.000
G1 X42.121 Y124.901 Z-0.250 F400.000
G1 X41.042 Y124.901 Z-0.250 F400.000
G1 X42.121 Y124.901 Z-0.250 F400.000
G1 X42.365 Y124.920 Z-0.250 F400.000
G1 X42.566 Y124.977 Z-0.250 F400.000
G1 X42.728 Y125.066 Z-0.250 F400.000
G1 X42.854 Y125.178 Z-0.250 F400.000
G1 X42.947 Y125.309 Z-0.250 F400.000
G1 X43.007 Y125.456 Z-0.250 F400.000
G1 X43.046 Y125.770 Z-0.250 F400.000
G1 X42.991 Y126.075 Z-0.250 F400.000
G1 X42.929 Y126.213 Z-0.250 F400.000
G1 X42.833 Y126.334 Z-0.250 F400.000
G1 X42.654 Y126.461 Z-0.250 F400.000
G1 X42.529 Y126.515 Z-0.250 F400.000
G1 X42.260 Y126.572 Z-0.250 F400.000
G1 X42.039 Y126.582 Z-0.250 F400.000
G1 X41.042 Y126.582 Z-0.250 F400.000
G1 X41.042 Y123.418 Z-0.250 F400.000
G0 Z4.000
G0 Z4.000
G0 X46.755 Y124.490
G0 Z2.000
G1 X46.755 Y124.490 Z-0.250 F150.000
G1 X46.650 Y124.125 Z-0.250 F400.000
G1 X46.500 Y123.858 Z-0.250 F400.000
G1 X46.415 Y123.760 Z-0.250 F400.000
G1 X46.320 Y123.675 Z-0.250 F400.000
G1 X46.079 Y123.533 Z-0.250 F400.000
G1 X45.786 Y123.446 Z-0.250 F400.000
G1 X45.625 Y123.425 Z-0.250 F400.000
G1 X45.452 Y123.418 Z-0.250 F400.000
G1 X45.080 Y123.454 Z-0.250 F400.000
G1 X44.782 Y123.554 Z-0.250 F400.000
G1 X44.605 Y123.660 Z-0.250 F400.000
G1 X44.452 Y123.796 Z-0.250 F400.000
G1 X44.295 Y124.019 Z-0.250 F400.000
G1 X44.181 Y124.310 Z-0.250 F400.000
G1 X44.113 Y124.689 Z-0.250 F400.000
G1 X44.099 Y125.000 Z-0.250 F400.000
G1 X44.135 Y125.481 Z-0.250 F400.000
G1 X44.232 Y125.842 Z-0.250 F400.000
G1 X44.329 Y126.038 Z-0.250 F400.000
G1 X44.452 Y126.201 Z-0.250 F400.000
G1 X44.671 Y126.383 Z-0.250 F400.000
G1 X44.933 Y126.506 Z-0.250 F400.000
G1 X45.249 Y126.572 Z-0.250 F400.000
G1 X45.452 Y126.582 Z-0.250 F400.000
G1 X45.827 Y126.546 Z-0.250 F400.000
G1 X46.229 Y126.389 Z-0.250 F400.000
G1 X46.433 Y126.221 Z-0.250 F400.000
G1 X46.593 Y125.993 Z-0.250 F400.000
G1 X46.643 Y125.891 Z-0.250 F400.000
G1 X46.686 Y125.780 Z-0.250 F400.000
G1 X46.545 Y126.074 Z-0.250 F400.000
G1 X46.366 Y126.287 Z-0.250 F400.000
G1 X46.300 Y126.341 Z-0.250 F400.000
G1 X46.229 Y126.389 Z-0.250 F400.000
G1 X45.966 Y126.509 Z-0.250 F400.000
G1 X45.648 Y126.573 Z-0.250 F400.000
G1 X45.552 Y126.580 Z-0.250 F400.000
G1 X45.452 Y126.582 Z-0.250 F400.000
G1 X45.081 Y126.546 Z-0.250 F400.000
G1 X44.784 Y126.446 Z-0.250 F400.000
G1 X44.606 Y126.339 Z-0.250 F400.000
G1 X44.452 Y126.201 Z-0.250 F400.000
G1 X44.295 Y125.977 Z-0.250 F400.000
G1 X44.180 Y125.685 Z-0.250 F400.000
G1 X44.113 Y125.307 Z-0.250 F400.000
G1 X44.099 Y125.000 Z-0.250 F400.000
G1 X44.135 Y124.517 Z-0.250 F400.000
G1 X44.232 Y124.155 Z-0.250 F400.000
G1 X44.329 Y123.959 Z-0.250 F400.000
G1 X44.452 Y123.796 Z-0.250 F400.000
G1 X44.672 Y123.615 Z-0.250 F400.000
G1 X44.935 Y123.493 Z-0.250 F400.000
G1 X45.251 Y123.427 Z-0.250 F400.000
G1 X45.452 Y123.418 Z-0.250 F400.000
G1 X45.828 Y123.454 Z-0.250 F400.000
G1 X46.125 Y123.554 Z-0.250 F400.000
G1 X46.226 Y123.609 Z-0.250 F400.000
G1 X46.320 Y123.675 Z-0.250 F400.000
G1 X46.504 Y123.864 Z-0.250 F400.000
G1 X46.646 Y124.117 Z-0.250 F400.000
G1 X46.708 Y124.293 Z-0.250 F400.000
G1 X46.755 Y124.490 Z-0.250 F400.000
G0 Z4.000
G0 Z4.000
G0 Z4.000
G0 X44.543 Y111.071
G0 Z2.000
(autolevel)
M5
G4P0.5
G90G1F400Z1
G38.3Z-3F30.0
G10L20P1Z0
G90G1F400Z1
M3 S12000
G4P0.5
(autolevel)
G1 X44.543 Y111.071 Z-0.250 F150.000
G1 X44.629 Y110.948 Z-0.250 F400.000
G1 X44.650 Y110.834 Z-0.250 F400.000
G1 X44.729 Y110.035 Z-0.250 F400.000
G1 X44.784 Y109.817 Z-0.250 F400.000
G1 X44.933 Y109.617 Z-0.250 F400.000
G1 X45.102 Y109.516 Z-0.250 F400.000
G1 X45.480 Y109.456 Z-0.250 F400.000
G1 X45.178 Y109.491 Z-0.250 F400.000
G1 X44.933 Y109.617 Z-0.250 F400.000
G1 X44.802 Y109.780 Z-0.250 F400.000
G1 X44.729 Y110.035 Z-0.250 F400.000
G1 X44.650 Y110.834 Z-0.250 F400.000
G1 X44.629 Y110.948 Z-0.250 F400.000
G1 X44.543 Y111.071 Z-0.250 F400.000
G0 Z4.000
G0 Z4.000
G0 X46.768 Y111.071
G0 Z2.000
G1 X46.768 Y111.071 Z-0.250 F150.000
G1 X46.768 Y107.906 Z-0.250 F400.000
G1 X45.628 Y107.906 Z-0.250 F400.000
G1 X45.139 Y107.957 Z-0.250 F400.000
G1 X44.970 Y108.018 Z-0.250 F400.000
G1 X44.842 Y108.100 Z-0.250 F400.000
G1 X44.750 Y108.201 Z-0.250 F400.000
G1 X44.690 Y108.322 Z-0.250 F400.000
G1 X44.637 Y108.608 Z-0.250 F400.000
G1 X44.673 Y108.921 Z-0.250 F400.000
G1 X44.728 Y109.066 Z-0.250 F400.000
G1 X44.816 Y109.193 Z-0.250 F400.000
G1 X44.985 Y109.329 Z-0.250 F400.000
G1 X45.098 Y109.384 Z-0.250 F400.000
G1 X45.345 Y109.445 Z-0.250 F400.000
G1 X45.540 Y109.456 Z-0.250 F400.000
G1 X46.768 Y109.456 Z-0.250 F400.000
G1 X45.540 Y109.456 Z-0.250 F400.000
G1 X45.302 Y109.438 Z-0.250 F400.000
G1 X45.105 Y109.384 Z-0.250 F400.000
G1 X44.946 Y109.300 Z-0.250 F400.000
G1 X44.823 Y109.193 Z-0.250 F400.000
G1 X44.732 Y109.066 Z-0.250 F400.000
G1 X44.674 Y108.921 Z-0.250 F400.000
G1 X44.637 Y108.608 Z-0.250 F400.000
G1 X44.693 Y108.322 Z-0.250 F400.000
G1 X44.754 Y108.201 Z-0.250 F400.000
G1 X44.848 Y108.100 Z-0.250 F400.000
G1 X45.027 Y107.996 Z-0.250 F400.000
G1 X45.148 Y107.957 Z-0.250 F400.000
G1 X45.362 Y107.919 Z-0.250 F400.000
G1 X45.628 Y107.906 Z-0.250 F400.000
G1 X46.768 Y107.906 Z-0.250 F400.000
G1 X46.768 Y111.071 Z-0.250 F400.000
G0 Z4.000
G0 Z4.000
G0 X42.970 Y111.071
G0 Z2.000
G1 X42.970 Y111.071 Z-0.250 F150.000
G1 X42.970 Y107.906 Z-0.250 F400.000
G1 X41.973 Y107.906 Z-0.250 F400.000
G1 X41.700 Y107.923 Z-0.250 F400.000
G1 X41.481 Y107.974 Z-0.250 F400.000
G1 X41.308 Y108.053 Z-0.250 F400.000
G1 X41.177 Y108.155 Z-0.250 F400.000
G1 X41.082 Y108.275 Z-0.250 F400.000
G1 X41.021 Y108.414 Z-0.250 F400.000
G1 X40.966 Y108.719 Z-0.250 F400.000
G1 X41.002 Y109.032 Z-0.250 F400.000
G1 X41.060 Y109.180 Z-0.250 F400.000
G1 X41.152 Y109.311 Z-0.250 F400.000
G1 X41.326 Y109.453 Z-0.250 F400.000
G1 X41.442 Y109.511 Z-0.250 F400.000
G1 X41.683 Y109.575 Z-0.250 F400.000
G1 X41.891 Y109.588 Z-0.250 F400.000
G1 X42.970 Y109.588 Z-0.250 F400.000
G1 X41.891 Y109.588 Z-0.250 F400.000
G1 X41.647 Y109.569 Z-0.250 F400.000
G1 X41.446 Y109.511 Z-0.250 F400.000
G1 X41.283 Y109.422 Z-0.250 F400.000
G1 X41.158 Y109.311 Z-0.250 F400.000
G1 X41.065 Y109.180 Z-0.250 F400.000
G1 X41.005 Y109.032 Z-0.250 F400.000
G1 X40.966 Y108.719 Z-0.250 F400.000
G1 X41.021 Y108.414 Z-0.250 F400.000
G1 X41.083 Y108.275 Z-0.250 F400.000
G1 X41.179 Y108.155 Z-0.250 F400.000
G1 X41.358 Y108.028 Z-0.250 F400.000
G1 X41.483 Y107.974 Z-0.250 F400.000
G1 X41.752 Y107.917 Z-0.250 F400.000
G1 X41.973 Y107.906 Z-0.250 F400.000
G1 X42.970 Y107.906 Z-0.250 F400.000
G1 X42.970 Y111.071 Z-0.250 F400.000
G0 Z4.000
G0 Z4.000
G0 X37.257 Y109.999
G0 Z2.000
G1 X37.257 Y109.999 Z-0.250 F150.000
G1 X37.362 Y110.363 Z-0.250 F400.000
G1 X37.512 Y110.630 Z-0.250 F400.000
G1 X37.597 Y110.729 Z-0.250 F400.000
G1 X37.692 Y110.814 Z-0.250 F400.000
G1 X37.933 Y110.956 Z-0.250 F400.000
G1 X38.226 Y111.043 Z-0.250 F400.000
G1 X38.387 Y111.064 Z-0.250 F400.000
G1 X38.559 Y111.071 Z-0.250 F400.000
G1 X38.932 Y111.035 Z-0.250 F400.000
G1 X39.230 Y110.935 Z-0.250 F400.000
G1 X39.406 Y110.829 Z-0.250 F400.000
G1 X39.560 Y110.692 Z-0.250 F400.000
G1 X39.717 Y110.470 Z-0.250 F400.000
G1 X39.831 Y110.178 Z-0.250 F400.000
G1 X39.899 Y109.800 Z-0.250 F400.000
G1 X39.913 Y109.489 Z-0.250 F400.000
G1 X39.877 Y109.008 Z-0.250 F400.000
G1 X39.779 Y108.647 Z-0.250 F400.000
G1 X39.683 Y108.451 Z-0.250 F400.000
G1 X39.560 Y108.288 Z-0.250 F400.000
G1 X39.341 Y108.106 Z-0.250 F400.000
G1 X39.078 Y107.982 Z-0.250 F400.000
G1 X38.763 Y107.917 Z-0.250 F400.000
G1 X38.559 Y107.906 Z-0.250 F400.000
G1 X38.185 Y107.943 Z-0.250 F400.000
G1 X37.782 Y108.100 Z-0.250 F400.000
G1 X37.579 Y108.268 Z-0.250 F400.000
G1 X37.418 Y108.496 Z-0.250 F400.000
G1 X37.369 Y108.598 Z-0.250 F400.000
G1 X37.326 Y108.709 Z-0.250 F400.000
G1 X37.466 Y108.414 Z-0.250 F400.000
G1 X37.646 Y108.201 Z-0.250 F400.000
G1 X37.712 Y108.148 Z-0.250 F400.000
G1 X37.782 Y108.100 Z-0.250 F400.000
G1 X38.046 Y107.979 Z-0.250 F400.000
G1 X38.364 Y107.915 Z-0.250 F400.000
G1 X38.460 Y107.909 Z-0.250 F400.000
G1 X38.559 Y107.906 Z-0.250 F400.000
G1 X38.930 Y107.943 Z-0.250 F400.000
G1 X39.228 Y108.043 Z-0.250 F400.000
G1 X39.406 Y108.150 Z-0.250 F400.000
G1 X39.560 Y108.288 Z-0.250 F400.000
G1 X39.717 Y108.511 Z-0.250 F400.000
G1 X39.832 Y108.804 Z-0.250 F400.000
G1 X39.899 Y109.182 Z-0.250 F400.000
G1 X39.913 Y109.489 Z-0.250 F400.000
G1 X39.877 Y109.972 Z-0.250 F400.000
G1 X39.779 Y110.334 Z-0.250 F400.000
G1 X39.683 Y110.530 Z-0.250 F400.000
G1 X39.560 Y110.692 Z-0.250 F400.000
G1 X39.340 Y110.874 Z-0.250 F400.000
G1 X39.077 Y110.996 Z-0.250 F400.000
G1 X38.760 Y111.061 Z-0.250 F400.000
G1 X38.559 Y111.071 Z-0.250 F400.000
G1 X38.184 Y111.035 Z-0.250 F400.000
G1 X37.887 Y110.935 Z-0.250 F400.000
G1 X37.786 Y110.879 Z-0.250 F400.000
G1 X37.692 Y110.814 Z-0.250 F400.000
G1 X37.508 Y110.625 Z-0.250 F400.000
G1 X37.366 Y110.372 Z-0.250 F400.000
G1 X37.303 Y110.196 Z-0.250 F400.000
G1 X37.257 Y109.999 Z-0.250 F400.000
G0 Z4.000
G0 Z4.000
G0 Z4.000
G0 X39.469 Y98.418
G0 Z2.000
(autolevel)
M5
G4P0.5
G90G1F400Z1
G38.3Z-3F30.0
G10L20P1Z0
G90G1F400Z1
M3 S12000
G4P0.5
(autolevel)
G1 X39.469 Y98.418 Z-0.250 F150.000
G1 X39.383 Y98.540 Z-0.250 F400.000
G1 X39.362 Y98.655 Z-0.250 F400.000
G1 X39.283 Y99.453 Z-0.250 F400.000
G1 X39.228 Y99.672 Z-0.250 F400.000
G1 X39.079 Y99.871 Z-0.250 F400.000
G1 X38.910 Y99.972 Z-0.250 F400.000
G1 X38.532 Y100.032 Z-0.250 F400.000
G1 X38.834 Y99.997 Z-0.250 F400.000
G1 X39.079 Y99.871 Z-0.250 F400.000
G1 X39.210 Y99.708 Z-0.250 F400.000
G1 X39.283 Y99.453 Z-0.250 F400.000
G1 X39.362 Y98.655 Z-0.250 F400.000
G1 X39.383 Y98.540 Z-0.250 F400.000
G1 X39.469 Y98.418 Z-0.250 F400.000
G0 Z4.000
G0 Z4.000
G0 X37.244 Y98.418
G0 Z2.000
G1 X37.244 Y98.418 Z-0.250 F150.000
G1 X37.244 Y101.582 Z-0.250 F400.000
G1 X38.384 Y101.582 Z-0.250 F400.000
G1 X38.873 Y101.531 Z-0.250 F400.000
G1 X39.042 Y101.471 Z-0.250 F400.000
G1 X39.169 Y101.389 Z-0.250 F400.000
G1 X39.262 Y101.287 Z-0.250 F400.000
G1 X39.322 Y101.167 Z-0.250 F400.000
G1 X39.374 Y100.880 Z-0.250 F400.000
G1 X39.339 Y100.568 Z-0.250 F400.000
G1 X39.284 Y100.423 Z-0.250 F400.000
G1 X39.196 Y100.295 Z-0.250 F400.000
G1 X39.027 Y100.160 Z-0.250 F400.000
G1 X38.914 Y100.104 Z-0.250 F400.000
G1 X38.667 Y100.044 Z-0.250 F400.000
G1 X38.472 Y100.032 Z-0.250 F400.000
G1 X37.244 Y100.032 Z-0.250 F400.000
G1 X38.472 Y100.032 Z-0.250 F400.000
G1 X38.710 Y100.050 Z-0.250 F400.000
G1 X38.907 Y100.104 Z-0.250 F400.000
G1 X39.066 Y100.189 Z-0.250 F400.000
G1 X39.189 Y100.295 Z-0.250 F400.000
G1 X39.280 Y100.423 Z-0.250 F400.000
G1 X39.338 Y100.568 Z-0.250 F400.000
G1 X39.374 Y100.880 Z-0.250 F400.000
G1 X39.319 Y101.167 Z-0.250 F400.000
G1 X39.258 Y101.287 Z-0.250 F400.000
G1 X39.164 Y101.389 Z-0.250 F400.000
G1 X38.985 Y101.492 Z-0.250 F400.000
G1 X38.864 Y101.531 Z-0.250 F400.000
G1 X38.650 Y101.570 Z-0.250 F400.000
G1 X38.384 Y101.582 Z-0.250 F400.000
G1 X37.244 Y101.582 Z-0.250 F400.000
G1 X37.244 Y98.418 Z-0.250 F400.000
G0 Z4.000
G0 Z4.000
G0 X41.042 Y98.418
G0 Z2.000
G1 X41.042 Y98.418 Z-0.250 F150.000
G1 X41.042 Y101.582 Z-0.250 F400.000
G1 X42.039 Y101.582 Z-0.250 F400.000
G1 X42.312 Y101.565 Z-0.250 F400.000
G1 X42.531 Y101.515 Z-0.250 F400.000
G1 X42.703 Y101.435 Z-0.250 F400.000
G1 X42.834 Y101.334 Z-0.250 F400.000
G1 X42.929 Y101.213 Z-0.250 F400.000
G1 X42.991 Y101.075 Z-0.250 F400.000
G1 X43.046 Y100.770 Z-0.250 F400.000
G1 X43.010 Y100.456 Z-0.250 F400.000
G1 X42.952 Y100.309 Z-0.250 F400.000
G1 X42.860 Y100.178 Z-0.250 F400.000
G1 X42.685 Y100.036 Z-0.250 F400.000
G1 X42.570 Y99.977 Z-0.250 F400.000
G1 X42.328 Y99.914 Z-0.250 F400.000
G1 X42.121 Y99.901 Z-0.250 F400.000
G1 X41.042 Y99.901 Z-0.250 F400.000
G1 X42.121 Y99.901 Z-0.250 F400.000
G1 X42.365 Y99.920 Z-0.250 F400.000
G1 X42.566 Y99.977 Z-0.250 F400.000
G1 X42.728 Y100.066 Z-0.250 F400.000
G1 X42.854 Y100.178 Z-0.250 F400.000
G1 X42.947 Y100.309 Z-0.250 F400.000
G1 X43.007 Y100.456 Z-0.250 F400.000
G1 X43.046 Y100.770 Z-0.250 F400.000
G1 X42.991 Y101.075 Z-0.250 F400.000
G1 X42.929 Y101.213 Z-0.250 F400.000
G1 X42.833 Y101.334 Z-0.250 F400.000
G1 X42.654 Y101.461 Z-0.250 F400.000
G1 X42.529 Y101.515 Z-0.250 F400.000
G1 X42.260 Y101.572 Z-0.250 F400.000
G1 X42.039 Y101.582 Z-0.250 F400.000
G1 X41.042 Y101.582 Z-0.250 F400.000
G1 X41.042 Y98.418 Z-0.250 F400.000
G0 Z4.000
G0 Z4.000
G0 X46.755 Y99.490
G0 Z2.000
G1 X46.755 Y99.490 Z-0.250 F150.000
G1 X46.650 Y99.125 Z-0.250 F400.000
G1 X46.500 Y98.858 Z-0.250 F400.000
G1 X46.415 Y98.760 Z-0.250 F400.000
G1 X46.320 Y98.675 Z-0.250 F400.000
G1 X46.079 Y98.533 Z-0.250 F400.000
G1 X45.786 Y98.446 Z-0.250 F400.000
G1 X45.625 Y98.425 Z-0.250 F400.000
G1 X45.452 Y98.418 Z-0.250 F400.000
G1 X45.080 Y98.454 Z-0.250 F400.000
G1 X44.782 Y98.554 Z-0.250 F400.000
G1 X44.605 Y98.660 Z-0.250 F400.000
G1 X44.452 Y98.796 Z-0.250 F400.000
G1 X44.295 Y99.019 Z-0.250 F400.000
G1 X44.181 Y99.310 Z-0.250 F400.000
G1 X44.113 Y99.689 Z-0.250 F400.000
G1 X44.099 Y100.000 Z-0.250 F400.000
G1 X44.135 Y100.481 Z-0.250 F400.000
G1 X44.232 Y100.842 Z-0.250 F400.000
G1 X44.329 Y101.038 Z-0.250 F400.000
G1 X44.452 Y101.201 Z-0.250 F400.000
G1 X44.671 Y101.383 Z-0.250 F400.000
G1 X44.933 Y101.506 Z-0.250 F400.000
G1 X45.249 Y101.572 Z-0.250 F400.000
G1 X45.452 Y101.582 Z-0.250 F400.000
G1 X45.827 Y101.546 Z-0.250 F400.000
G1 X46.229 Y101.389 Z-0.250 F400.000
G1 X46.433 Y101.221 Z-0.250 F400.000
G1 X46.593 Y100.993 Z-0.250 F400.000
G1 X46.643 Y100.891 Z-0.250 F400.000
G1 X46.686 Y100.780 Z-0.250 F400.000
G1 X46.545 Y101.074 Z-0.250 F400.000
G1 X46.366 Y101.287 Z-0.250 F400.000
G1 X46.300 Y101.341 Z-0.250 F400.000
G1 X46.229 Y101.389 Z-0.250 F400.000
G1 X45.966 Y101.509 Z-0.250 F400.000
G1 X45.648 Y101.573 Z-0.250 F400.000
G1 X45.552 Y101.580 Z-0.250 F400.000
G1 X45.452 Y101.582 Z-0.250 F400.000
G1 X45.081 Y101.546 Z-0.250 F400.000
G1 X44.784 Y101.446 Z-0.250 F400.000
G1 X44.606 Y101.339 Z-0.250 F400.000
G1 X44.452 Y101.201 Z-0.250 F400.000
G1 X44.295 Y100.977 Z-0.250 F400.000
G1 X44.180 Y100.685 Z-0.250 F400.000
G1 X44.113 Y100.307 Z-0.250 F400.000
G1 X44.099 Y100.000 Z-0.250 F400.000
G1 X44.135 Y99.517 Z-0.250 F400.000
G1 X44.232 Y99.155 Z-0.250 F400.000
G1 X44.329 Y98.959 Z-0.250 F400.000
G1 X44.452 Y98.796 Z-0.250 F400.000
G1 X44.672 Y98.615 Z-0.250 F400.000
G1 X44.935 Y98.493 Z-0.250 F400.000
G1 X45.251 Y98.427 Z-0.250 F400.000
G1 X45.452 Y98.418 Z-0.250 F400.000
G1 X45.828 Y98.454 Z-0.250 F400.000
G1 X46.125 Y98.554 Z-0.250 F400.000
G1 X46.226 Y98.609 Z-0.250 F400.000
G1 X46.320 Y98.675 Z-0.250 F400.000
G1 X46.504 Y98.864 Z-0.250 F400.000
G1 X46.646 Y99.117 Z-0.250 F400.000
G1 X46.708 Y99.293 Z-0.250 F400.000
G1 X46.755 Y99.490 Z-0.250 F400.000
G0 Z4.000
G0 Z4.000
G0 Z4.000
G0 X44.543 Y86.071
G0 Z2.000
(autolevel)
M5
G4P0.5
G90G1F400Z1
G38.3Z-3F30.0
G10L20P1Z0
G90G1F400Z1
M3 S12000
G4P0.5
(autolevel)
G1 X44.543 Y86.071 Z-0.250 F150.000
G1 X44.629 Y85.948 Z-0.250 F400.000
G1 X44.650 Y85.834 Z-0.250 F400.000
G1 X44.729 Y85.035 Z-0.250 F400.000
G1 X44.784 Y84.817 Z-0.250 F400.000
G1 X44.933 Y84.617 Z-0.250 F400.000
G1 X45.102 Y84.516 Z-0.250 F400.000
G1 X45.480 Y84.456 Z-0.250 F400.000
G1 X45.178 Y84.491 Z-0.250 F400.000
G1 X44.933 Y84.617 Z-0.250 F400.000
G1 X44.802 Y84.780 Z-0.250 F400.000
G1 X44.729 Y85.035 Z-0.250 F400.000
G1 X44.650 Y85.834 Z-0.250 F400.000
G1 X44.629 Y85.948 Z-0.250 F400.000
G1 X44.543 Y86.071 Z-0.250 F400.000
G0 Z4.000
G0 Z4.000
G0 X46.768 Y86.071
G0 Z2.000
G1 X46.768 Y86.071 Z-0.250 F150.000
G1 X46.768 Y82.906 Z-0.250 F400.000
G1 X45.628 Y82.906 Z-0.250 F400.000
G1 X45.139 Y82.957 Z-0.250 F400.000
G1 X44.970 Y83.018 Z-0.250 F400.000
G1 X44.842 Y83.100 Z-0.250 F400.000
G1 X44.750 Y83.201 Z-0.250 F400.000
G1 X44.690 Y83.322 Z-0.250 F400.000
G1 X44.637 Y83.608 Z-0.250 F400.000
G1 X44.673 Y83.921 Z-0.250 F400.000
G1 X44.728 Y84.066 Z-0.250 F400.000
G1 X44.816 Y84.193 Z-0.250 F400.000
G1 X44.985 Y84.329 Z-0.250 F400.000
G1 X45.098 Y84.384 Z-0.250 F400.000
G1 X45.345 Y84.445 Z-0.250 F400.000
G1 X45.540 Y84.456 Z-0.250 F400.000
G1 X46.768 Y84.456 Z-0.250 F400.000
G1 X45.540 Y84.456 Z-0.250 F400.000
G1 X45.302 Y84.438 Z-0.250 F400.000
G1 X45.105 Y84.384 Z-0.250 F400.000
G1 X44.946 Y84.300 Z-0.250 F400.000
G1 X44.823 Y84.193 Z-0.250 F400.000
G1 X44.732 Y84.066 Z-0.250 F400.000
G1 X44.674 Y83.921 Z-0.250 F400.000
G1 X44.637 Y83.608 Z-0.250 F400.000
G1 X44.693 Y83.322 Z-0.250 F400.000
G1 X44.754 Y83.201 Z-0.250 F400.000
G1 X44.848 Y83.100 Z-0.250 F400.000
G1 X45.027 Y82.996 Z-0.250 F400.000
G1 X45.148 Y82.957 Z-0.250 F400.000
G1 X45.362 Y82.919 Z-0.250 F400.000
G1 X45.628 Y82.906 Z-0.250 F400.000
G1 X46.768 Y82.906 Z-0.250 F400.000
G1 X46.768 Y86.071 Z-0.250 F400.000
G0 Z4.000
G0 Z4.000
G0 X42.970 Y86.071
G0 Z2.000
G1 X42.970 Y86.071 Z-0.250 F150.000
G1 X42.970 Y82.906 Z-0.250 F400.000
G1 X41.973 Y82.906 Z-0.250 F400.000
G1 X41.700 Y82.923 Z-0.250 F400.000
G1 X41.481 Y82.974 Z-0.250 F400.000
G1 X41.308 Y83.053 Z-0.250 F400.000
G1 X41.177 Y83.155 Z-0.250 F400.000
G1 X41.082 Y83.275 Z-0.250 F400.000
G1 X41.021 Y83.414 Z-0.250 F400.000
G1 X40.966 Y83.719 Z-0.250 F400.000
G1 X41.002 Y84.032 Z-0.250 F400.000
G1 X41.060 Y84.180 Z-0.250 F400.000
G1 X41.152 Y84.311 Z-0.250 F400.000
G1 X41.326 Y84.453 Z-0.250 F400.000
G1 X41.442 Y84.511 Z-0.250 F400.000
G1 X41.683 Y84.575 Z-0.250 F400.000
G1 X41.891 Y84.588 Z-0.250 F400.000
G1 X42.970 Y84.588 Z-0.250 F400.000
G1 X41.891 Y84.588 Z-0.250 F400.000
G1 X41.647 Y84.569 Z-0.250 F400.000
G1 X41.446 Y84.511 Z-0.250 F400.000
G1 X41.283 Y84.422 Z-0.250 F400.000
G1 X41.158 Y84.311 Z-0.250 F400.000
G1 X41.065 Y84.180 Z-0.250 F400.000
G1 X41.005 Y84.032 Z-0.250 F400.000
G1 X40.966 Y83.719 Z-0.250 F400.000
G1 X41.021 Y83.414 Z-0.250 F400.000
G1 X41.083 Y83.275 Z-0.250 F400.000
G1 X41.179 Y83.155 Z-0.250 F400.000
G1 X41.358 Y83.028 Z-0.250 F400.000
G1 X41.483 Y82.974 Z-0.250 F400.000
G1 X41.752 Y82.917 Z-0.250 F400.000
G1 X41.973 Y82.906 Z-0.250 F400.000
G1 X42.970 Y82.906 Z-0.250 F400.000
G1 X42.970 Y86.071 Z-0.250 F400.000
G0 Z4.000
G0 Z4.000
G0 X37.257 Y84.999
G0 Z2.000
G1 X37.257 Y84.999 Z-0.250 F150.000
G1 X37.362 Y85.363 Z-0.250 F400.000
G1 X37.512 Y85.630 Z-0.250 F400.000
G1 X37.597 Y85.729 Z-0.250 F400.000
G1 X37.692 Y85.814 Z-0.250 F400.000
G1 X37.933 Y85.956 Z-0.250 F400.000
G1 X38.226 Y86.043 Z-0.250 F400.000
G1 X38.387 Y86.064 Z-0.250 F400.000
G1 X38.559 Y86.071 Z-0.250 F400.000
G1 X38.932 Y86.035 Z-0.250 F400.000
G1 X39.230 Y85.935 Z-0.250 F400.000
G1 X39.406 Y85.829 Z-0.250 F400.000
G1 X39.560 Y85.692 Z-0.250 F400.000
G1 X39.717 Y85.470 Z-0.250 F400.000
G1 X39.831 Y85.178 Z-0.250 F400.000
G1 X39.899 Y84.800 Z-0.250 F400.000
G1 X39.913 Y84.489 Z-0.250 F400.000
G1 X39.877 Y84.008 Z-0.250 F400.000
G1 X39.779 Y83.647 Z-0.250 F400.000
G1 X39.683 Y83.451 Z-0.250 F400.000
G1 X39.560 Y83.288 Z-0.250 F400.000
G1 X39.341 Y83.106 Z-0.250 F400.000
G1 X39.078 Y82.982 Z-0.250 F400.000
G1 X38.763 Y82.917 Z-0.250 F400.000
G1 X38.559 Y82.906 Z-0.250 F400.000
G1 X38.185 Y82.943 Z-0.250 F400.000
G1 X37.782 Y83.100 Z-0.250 F400.000
G1 X37.579 Y83.268 Z-0.250 F400.000
G1 X37.418 Y83.496 Z-0.250 F400.000
G1 X37.369 Y83.598 Z-0.250 F400.000
G1 X37.326 Y83.709 Z-0.250 F400.000
G1 X37.466 Y83.414 Z-0.250 F400.000
G1 X37.646 Y83.201 Z-0.250 F400.000
G1 X37.712 Y83.148 Z-0.250 F400.000
G1 X37.782 Y83.100 Z-0.250 F400.000
G1 X38.046 Y82.979 Z-0.250 F400.000
G1 X38.364 Y82.915 Z-0.250 F400.000
G1 X38.460 Y82.909 Z-0.250 F400.000
G1 X38.559 Y82.906 Z-0.250 F400.000
G1 X38.930 Y82.943 Z-0.250 F400.000
G1 X39.228 Y83.043 Z-0.250 F400.000
G1 X39.406 Y83.150 Z-0.250 F400.000
G1 X39.560 Y83.288 Z-0.250 F400.000
G1 X39.717 Y83.511 Z-0.250 F400.000
G1 X39.832 Y83.804 Z-0.250 F400.000
G1 X39.899 Y84.182 Z-0.250 F400.000
G1 X39.913 Y84.489 Z-0.250 F400.000
G1 X39.877 Y84.972 Z-0.250 F400.000
G1 X39.779 Y85.334 Z-0.250 F400.000
G1 X39.683 Y85.530 Z-0.250 F400.000
G1 X39.560 Y85.692 Z-0.250 F400.000
G1 X39.340 Y85.874 Z-0.250 F400.000
G1 X39.077 Y85.996 Z-0.250 F400.000
G1 X38.760 Y86.061 Z-0.250 F400.000
G1 X38.559 Y86.071 Z-0.250 F400.000
G1 X38.184 Y86.035 Z-0.250 F400.000
G1 X37.887 Y85.935 Z-0.250 F400.000
G1 X37.786 Y85.879 Z-0.250 F400.000
G1 X37.692 Y85.814 Z-0.250 F400.000
G1 X37.508 Y85.625 Z-0.250 F400.000
G1 X37.366 Y85.372 Z-0.250 F400.000
G1 X37.303 Y85.196 Z-0.250 F400.000
G1 X37.257 Y84.999 Z-0.250 F400.000
G0 Z4.000
G0 Z4.000
G0 Z4.000
G0 X39.469 Y73.418
G0 Z2.000
(autolevel)
M5
G4P0.5
G90G1F400Z1
G38.3Z-3F30.0
G10L20P1Z0
G90G1F400Z1
M3 S12000
G4P0.5
(autolevel)
G1 X39.469 Y73.418 Z-0.250 F150.000
G1 X39.383 Y73.540 Z-0.250 F400.000
G1 X39.362 Y73.655 Z-0.250 F400.000
G1 X39.283 Y74.453 Z-0.250 F400.000
G1 X39.228 Y74.672 Z-0.250 F400.000
G1 X39.079 Y74.871 Z-0.250 F400.000
G1 X38.910 Y74.972 Z-0.250 F400.000
G1 X38.532 Y75.032 Z-0.250 F400.000
G1 X38.834 Y74.997 Z-0.250 F400.000
G1 X39.079 Y74.871 Z-0.250 F400.000
G1 X39.210 Y74.708 Z-0.250 F400.000
G1 X39.283 Y74.453 Z-0.250 F400.000
G1 X39.362 Y73.655 Z-0.250 F400.000
G1 X39.383 Y73.540 Z-0.250 F400.000
G1 X39.469 Y73.418 Z-0.250 F400.000
G0 Z4.000
G0 Z4.000
G0 X37.244 Y73.418
G0 Z2.000
G1 X37.244 Y73.418 Z-0.250 F150.000
G1 X37.244 Y76.582 Z-0.250 F400.000
G1 X38.384 Y76.582 Z-0.250 F400.000
G1 X38.873 Y76.531 Z-0.250 F400.000
G1 X39.042 Y76.471 Z-0.250 F400.000
G1 X39.169 Y76.389 Z-0.250 F400.000
G1 X39.262 Y76.287 Z-0.250 F400.000
G1 X39.322 Y76.167 Z-0.250 F400.000
G1 X39.374 Y75.880 Z-0.250 F400.000
G1 X39.339 Y75.568 Z-0.250 F400.000
G1 X39.284 Y75.423 Z-0.250 F400.000
G1 X39.196 Y75.295 Z-0.250 F400.000
G1 X39.027 Y75.160 Z-0.250 F400.000
G1 X38.914 Y75.104 Z-0.250 F400.000
G1 X38.667 Y75.044 Z-0.250 F400.000
G1 X38.472 Y75.032 Z-0.250 F400.000
G1 X37.244 Y75.032 Z-0.250 F400.000
G1 X38.472 Y75.032 Z-0.250 F400.000
G1 X38.710 Y75.050 Z-0.250 F400.000
G1 X38.907 Y75.104 Z-0.250 F400.000
G1 X39.066 Y75.189 Z-0.250 F400.000
G1 X39.189 Y75.295 Z-0.250 F400.000
G1 X39.280 Y75.423 Z-0.250 F400.000
G1 X39.338 Y75.568 Z-0.250 F400.000
G1 X39.374 Y75.880 Z-0.250 F400.000
G1 X39.319 Y76.167 Z-0.250 F400.000
G1 X39.258 Y76.287 Z-0.250 F400.000
G1 X39.164 Y76.389 Z-0.250 F400.000
G1 X38.985 Y76.492 Z-0.250 F400.000
G1 X38.864 Y76.531 Z-0.250 F400.000
G1 X38.650 Y76.570 Z-0.250 F400.000
G1 X38.384 Y76.582 Z-0.250 F400.000
G1 X37.244 Y76.582 Z-0.250 F400.000
G1 X37.244 Y73.418 Z-0.250 F400.000
G0 Z4.000
G0 Z4.000
G0 X41.042 Y73.418
G0 Z2.000
G1 X41.042 Y73.418 Z-0.250 F150.000
G1 X41.042 Y76.582 Z-0.250 F400.000
G1 X42.039 Y76.582 Z-0.250 F400.000
G1 X42.312 Y76.565 Z-0.250 F400.000
G1 X42.531 Y76.515 Z-0.250 F400.000
G1 X42.703 Y76.435 Z-0.250 F400.000
G1 X42.834 Y76.334 Z-0.250 F400.000
G1 X42.929 Y76.213 Z-0.250 F400.000
G1 X42.991 Y76.075 Z-0.250 F400.000
G1 X43.046 Y75.770 Z-0.250 F400.000
G1 X43.010 Y75.456 Z-0.250 F400.000
G1 X42.952 Y75.309 Z-0.250 F400.000
G1 X42.860 Y75.178 Z-0.250 F400.000
G1 X42.685 Y75.036 Z-0.250 F400.000
G1 X42.570 Y74.977 Z-0.250 F400.000
G1 X42.328 Y74.914 Z-0.250 F400.000
G1 X42.121 Y74.901 Z-0.250 F400.000
G1 X41.042 Y74.901 Z-0.250 F400.000
G1 X42.121 Y74.901 Z-0.250 F400.000
G1 X42.365 Y74.920 Z-0.250 F400.000
G1 X42.566 Y74.977 Z-0.250 F400.000
G1 X42.728 Y75.066 Z-0.250 F400.000
G1 X42.854 Y75.178 Z-0.250 F400.000
G1 X42.947 Y75.309 Z-0.250 F400.000
G1 X43.007 Y75.456 Z-0.250 F400.000
G1 X43.046 Y75.770 Z-0.250 F400.000
G1 X42.991 Y76.075 Z-0.250 F400.000
G1 X42.929 Y76.213 Z-0.250 F400.000
G1 X42.833 Y76.334 Z-0.250 F400.000
G1 X42.654 Y76.461 Z-0.250 F400.000
G1 X42.529 Y76.515 Z-0.250 F400.000
G1 X42.260 Y76.572 Z-0.250 F400.000
G1 X42.039 Y76.582 Z-0.250 F400.000
G1 X41.042 Y76.582 Z-0.250 F400.000
G1 X41.042 Y73.418 Z-0.250 F400.000
G0 Z4.000
G0 Z4.000
G0 X46.755 Y74.490
G0 Z2.000
G1 X46.755 Y74.490 Z-0.250 F150.000
G1 X46.650 Y74.125 Z-0.250 F400.000
G1 X46.500 Y73.858 Z-0.250 F400.000
G1 X46.415 Y73.760 Z-0.250 F400.000
G1 X46.320 Y73.675 Z-0.250 F400.000
G1 X46.079 Y73.533 Z-0.250 F400.000
G1 X45.786 Y73.446 Z-0.250 F400.000
G1 X45.625 Y73.425 Z-0.250 F400.000
G1 X45.452 Y73.418 Z-0.250 F400.000
G1 X45.080 Y73.454 Z-0.250 F400.000
G1 X44.782 Y73.554 Z-0.250 F400.000
G1 X44.605 Y73.660 Z-0.250 F400.000
G1 X44.452 Y73.796 Z-0.250 F400.000
G1 X44.295 Y74.019 Z-0.250 F400.000
G1 X44.181 Y74.310 Z-0.250 F400.000
G1 X44.113 Y74.689 Z-0.250 F400.000
G1 X44.099 Y75.000 Z-0.250 F400.000
G1 X44.135 Y75.481 Z-0.250 F400.000
G1 X44.232 Y75.842 Z-0.250 F400.000
G1 X44.329 Y76.038 Z-0.250 F400.000
G1 X44.452 Y76.201 Z-0.250 F400.000
G1 X44.671 Y76.383 Z-0.250 F400.000
G1 X44.933 Y76.506 Z-0.250 F400.000
G1 X45.249 Y76.572 Z-0.250 F400.000
G1 X45.452 Y76.582 Z-0.250 F400.000
G1 X45.827 Y76.546 Z-0.250 F400.000
G1 X46.229 Y76.389 Z-0.250 F400.000
G1 X46.433 Y76.221 Z-0.250 F400.000
G1 X46.593 Y75.993 Z-0.250 F400.000
G1 X46.643 Y75.891 Z-0.250 F400.000
G1 X46.686 Y75.780 Z-0.250 F400.000
G1 X46.545 Y76.074 Z-0.250 F400.000
